-----BEGIN PGP MESSAGE-----

jA0ECQMK4dp7bnyEf73/0uoBolVDfZ7DZo/FXsfxI0r0neCiARS6c/f9rO844C4n
EclpIBd6A6WzJk9IFukl5/nnB5324KwE5DPIXV5jHx1bOGR1IXugKdNv1IWRFGfZ
xTkHRqXH3yBwB+V55xKZ3CtFbUJyUxE/HH2fOJNDf3ZOr1KzHeTSGx0dYM/1IW9T
bLE3+14Ruki9pXNnyT4ZrTHrBjgMWGp5Wiet1LYiNdYE74hgwFhGq8l0/BSD75HJ
gK5Zye9NhvCgGd0Or4tMBgWDw7C08G31ri03gMSY2aXlKcRI4eugYrr4ww9VaTDT
18xtnxjTwPYFjdrUTSGlsqO2LVZjV2tNisMmK2WOI4mAnTl13Htyy2l7Y8KhUS3T
D4kcukB7DAQvsaRMScqAtCWJ2vUscc6f16BU3Z65qpnuUAiexmZa5hM7ShpnnhOY
NE2HHiYXUeyfJ+SX73kuzMDHG8ley5n2xks1GQQVStvyZLR3m5gyWX8ex60EdaVl
+FQITKubnQh0QX6eIt/QwXd+MQ75M4J3FlooS0oSyPSSlobEH15VI4ZNrSCilIJb
Jkz01QFxI/5G9q+Daa2rW3bEz22h0mzF5n/Klx1X9CeEC4YINSvFZRBuRYsxGBlb
7jAdnkuYrJCc+x5Y6p+fk6n2OuIZBcoRh6aaGOWi96D6rRBRtd+4K+QKH6T8pwHq
wk3aaeEKle8NGIifuvnCrVp5Fg58/FMkHzglRD6TItez/08GIUT2gIgZK3jp7Mj7
ezz/VGc7VmEtd6T++iAndnZd4yewFZ6t67tX4Uv/+uChVsJisd0+JqGdW1trbNud
GodnLX6rVDiV3h62NzqFP9vgD30PEKQPPCu8+UKfNHT2RIOdpmFqpnrWK0fLUqpR
A/dRMBXQ3kkEsaRCkfxG2NeK0pzmalCA53txyKU9thqB9YO1i1A1K9Jcky1aVb5x
1aXHMUDPSVn7D2VXoVi4EmZvEimVDd0ZCDhbtSh5q7kokAc2Ns1qh+W5Wgcgt+55
m1FhgLyv/vuRMCfsyShb1Nv+BKGKMd5/TQ5AgH4LT7S7yde0LOuWOM658tKL61Yh
/w+fu3HmjVi8R8cFalTpPJhsbASHz4NhyU4IPly5e2AB38nofgO10BG8uNQx6h8F
Yw7lHVoMspGhIRon06U9yT7wRgS9jjra2/C+P9lPYtDplitaqAlOwhsUNiZdaFiS
3gTdaGs0rgpoUNaA3gwkiS0nCOzTEURWViVta7Qr57gTs0e5Cgf1MwNy4hb9XDvZ
WlmzOXnizkCeaCpm+tY2QnfflrYsZE5coFQC7XICXl0ce33H8cf8M90j8CSOTJwn
mofBSp+y8908ZNL0RPV3lFPMYOx8jBGt2lVXQ1m6yjBH6me9gwBBG87Qw4T40na8
05Tl8CNjUCQZBncQ3i0yAMQOClXPuV7+e+cN3WUifWvlkAnZZwytBSEBSlkd+kZR
CbOCgoagFBS7A4vOR440OX6DkPH9rSZ+U5DN4QeyA+0n8g3MVRUKLPUUghtMQ0B+
5Vn15kCaqH9wXDRqSMNeu03ouOGeDfNrPdzANs8ItBEifCqJBltERMlREaE8oc+b
CoCI6CSSIyXxfrPklTC0x/Z3qG/YQffARAdHkQxrv26Cxvm5irWv07B2wNyoytkA
0qMx/JU4p5zWJ4+mdwA/+Etk3i526lOuifed+r+rPW1coJfKU+roTfuYh9QCk6YE
kwMOXMpOsn/QFqACtXnXEo3NCdIPokobqj/E5Smp65+HkHgGaZJw7TwFYSKYtlZ6
DKK/ot55rdliTLWu9I16DE/I/+gJ0+Wqzx7Eb1/5LOq+LMKw1Yno3z/Hqcsi/sUP
Bcx5GKzEv8ZXeAaPjiEeGpowce/hXVsFSeKoapA9Hi9TFgq406UtSggccm0+VbMy
aaGoSAmFHFJyiKxooycFTaXMns4cXceoFmieUQm+1A52Yp1bR+c7VObK4BYcj7zQ
MZo7USoWsemAtHv0y/mbns4xg3Pje0e+daYkgYZgOhDm7mv9HyHevi89lKelVjD3
K9sgcoQ5O2k7sded2I+pMYlDt4QItSA/uFqrXBuac6c0XtgplzfuwfFWZI1NqjQx
03LQDyytDXinzycVe6a53rgcmVUQJwQJcKAOGzkwpikUwm+9ZW0FFoGNWnkB0Hb+
8vkN/iEcIKrGKiW3n0dmhgaCBknij6dmnb1+3r1o2i66/YEhWc4nNzGMlO+n6fnj
Fk86dT7zmt+i39H9MF/OQxE6IUg4vlT7wsNPF2Jr60qYNJm4ganLxrYcY/1mneAn
qOGgnF+3lw/b9SEnKaEruWKzcO6HQJ/fHtTW6Nd13aBD4D5wszxiP7fkMQHvLEmt
RugDGmlazEpU0KNEC3wQ2mW7hQ5ZPz57kcXgiJk/9b9MxL6jNy1+F6QrrecBawQF
qNfVIwTQeNF5TzFoLhnNdVFDpclH5Asgcle3Ag4KECw3Us7Jpzviux6FIzyOkZYP
Tu9wg4cdXP1aBkXhCsrq6yPMQpQ+dshDhLS26G6chmgHbJf8bjSsNkCKQye423KJ
YWprxANipdS4iM8xvNdA+COFXuEkzMn1jG68kgG1E02wp5wHcH1L9aX8dC0+JCdY
2db4U59+GHAbapWfbx2N8yhQ/jmGfk9VHpkK2yCFUi4YdTJU2vG1kQ12wIRTebGe
8UTCnz80hzQaqmcaw7OneYBcRavCUHzhSV+tFIgSvUk3HjhFmSFrOAvVQ4FhI6K0
+uLrXPH/63vSRAQ+0LNiwfoDQPCW+J8jExnx9n5zju2WUpMnlZbPxiAWZjcm4nVI
jBf6af3vK/OjPrUE+vtyMzSWoXfBMFH3U6nWe7F3yDjImYKEudvTOh0ODvVE7/6/
5vYoUDxFPP1zJtgTV3//Xoa2kh+hbFaCwNQYXJhyF8zla1m7zJvYd2bV8InVqjUo
9TbH8Vrr6godQkD6maXJn5PgstXPnKcGx5WXc3Y3bRhRDXbPIo+uBTlvR8mUA7Sz
wUjqhqkklqysXutEtM+73o7E+n+HrRE1YFJ7qOUUfgGKQNlkP5py2svcgNHEaWM/
/8b99C801cOfhd9zHhF9k196/0vWGLB7JTWGsB/n3p4g2MmOKnDP8xYypnWPtR5H
O9fN8zwQ5BKkuu4Lx+7axa1r1pjw1jD2jaIvvtiz9Y/TqBpcUGJt7hW5bpRvLGNZ
b2DqLQ65k+p2/XEHAtbwe8Ubt8DymGMqfnGEhKscwXE6cXLlNjn7/qL00blU1mBL
tJfva/BqJhFJoiZ72EbnkGQWJhBcRgtDF8qTEB5+Mt1gCneNkGxvXofmR+O0EyKg
Gwshm+0vbXUdHvRuknwLiN8Yi5YvdDl0m2hGaNyvLic4sBkc66Psx/B10K1jNjlG
NWCo1XRmCfKTaZJRifBKCSOIQudS7N1Q2Bp6ZCJUrpHos9QTgeAXpEhG9bKLSs3T
y0LjZYWeJqoiVBCy0tm51vsMqHSYLWAh3Lg8KJP2KY+CJ5eYp9huQ9PvdgWHlNJx
Fox74Fg5ZouxFuHYCK06V7YzlKWbxGpHBYzmxa05y/bhNY7nd99huJAF+YATvlXD
G8MDhVG6/AssR/j5oOY873yKAFWxh9G2X4Xuo9RMxaurjQG4adqBwLJdNbc3RCUV
zzduyQn9hSwSw3ouSmhJL590kluxQX44qbk7qbXj6jFiU+8xp+FHrSNRavL7SlXg
16UiRQow6H79cEjn6y/iYczpVZ/mApIUjaKaetIWNz7GF9Hzo70SRin+x7gLKNZU
XFe9GE+WrLgGiLveQoKh4iRl+9Bc29FGWrTXIhQE2sEYlnWlJaHtEtu9kP0XyB66
pFiAwRu/WTuSeCMiTVRBPM7+61q3W49o/5U0TUwxPFoWElJwuFiEr07ZpCh+X93P
zmXgLQGKaOAkA5PCAcsWILScetuvmozHTvPe1Izsh/vzr5+o6xYVPx4iHKMiRVTx
Pv2VyAlolEF2TwdtiOnENIus4MPkNOlXaq1DFE5QQ/AOFwqizfqmZ/ro3NqA5J8i
pZ2KGlWzU+zoRM+i+LcowVH/u7gZImb3N9dvPNXpMLDwep0cBZo5//BrhtgsB7GI
Alt37abrW5Rk4VyzEzqtoa9Pk7dsEOW77eT0wHB2oKRm5yM9JJU7G7+NdbDFYKgp
ScLvoxNT16xF0sztBIIuHQJBNDNOeeQRyCR31S4NSWe32vNkig/NPbdXUEhkKTOy
GVs7TsGpc4JVvtNvNXbcNWM23VGuccC7kN+Gp3LnndUysARj65REXD9MEj7p2M9Q
pv7Vr+zlM2qQODVmnlGUpKAXmV2VJwikIEs9I0NBPgoQOjR8r2aRLZwzB0SlA9lE
XVspOUo1IVMx+w0l7lUnem2QQLrFBL+WjTkIe9mnf/N/eqxYcAsdHXQRfKy2cc8x
pxdFPZRpC3eGRRGEEBRfp2yCH2DyCjnnFe45PVlYtIjYkB1ziRwgCt3gKK3StEsF
fDMzs1KM+PrTf6tJr/k8o57lMrtrL8IbhP55fXbetwHM2IBtMswCWTtYpJ7rgtrp
CUWVdwev4bxrW/xSZsCc2GkTXsd+QqYDiBFZPwVXaA8o2WFsic2GzAxrQRvZzfYt
LrxvcVClAsh2kGYQxJnCrI2eZ5SGikhaL4iGreK06hJFAUKOEB+MVbk03zWDQRLa
1zTXT7K4labPiPHYFAyoFWjTAEtTEqWVhq2i76X/qXU9yR+875yED+E4GfSP7TQ3
+RWIRAB0zLy2KOkVlPuxAaW1J+QGIiN/kONpDCmAksBwW1yK794SNaQMoVXoyA3g
F6nNRz29YKE079qrAZbJQkDF7D27sRgvzYv0y3lWbRjuj0sUVOManSCOedR6yDXD
wqb+tHaHfogwRP4PZt94YcozCIXSIt/OJCxSi6zv7K08LoAEucLZ4jMOGyau5dq4
vBNK3SG1eEEtm47xXRn0ynHHH/4bCLJKRG4Ii21Cjl46rEBL7+mFyddf72u1NRDw
WTbDgF8GpFymB1/uOl9zMrGXjyxCIXAwnOsaWpi0EDfGWGiWHUqC72IZdT0SXgSL
N9z4mi5wb9MinIHeMNwqlAkwPpEtzrXMPON4UvCaRFS1Ysm+lmWWjpxagzUbI/hV
tjS9sr4hZoEyrArCtvOS97In386D7HS2SIZhBa+elf5v2tXyctsoUUfeyJ89rRUl
jTTVedU5aHDW+C/SD7NOB6tUzE/5K1OH1pETPOgp49BQzrgurMjrVPK8QW4fkxL+
JPiyHvvoi+PetqUKQywUUOTtOMvrAd9kbOWDzoJ6SLZSB88F0VVnwEhM/O7J1zEQ
IVQVilBAwuwQvvUywKpvzJsF0vf9/3VwxnLbzV4+nyy8nUW0mduFvcF2rjUwFwuI
6MU41imcHLi/6Lpb5j1to/Q/6KqxnVvJOr8s6EJRgkjw+BRVBvPiThdMURG1RJdX
RwNuRXRVIiGZukungUrHuC4dDaR0rR2N/3JBV7ZNl12WHyDq2dKINVlzsHerXj9k
2pS7FKHS8BvR4y8aKCxHN4/T953ws8tstxLa/7Mxaz9RhNouwWJtyAsDdyVGVCXJ
gRuRGWwiYTXmrrEL/quTOWO/fIHlSvQqCKUV2oPN7LFoDDhgGVZhq5Y2VYE8pOCT
ibBsy2nVr5lmGgGeM0arJJq+UWnVLv3yKWedp02LA6sDMvUakLpIvaKl2eTvjpWz
MGrKhhboaGxCD5AEYhkxEGwsHwe/NQ5qtPk89IqMVRbUxy8ymqga128nBop3bDFf
DK37j2JcK7Jtpxcw3tbjq8wfTb6T/MUo+MeoFxvWXkzagr2ZA+f/ZoXPuOpb0gI5
99Hsv9ZT+jhcWpN848bddSDlbiNUutewqOxWwogrP/CAbUDFzO6ROl2pEHRn3elq
9MGxkPy9uqztTMTvpmlaqDtHd/Q3peKFNGOZ7svQCkouDZkS1dk3FWcaguGZ1Mqq
uZrTeefbBcZgXsFES/Vbk+QejsFAUbowLKpDAV3CW7CUZWiv/bFjTTKkrkmgHBpp
EjNWgo9QPxDrCl+gmjv8lbCb1zbnt6I6A3O3jHc6r2XDp28r03qqJXAXjc7lfdep
Fc/uGSBok3P4HN0hRU4wxuOm9WDDtoORnzqms3YoC6cmMdQ7yCYWf5gXIPOmjQrg
sO/A+2ILkcuUTL/MxHqmr4qqv5u0mo/ixNSjGa1c/+WYw+XdH6JSglac6uIcwf/q
H5m2FBEmcAc54DWDjbqrX/Ds2OSo5hzKYIvZ/u5GJ2hU1NL+g5mZMvF8ernWjJWd
dTCmlrF04GTMu1kgfGCp/liTA1ZiPgAh8Bu6guP9AlVfSFORNQaowW2nd6cP93QK
tbMmAy9ROcbbG8CL/lRI+srssC5JG3GwxiCi29kvZVSYEzHYn/vujhypCWToRPUc
ga28yX31TRG8mnB6Jqfc/7nxFD3oEz4MlpkU70+/NDeTf0gqmFSnSwREnteN/toF
9O0QtVxccoaU1TzCY/7VEznH1X4KvQKYrG/umJhfpMWOjJ9OHLou/E/S1X71PNqX
JibGqmSiuThW5BaI467pH9hAccxTq1gPEde3qohHFMPFcpxCNiv83aHT3BCfIBhK
LJoHAvmKVbeo01HfNkurNC87ea10U7NuVWgnVhJ94E5+WWbp5xdVqJISYBZ6m0e6
cpgDJTZ86xm0Du0E/pg7rs8gRNxSQHG4v/91MRIhQmRjH+gJd4GGca72VoCgixlm
HkZL0NqFPQm27Nw+4L2Bg928onAloA8HFupcf94r/V5fGv1wjRyDZICgHEvUJqhL
fpPFXnzvV/s4f+Dw9HpUrECrnZ1Qi89nlDEvGiB2wtiyx1NtuR6rKTpoGPH9CPgW
quM+yOnIMFlhYuHnYOCzPBEHbNcJ9griegoFPgDga2+zzVG4Jbe75H2/RVp6Q3m9
Z+3AzfyQ2wAwVXhsqlpW0/Eg4aT8xPRLYjKUfg9H+86HfoUY1jJeSYnsxr0swxPH
nBNeI9vOEiVjxbAY+7lZyIPT9PdQyOSepVrMYHhw/88U7RnI6phtJA4Z3q2rVr73
zZnv77YijEUyT7ZbsiVjTCz+Ehpu8laez9LUSa4c7WXW62nuC3Fi+2yfVLAl6i58
6fRKsxkNUV7ha/DvcdQ+h3emsfu3lBXQSESVR833+piVpNNaLVgUI434d/Tj2/Yz
AEDspfB0n0MhLTQmHgwTG6+KFC1Z8zgKg4ErNV/g2iQhfkAzFNu+AYTZTyvboBVC
ef5y3LdlYkpfnOlTUyt4U2g7aGwSkh7WUVE+H7HW/3r9V6TXRa1dMtU37bJdjX/H
e15cWMKM3QDvaST2Iu0Qm4g3zFhxxCErKQJqm8VrzyQp3//zOD88JZfZZNx0yHPf
Sxk6wj9uTvsamWWpaFEIR8yIEJ1DJf4WeBh+lk3KjwD+gevFMdUCvrylEYakg7jj
O4PYUj5ofzlIG3PNQpdiZw3zhCVTUG3XyKbjWfFQPnN3bOxrFhAlRqzHS7whES9w
UpHOyHhwev86rWig2Pklx2GxYE0LUoorTGswipFk+/oeNPivtT6ilpeDQYrCi90c
olS/ubLeedOPYTp9WaMXFklRgkfcFKvfttKm8KrZwfBMFGeVfu4TygzUhkOA4Iwr
E6VQJg==
=k2e8
-----END PGP MESSAGE-----
