-----BEGIN PGP MESSAGE-----

jA0ECQMKAxQrzIMx6c7/0uoBqBQwnL5CgBOP4fB8Mr4xoZDfNP2UQn7AGY4PdTPw
4nviNMZsNUes1zhsRm4CR5AHXZWmU2Prn6e0qUrID4qYtMhtpZ5w5D8lCYOqr9TU
flpD+E7VsmF3wfESlxnz6ajTYZQV0ACKYPHxN9P+BjLwF1iAkKgNUgTnnZxbNuP0
ZwjvYV2C1In6ytMOjc4CoDuZLwUicYgbX6e2RAOVyxWmXh+m01suDTkP6Leiuy3U
TtnmASuBqDyS//R1Vu29Isg6PgRTJ4c//kw39mFTAZgSxCqgw0jUuyZy/xKz43Xc
PncLA9DB3X2Iys2j/LPL3gc1wyK+e3Nthi2doEFSr/Jj9whD19UufOwUuVqZP9oB
Aw3PJkYjqX8aRHwtz0VXs4NSmLWql8Z+9ewkrIEzUWGE/nukWOyI1iB58mPH/ajs
0L7jitln4lYs1UhKbWyJ3IDtpUPkCtDaDAYlXl0Ygr/qSkgI40+QfYyDrzVYCLoP
LdCyquFip1BjP1YU7t2TcZj1EZVD9Q+jPof3EFnoZHY1dfgtn+0YZqsrG7tTMUik
u0gdEfkomeH5jGjrWiekAa6FWCjUMmfXnApCiHHYi1aSL0GRPO64D4zLrSij8RRT
0KI1/PMttAdmaMq6AtDPjIHYDvT5liX574K9Jt5/Gb7lxMXruqE14GtwtSlmvANV
rCrre8IVOdzgu1NmjWsatpT6Td2FdZw+uX/UDVhkcCGMYOC963XsiovwMgiLjmUl
Kvc3YMqLtlN1HqM3XSRxnGAwdGHfk5YSn/91l8gvxcDhkLxj3fFTovgWReBGp1I3
xIh4q/FR/rvMR0NVp1pt/SgdfaAqNDTz1I0Bn3wmB21RjXkJx9r8Awxrhx+RYnqy
5sDL366hZ42LTxB7K1eMg10lS2PgAmTThARr2EFfJeWUf5vZODj/8DBOM5Ahm6p9
QiXCIRlcQrhPz4egPCgQUROeuxJhJ9kTrhdipwizgIqG8Bd6e0p6F92IQ8Zcj+TJ
6oQ8jdJS8miQUiGjkxBPTJ1t/IYkJx0sdhmiu2eaAYzQtGWe2DG0RYIhK8wg60W7
8p/u7goHCqOv5/uQTL7XIUY0m0rbqMBgYltVNBLKDKyRmr/a+rGXxnQ+OaiwPPVI
xHOHvkSjNtgyrcNYBCScSHuiJfO+LO/SL7TdFlC6fuTDOzlzyvn0sk/8UMHlYaW6
MwCOy45t6P/Bi7KE1KsUnUoVPfrLfoLgsJxUrsdiLY4VHNxptC6yaRTgzlUntg6h
MGiVd6LQu7jVvk2qJi3r1ntc+VMtK13IPyvH+S6nXsRDnk+m04TiWR0VyT9w6y6l
Gkv8Mr8Zx4pahhgk1dqWj5oqLeGX8M83KHF3vhvTy6XN6gwsr7kgN183/odmIAS9
xmp9W23th8Ii+VVU+SWasfRCJiUarfpjP9SN1ArOqrIL2iXO/IDbwHHpx6WXlp9e
33J/7W/bCU9Q+rsfQqeBVi+8ezI3t9bLe1QBuCbaGv1MY8hJHMDEhgmj/JqfdPkn
qGNk/knYdzKR83EF5HebMk02vT5vHMlfz2ZFNa8XFOCJDSReRi0j309augiYmX0q
SPu73JgM/ndxjSDVLz32TnrkKnLydbeTXvw30jDIxqngYoQD42TPDOnJN7aqNzc8
MiEd69InQcDAyBBB4+UKeHUbsHl6k5SgYSXK1Jkn6ufbS0XEK9h9LvCvDlOFKCjU
EgwmilfhmlpTUSGiPj9Ll+uIsMcO5Acu8mxJj11X6SktUNNISmXUWi64OYZFuk7s
gio8EQxE+NpDs2LAe26l9ePzwRZ0xeP87Mq9xF+OsXpdUsewIiOiUOJ555vvwFWj
olblKK86S9yjsd1rdg9DtL0ydrrXOhSaBV1a6mBJ/Z5Wmz3ylek+F73QdSd5qjjD
uK7tEuMnHf1lXpM1kypPLXrv7Z7paDUE/WdaFDiiv0G100Bjey/PEvTYu2j/hX9i
TTIFmYus79MWKf2hfT3Lupbs6gjl8htRtnd3trMPpp5h9QAe9uW7QYqN1zK/rE03
8PO7iYvG1AyfFXSfhmKyxLxWZ+3MwMVa8RCQV2GqZrwrHC1otATdxBtGoAugdUsx
JWnl/5B/G12do21nFSJjM98m7SofgUWhWa0VfPT2xvsrereTc/695aHWh8yti7j/
5MrkQ9jDC6GZbL3Ng5TJb3bCwC+FNUqn8diGemWkYcXeF/4F0jUsgAFNGg75GDs/
GC4syK2bEEY/ToCp2Qu7LcD+8sia9fn5I0bP/xctS1HDk6sMERcq4GRIMauZzY7A
DEY1ApC08HgV7+7TAyvRZQRZzLkxLDv1G7Z96rWsKlQWLQyrVhxcCZ881XEjPKwS
fywhH9yizlMNkUwXpBNrGuyAS83HvJuW/9eYT6dDd135FJtOoF29+u9P5ZAPfMeD
1q2/ap+oOmNbQX7IaXiNE+s6igFXw2sUzduZFavFW0EJIYtsZVjUq03S0yVOl2N5
5bN56lribgMnj4Q5yTKf9FM2hy5YOm+Lh3YZ+tOnViIOX3U3bWAQwsyzTJTHT0EH
+J7o8nd19IRqLDP/s1gmLEh0ZvoUGBuvL4WnCk3QSFt26h364BAlb8qtkJ6Rf9Ud
XcnFjC9giK8ObvE5MUBPFH1BNjXp+pPG1A0CyfuWzcubXIwx6GsQAqR190k7hKcr
kvVvdVUGFz6afO80eb+acixkTOaJ9Le62awP26dBA6E8ecKqbNlrb7WOBRwQ3Miy
qcfsFAQzqmc1k0WBjpcDP9JE2F6HdUWIiISnIwNXeUGv18QGM/uwTdnTH2VluzUA
0EjmftgsVSFRd8aoW9nJX17MiA1iqdF1qakWIaTEktEyZ9BdgkS/AiBR5IyU2oSD
RY36Buv8BpNJkvdQ+gjkLxxhpPLmmoBNIkxKAZVwJw33O7JCEWW1lb1j0vEtaR0l
PF/zz4bQIPRBMgy00PFAFNJeyVgrAu2yC5ZbYK1kbtqwryCGtBbPIK94rx9cDkLR
EOkWLr2y3Whymo+MuV9qzAecxXwkbN776fBEdA97TZjbCazbzi0lEAsbVjYrW2V6
fFE6ybGNXl2Z9drQnx9ct83YMwpLY+6HT6mAvUm6eQk7B2AwzMUgHdPD8FzyQP+u
PDHiw4wynuarE31gllLqXbJbvv78AnBcB5FXu7SCEDHsnrZKLvFoDzXy1JIwyzRu
DQNLmGf26P58OQpHVSJbFXbNmv2xvRAXhycOCiamdLG2hBa2yZJrAMrlYXQJlwph
Wc3AGDMPX94bg45G3DECylMiI8g5ME8gpY0o4AeAWNPNjFJSYU6uI9Zq6QmXxyQ8
eg2WiZ/laT2u6Wjp2MUJdlTk139TSV2HrhwGWvlzP1f06rDAiPvsF5hEEX2hx0j5
10pxB0SDTrbDB7R9DUpZvxIRjm/y2dV83Lt8N6usJZ9qoIkpacdUFqCQGZjGF8F3
G8KfhAQti6QkbY7wsojFneJKobIyA0mrjai00kkctlfTyQFWgDWbk+UJDWrIQHrY
sipKbfL5sbcMUmjSGCL+ULoNngkSGpjB7CKK84vMaqYfjA0NqGyfyGItsxQvrljC
82a+a3KnQDMKBrY6L51XWgJ7bDqVUAxPD1N/GqsdgI4hHVyvYF6FWICqb56C1l/5
jQAIpebK6v9T+RveEW8klh+auHlSfmZ6um2jAarigRna27zr4iwtsHkpdiJTHkAl
EXgWkMOfMrEmrSJparGWVz+UhTCeWQqOzfa17vUd9/uYYdUnUnkAj4P2pnHh95ee
WKLmwt6V4fpFjRenoYLyKf9EcVrBJON9hZ2AK85HRdxVOO3G5GKFGkrczTwUi5Rw
/nXct4QKQsTALkw4EUtlRc0BnIhkgdMs746/1sTyYbOnmjCvwarSyHfuRSrzu2Vg
GzuiziErvoSucF5jaEwUTWgJjR1IHzF7iu57Rbf4zvCjvgDRN4W9mgHk5X36b5YW
oUXqtYkD0h/h+j37Q++hwmp4jNvGrNnboB6gQsbez/XrEqJedauog0QZsATfeUjN
qZrQ0j1QMbWK8OLaze0iQ8CY7v+yXAkaQaPCzUP7xlr0uCykqZrFTm8ZmPsg9P4T
2fChcrvp+o9nimGwna7q7iJKkl/Et5J6x/vHOFxU8jXMbYdwuNlxb0rTGkhVPfki
NnTRI3Uda/FZpXTxkavCoEF40eHyi0lNWyMRJ/p23uAZq/66CvF2mIlJ1s25uOKS
1rMeeLGbkz8e/9A5R7lqVFSbL9LpdtYbrg72sOjpxuHHzO4dTL1efo/zCwmlBGiv
TP1d1puLZMivjij1IlQIdTa/j8no7dtGIs+LiIVsKi1r90cGGexR3x/4ENs3IvT/
+4yLPFeiXaBm5vg9yTB0UijN3e6O9cPFgBIWgqU4IY3VYLBoZRvzkUIRsEnnWg+q
yJ7W0WZBm2XobZXRfkWwqwgs+yC1DRyxnuYcZH7YLeSFW/vzXfDZg9GX+EUnK0gm
kN/eQiwAeT+WXbNGPsJnLNEaxwsNdyf46+/7CIZn3q/yNpnv4x2OBhc6tP0UM2Ph
VFaK/KAG7cF5qWL/B5W/om+yk/DgOarfUcMNh8QOVU5VYnKpGo2fdlULlMrnIyv2
t/k36wKfUqHRqaDDQQt+0ebK8Jzdkl9kPOr57rCoFAxF34Y1DGw4KE3PL474B2m0
jqDbY/DFGQxRF4ymEyviHwsFD2od810+ODblxUKR6aaoj2J1gclfYT9gO1U9WSue
knYTQ2AX9Ur/sS+IPpVbCABsCDD5e3b/a/NSslWgBOahVxw6y4Q3IClp/iR4IW81
hzMfwXB9BycGt/NTYGsmEjlNo3oi6qabqKWYt7SVvVTUVaGneaZ/0oNUSAzrxzsy
kHubDiveRNaubPfLxipwLuBHutnFEQ2F6t+ZiyKHNE3t/D8KExT/FanfHIAF5tpU
vtR7ND+SliV4TYj2MePsxzAI2zYFWKSZ9JQWnlXg/mRZaW53wnAhTyh0yT4dahgn
UuKiCGMPC12Ly/YGvsmcV1F+WrJtBDyCUQ8OOtwT6Z/UoH0B3ON0DVu0f1WnkGcf
ukdYhf2Hz6KklTcFkMkkktP17lyJR80Rz/mUTnjHF6oF6x8LcQrs7ceFS0Pc7RQf
pRe1gvLVYs7RANeUKFg2bJEfZVkIfHZ8WwcumQ/Os1mDs/pR1N+aUm6SPlJV4I6+
jFZlo2Ridb+XqBxANNmAabQVEtdQ3tbZgcmOrmO5mz2X10h+uowa+WhX9S/7o298
/NAjAC3uIF7qKpEJ+9ewv+RJg2IotRd3LuakCdWYSKbt/qKqIh/PJKPuAdWpELlV
8R4SwY3fed2UQDLTGWhAGEKQDI9m9uwpBlIMyj5ofikCo5cP1Kv7r/IdySWZHkYQ
UHgVfpQvqBHrpmi0H8V80ujHf3ix7raYXcx95xihrmakrE+ZlkO4wge4PmKreHsp
uiAa+J1jOfTlvxxjm4OsPGKM/h+eBKAQ5JMHbggdRtaNTQz+vLlYE925F90W0Rqy
LcL4B4bseOWxp+zbSztl44EXc61B8glHgtj7tWbwVVPR3ma0RmquKvPV6QtvkTak
NM/SkPYa7iO4JpDAaB57246sq2ru1qlSEPwt506bxR+X+BESJRxkz31FOfBts2+V
PWUFSfiYOBw5xGfKFf8h/kC7rrg5lIiC9l/iYQpxawOeCIJidtpb5W9R+u03JK0s
lwcLj0L4gbkoTrBZPGvKnaaS/KkZEut5p2XStKTHHp7y0/rvq1ss3b70RWYrLdVz
Mzmb9aPXA+c65kc6dQtblI8SrCzjXP2GzoIIOjlt/aAElycBbjztMuMXPczs9jsT
BmeanIjqb9SScOy4/Q+fFh8YY8LViIqpYzQV5qZSVCOVbIxIwfB5kjOPWQe1SBFY
k0hRYYaSKK4v/9PuxFyHU+YyxVdy6GhplNP05PV9SCXRFu0MeMGiu6Kh97fUE6Jq
VpwN/QD6ORXQgxbCmtl0pJM9TzIQtV0eQfEhVQPPzxB1IenaYt1ijrXVuHT2Hoqw
yTUqZ9mkzZylqij+Qp+Q34W0gG55eb9UumiVpLo/aFK5hJn6lFuuobvH3mNofrmD
PoqDgE5Hk/UijgIDhqEKvXNC9Wr8db3xGZilfEQsajMUU0Q7jFXgXRkWuO3moReI
DV43aonYrJAvDop7mijprT+1btXe6y/fYCiFavh96V7mmZi9wknvqee3/0uh+ufD
9x2fb9ZlLWs8kaPW1ixtzQLEDag8/yX7W9RAmn4hvcKyDXsNtkI3XMGh9xIdgTol
icYsnBVxztRf21ZYfxzaRdmI/tSsKJ7qzOcpEm56l0MYHdL5KgUwhOAtwrIzJRo3
K82lSVn1OiFjiQ4NpEzxHZkE2uekt9UcGcXN8cxe9VlGfJ+pc0QqUIQthhnOPBFP
wywzudc+XPN64WF1ctYkkECBCsgwogaDJU80Smv7AI/UEMH3jZVPdluBJ16aybAb
9kYzOQSOuFOPY+RC6R4O/SZnEf+G9jNv0vSFuldhEzTUR6Cp/mCweCsHpgipZDiE
pE3nTnLLwfciC1T4We05dN4Eqfz+aCMoelGnDxLNXgAqMtrOIckSsz3MR3d0pMbP
6lp0Lh8+yS739h5E8Nq3F0NB+qrVQ9KmJCraru1aFiQsxg644p9JSs1jyn2ul+Pp
n6Uvw2/kwUQ6iYtMSkh8qUGXbo5Nxi5Ox1BgZQjLp+aFwev4ckZzevO7sUryjJdk
kTr5mIP2BOeZHMU9wAmqpLHgAdwNQN8+nD9mzcsjXj3Ku7z7xLw9JbNG13gBMgjH
Uwz0qTMBsjSSAx3KJagyCbzM0spp9ggmDS2UnbCPmiAXyN8pDOHeSJiPYWK6+g6y
kNxSLRPz+tRBB5PFo+z6FK7/LVi4UC/jsoAh5ib+RZIcIhP0JOalX8jurCnT0jl8
EDgZPwnicc5y5FE929xHCGh+isnCq+/mtdrs5fCoWQ38tN5OsvYEkv5gB+EK2qE7
TPNa4B8LqaH6VP4wgRSkO2b0fXSIlV+FSDgtEUC7+fGwOMF112EsTV3G3J9ZP6Ff
+pWa5ym80kmMJRvABbD9LsdCY9iDejtmrNfGMykXa/YcmyNSniRxxwus1VqMXO1O
6Jx+2m5OUKQNbHrDmdZIQibZ/owv550OypaBeRUBCiLndblZhiAVyKpC5hK3tDw3
khEdMvdK5Oh6J6wBiNfcGHqOAP3cSirx361ORzsWqjpVvJaA8Wgm+Bu46KHzezAM
x8V02useqJHHMKXp39gD/x6i4DJmaOG8/nvA0RLbPkti6KVBfbn+jaLJvf12LN/r
7IgO6yjTKlE4uh8mriGVQb91P3wG+uDKNvWsEbNZmHUDHw5gE76gVeiBkFWxiufP
yHve5+8Dr1U9WXWmNNG7AzSWZYJhqnu8y22GXIrV1Q8kaD0VXwouxy1z2QcIZADG
MYA1xGwAXcqwz5RIyQoERUL1xeXYXTWT6FCmbO/nH6CdqHCDu6Gp1mIUy4ziu4mg
UuuOZhi5OqLZAK2Lvr8Bf3svTtloHBC2mt43IbbCpyaK622HDgEvu9cwd5ogRDsO
tqoneJt9+MI3Vk2axTE9qeEkZyu98z0eoIvxbaeHw7HlgcCGRLDancJWk/Bd159t
w7V4kSBHDhzx57bCTk1cjxOWzE9or57sSRhAS3n7t6tYCk8LW9oZHwfNb0iyvdo7
FWC721laJ+awVxYC4PiO7AONxS9UVXXwFyTlTwGdzvT81ZgVfteVqeApBqZxUulX
vkK+M01KHGGTUJ2Zp++OX0eT4/EGKj25tBdhrvWT/f0sNJWEIgq/T3R4L68p9Dgz
41kHCC5yv0amQ/dLcVX1LeZao4rL9qOJbrJ1b+ONiKZaZpF7MyhnSKjqXV+c2+/K
L0Hx1hllTKSD0dq0Z4ErXHED6K9I9hctbLm9Qp2Pp3XRjdbqqFqI99sOXg5m/Kim
+DH9lDQ0s96jTmLgrdrQFg6/5DWJKg9O+pZPp53ioHDDR5pRFFjCDJDMA51nYR5x
/sbF6EE+Ef8xS+oR9TYgPNOwjOEA//Hn/ZwdD5GTQ58HquLT+I4GwZK9xa09r07y
gbpBKBVdNnm89ZeEwNSToMdS0kVDLfLa3+Cfumf9+yoe/tUj8oY6wz9tzd6aVNkY
L8znQBo33+IpYl7jwb2c6/AZVy9/MgnmdjOJhYk2V/5IheQ+FehSXr7xSAo0ocsr
Fchk2e9uPhLnifrx0VANQ0ygYus6+bGDDc6zgwRCMKn+ieL2I/4dCQxZKLjVtp9W
av1XtkIT/O1ZL+VRaV1vXXQy284D44aaobmDAvZtyluiFyBwrrIydLLtmWfw9TFS
JJtZ4T66lw0e4KfF3uE61YP4jfzzmpPM+qio5FgfJ+6ky9ABJwCISyf+5kaCc45h
n+laFDVFtGx6bKGupUIzIQLnDjhz+hUt3hvVNCOcYf69UerJw0SRV3siQ0+jaYZp
/9FzLJo2N2TJ/nQMlLfQmeZ5PiSW263fO8aMf8PDPL/BhFPiC6BeJi58T30zn68I
PFivYqioYzfkRKVHb/oPI6B0ci6lyDyaUMkICeUZvSkn9matTsBo4ZdLZWm8yun3
F2yKM7T8sjVGsbZ45d1qb1AJDC+bM7tRZvp1yXzEX7LNDM6u9z94ZnrcvIcqA/UT
b9u+wadoyrjggT2NDp1SmZUcGV7Q0e0ZtJO0YZcsnslwZCrrwQ9ZWlfcyqH0qP7M
BqFUbWqD6o8OkKzghwsYdQIyLxB15dVMmulUWN2ZOOAS4XClVA4+75cBvRQOigUV
Fv2i2J0UJe38cjdzQAuEvWJuMLj73/iLDRTgB+5gbZawSga6N2ULjPW6UtAC2Swf
Ns/tmj78SVdneO4p/ZtQ1VjteXSo8CKBMZMlZDy7nAFk1J8KjmnJ98+LofHduVD1
3PpNnI9e2CdC/mujBweLSw446b/RUwjIZWCT4q5mpr7AOQYK+F1NjusWMyhTX/tV
Jb1LcXjJGZ9Vz3CVqoqUqM6jiPLRPCPZxr7k068qfky63se+AxYWBF20viEFNziL
OojmcHg61ZTh2OwN9T2yu12j5CjaTIYisz3MV/pPX/nRKKdlvLeE3fLbfLsWqk0/
C6qc6qfCNpn6t10WdgGVXbIY7tC5vBPQ+QQFJoS1SbhaDnyK4eaL303PzmMkqSBr
mhvi3pKfT5f38C4sxFNaxa30hkvpLIddxDpMNs2ZgfqMu1ahpG3e8PU06hcEaO8I
6vderx71svY0FRRPhSzGIqMdzAgEi3uRLe1jytMvsO9sJcyvSjnW8G5eMdtL852e
71xsJButKHJCGlI24fSbNiptMKLTYQs8KtSNVaSGS0KEHmMDOSsXQkzmYWYdZ0I4
xqMeoabtADaIqo88KxJ6cW34JXZfF1oaRfSz/ldd9JKwvyIWwpGyGb/vvDEyComE
WiHyfHFgexoH6m+Nf1Z6ekTpFxDdBCWrCsH0mJqvknKuOa1Pwv38pROHNGJLW7XP
tp4Z01e6VLGb4y+iwrVH97UiIeBC2797A1ArUnN6xtgbPFXy8T8ZvWtIiMhhACFc
VGo00nsbThXbMBy/7OFP/I0xHpySiNaWl8exZ4ncEPvNw0x2ySfJGPvtccQw5pBE
s6DqyFxR0r9xsfH2aY4lbm8X7xOQH2Rua1k7eHHJQIcEOCEIL6R74SghYFHTJ3FS
S/sEWOsc5XE9eeK1ezs2y5HfeF+4e0bTGM6uQr3UQDU5cfeku6eSXidwOrOMfh5g
hQYGFJy86SJ1zbVLdNxgNASbQdzZJQQmY6ec79uQZzP5lYSWX+D/QCXVIvKCE1sF
y88vrRLBMP4QHJ+m/N4GZFmKOR+BmCQkztkpu83gTS5SL34FVK1RXVFie/K6gBt+
k56qtVZP1f/OORX44N+rlYqK/+4Rrej70jYeYUc4SBIT1UP518os4PtMp84vBFDC
vSKpU7lbt6KIF68yVPk8NsJFh+DQExNWCpIhWPpHAFKM3i5e02EuxBXpm7AqwEaq
3t+1McVvJxhg0aM6tC4Rt44Gk6NsSpKkUsEpYhlMKE2T1jBMOPHgB/gz9a8+50bU
ED5OqLuqmUDY9+vH4sGNAJhydCu+uTdL5ObNo+DA3HpLmhLpF2s/7PnxAbD42RSC
f3PUlo1/HKuj4Vol9NunJ/u8qzuscPE+GqxrEs+qMUtWrcd0yPkzaq3vJrbIS6WI
CNFkGWTH+5gtTzpHKiZeWDUk0grpxo9cCQJ14FRV4aO9nhgHPvQb1I3xJFL/wpmg
+vKesKG3II5soQ6/nI6Jv8KgcEPA01kits9pIyAt9w2O8daDIXUaXqEeExer4nWc
NdQEHO6xw2wG+uYebre6zUr7/MNiID1QqwAkWjv5Fo/MrFW4Pp2HfVZh9tG3Afa6
3ucgRWiLwnlG05zIDte7pP39OKVSw8nI+2tB3oc8nLjrOo192aMbfumWnJxUaOV5
AqRg6w3rLixTCBFJ7DaDEbpy2yLpoZVM4JvF+PgTpl8DL0kqCoTPjoi+kg6C6Rxs
B7Ohvf/aoK1thK31wjJKQdYfdAdZR4R2d2GJytA/OM77DjPKMVv0owLgDNDnUeWb
kSDPQKpVLq+QZd0xtAB0wW8X6ghTaZhTIu+yDxevvElOdSYy6bFCfgrFq2bzOkAj
hnZ277Jd8lSsrs7VvUBj8jSVKE8ZzJ7qiD/PhBHCjtXytXT9VlCIbxIq7dpLUqcS
bftK41lIZoQbwF5vnaXloBEuw0LjK0EUJhkF9OhNZdtnAEAIa+6CMuzufRkDbsQT
zm1LVCflBEK2hETPohUKOIwd2jKyEWStPD7dDX1MOlrYiwbb2r8UEDTMYUnVER7+
KToPurE1UNQPjSJ1SS5V3iqauRLEmv503UOnHqDdHSoO3/hDh7GTv4ejDLd9lRFU
rGVjB68BUm3392GQfQyhNqyj3QaFQ2Pau91BoxFrL9entLWU80zA1TG5CeD0xqTR
BSEqRuoQQuYzv29Xn3aYY5S2/kPiCqaOQ9f0EhJv2gDiJ2z1bnFEYzEBSbFw+cy6
y37ccCrf4b1Nz1Ta6VoPfpi2tyvVhflcwDYXO6VBbxIgnfLXtfcCIHHMe9kivJKo
4u5s825uhen2wuRoXYei7hCPCvRM/dZTqBVlfVxt9RFynlFUtsoHCDWxeJizwcL5
pEi9WSwBI29+6qSfMJmHVzdURW648DR2x2sLu7dcnqr5HWbujas/RtlGQTxj+M3k
IHKUsomfW0ShlWlWnoEBzbpA0w/AOzl6GHRKGtDLT55raWO3bjJb3lXuUc9jOzSe
W8GF88x7qTHzyxRZYf69r9Av9Huwqp0txjhUfn3Rj3vfyhWC8rDlZNBCrE8o0gTy
fDYhAM9vcgV0znFzjuY3+YAcsv0ZGwfqajWrQBMh0wWQnx63J00fQnOVKph0UAfm
Qny5faC4bimz4pTcWdJQ0dyKkgbAwUcTbNQ2MklFQczBunK6G7M6iFyg/HcEVM1O
m1CBXz3moduveXQt8ulEwo6c9W10yp3jt4zxrtSn9Jcu1zMI0iyBWY9p1Rs/uv7d
ndZGuoaX55BhczpIRJFERtURkgr/9nRb/5wd0KayPOLcdnNhYf0U+lFqJOU6KAI6
UuK2z8Ia9SYjcxHD9U3Q/sapdG8z2wVfmaqr4jXpwBws47i6ikIOHyALMOl/U9JQ
fvbfjvwEo/DKGKw/+bWnmiTE6HgSwro6SCawaU9jYtxgK2wRxnTbQ8VhkKztx/G9
OI26Q0qU3TIdhCIiAbc9X0MAdbSq9HxdTaH2LUCB9rbCi3xL/QmjmazCQ/ZTOxGw
QGGTtKqupcNTTsP1oeHheg74HPz5yf9/SdEMc/kSHZsxJqX5A1kX/Z2vSS6ggW0Z
sqrU/hp7I03LgqOGQgr6P4Spr8dc2oOaOUbPDu8rNvOmpt911CB1E9oX0q4/98xU
1RQuATf1oinDRg0sG60gOnCjqJwrinCi4tVGFioMGyoBZaCjv5l3Z1lcAys6ilhK
A6tnhH5uYDtTDyDeM6SGn0pQr+mtAaPdH6J9D9X/djU9rpiDQMvWd9mkCVuEkW7G
ZglFkqrDdjt5mQXIf4fUZS2J7VYkXlgOHyq5hjj7ehSmFPatHIub5uhmAaleqQl5
tnMlySNvxV8fkfXjyJimk+VAkb3aZKat2woWiNdTuWiN8/zn04nng9IwC2wFsgOu
yPYdRw2bBvFkHFa8sgzg1ONRoQ+RFoc3/pitLcdBzz2imxJgT4tjRQvCihZiMD5A
CRCCVGC7j5Ff2cTsq9XJzuG+2tg1pBVjJypqgDtHqrknx0Shb5Y6O0Lio6bhtJvc
KEfBFbpH6Dc3vi7azfJSfppNxg8U6r7bDNb8g9d6pHVbXJpTD+urqPmLZW2bJc0A
lQV/UgOuYTfgSi0dCs0xKs7Gvg4W6VidmVnzZOuj0eGWXEr3MWASn+zGvS1UMQGM
BiZVXXcaSOsw8j5kzz8kj5oXcH10AS4l2hk3QE8KfhWZdxgZFhHaxP+KFFUCPhjp
loyqg7WfUneaj02XfLkPFq1e69Es18m+ZkRoDJteA8RYZP72u6mgU5IM6cF0n5CY
pRAgQaK6loEYEyhT9mo1k+M3zAgt813sgxQU+JYy80x/+HXBrZm2CNltYsVLzfFQ
DWPIyr0Z3E2+mBfZBIGRy0NehTumzByrxqyKkdLVGx+1vni/0DSfDOKjCusADbne
0nDrbbeITCYvhPKksijcJYJ8d9Ut/YqfWKM0MHe9Ewh4DO05dEj/tenDB1aGnkyq
e1Ya54b8kp+UviCpxQu8nsImj9of+Vz3ZSBjE/zmUne96KEJQCUxOiVmIZlH6LER
7D3NGwpgGRAg12s+WhPgUw0FlP1WUZxCy4DpNpAVDHPbmE+9XE+8hb6Pp04TP3sV
j5Y7k1zMMP+UpsdgJ7n44q7XhQHCW6nvDqwX1xhrqF4rst5NOx/Eggqf8MKE6Mbi
Ia6qMM6R3hdC97OaRzNXJXVRNla+oXGoLQdANO7P0ZvS9JUraZHAzSUxeZd6ZSTQ
SKi/5wmXnWZTAnl+N+q2wuOBjChuVs+mjkqG2ChhRgRtp4HZ6P4JKroCqCzMmdCq
GvGTz8akpPtHSWe2AN0QWn7QIFZYboFEdUtQSQ46/ozId+ynH8x1AdLitDnyNhsL
EWxFeaT/hJrjNy4Gnjdwdom0h08vdBjqOV6Unp3MwOZIFqMbE9CEOULt8dQ8qQJD
6LjF7hh23WEo+g3RQebrWTe03pERPAk6y7eVUBJ9SsSayaQ78ASGNilghj0JSlXG
J3PRE8hDLUk+rUyzsLNADpUS/IBEA1xcQvHw9545+cVjX3uYTcy7QU2DlCcHcWdo
0S7r7yVnu0rRniLJKfIXAhGU3YsH2oLOPb7KQwRRYm/FtmBdHel+MEZJaNRIgDs4
ylRoIZWgjKJdosQau37dVDYq74q1TEcxTKE9ob00H8JB3ONj4HJheB/vEUPEkTT2
sbF7bmHVtPzso7P+K4RFtDyZ7YNDM+0ZWg1wqL8O65k0v972O89Ej15vOBxlA4a/
4+w0ye4I6o8eZXeEv4s7dJEPo6pvizeFyFGvbmeiwzEz33aiTTOIWoDeou3p25Bd
+vqL7pab7ZVLLrk24vKIhUUvFfeBwNjBEvQgYTdqrfDWg3TgJDks7azBAg60QA/E
P8qKj6f4Cj/QaBcEWDDfg1NPZ6pNiU+KCxQSlnBOxnQAr83FyFDs4vNVf5E64DB/
W25Yhgv6EvuC49lG0H+oTV5h4XsD3Q2NB3sB2ry4P4kumB+MuU7l4egbD7YAa/IJ
jFkkKE131djHmn4BAtRS7yEVGvB3z7Q0WdK9NnIh2zEjybcpxwzzv9KYNzkwxcOb
rBk5A09M4bvQV44QcRGpA2dM1RY4kIOSQOO6mTg6MTbzMqjuEbQJ5bmoIAnYRnnB
Gw9FMAakpHMrVXo0ZERtmp5jhAcZOaEQQNFhWBbeora9Cvgbw9uU2B5jkiNGvvQw
rOYImI5I8vhxXyivCfPGk4Q9bPZJ0tT/Hr8hZRvPoMyXkkhMYAkpUTjlOsOErFh0
95XtPbYgwDhP/pEgZ45TZ2CLREV6EoxTGweNfsIK5UMr7nNtjfS0xClSoSb+elQx
ipiceclg4VMwlde8E0P4Qzsg39XoC2ZdqRUlqVCM9aqHnSp17ve9AC9jQsZAJfyD
uEUkZOQ5q2UjZA2ldCUQ+0Gjht26gmneoSUfiJ/qLW1znq1dHbTpFKF+f6MUvW1e
vOInK/0pNRfjKt5/Gr7WPS+DCCsg8Jzdd65LhI8E5GOKWirITbTspNy3E6Fd9zV8
w5zE6q6hLAQ2oXE49kRa5SluXOYzq+Y90AdUd+blnEP8lszLZltKJzA1Ym+fDu3V
lX7bmKQ69aPauQftqhNzgkWfsjbd6g8yvnu4uYgIiXV0CPiLO3PqRqsIncSP1yNi
rflW50hYYS7uVqCnPRbS3MSfkKfO5lp0+mzPqtrhQwI9z/qff+lRxdY5XodLchS6
XLVoYeR54us8xLzk3rr5kmLpDTZpsnM8BCrRtWakvjGDhmkS2pKNZKfGQfb2k+/w
922RslDtQUnI2L2nSmQGDwOeAotUbcYHVZ0eGzgjZQ283oZZ3chini2RjODRD8m2
hMESwuAmzBNidkvysbXPcXJdf4oqHtQvgecpzRmAT4o4wiKzdbyN8kEnKrtdo62W
4p63pPUSw3NL3FCePxTgwaMv3qs2SYqk2D2yNC1d4KQs26n8HunYTLduDFbM8jz3
usyPT0V8Oe8Y4olW5hSX3t/RhHRBssXq32QnBIlb4mwDtBPo8z3PVlGL4Xawx+gn
fSmqq2NJtCJ9oZukri0a7vXvvMi+mON2XtGE24XL9+qzIMwkVmwqytbyD584yHcH
n2CGc0EIkXnwzfX0uqjVQhJUzKfh56BD9omZCjHI0l9oGTgsBVJ35stui8N3vLLV
8Y7ndvaRldKT/X3Gp2R8159anD8XQvgRoJw1VgmFgcuwcjdIXidslArHbOiyLMNk
JWNrY+7Srj9eQx1sh4/nHUzDy4lAKyerx7Rn7X2hFMT3eBEHf4bSdK6iWY5sn61d
yLkDwfc3DJe/fnEMWncXwLYR6meLGMo8iYNlLR6yOG0j8DK+Z23n3856ksCfuFUe
LAPDV6jl9GZWM6W8M4h3PCOoAtZX8VWqY9hikYEbOtI4TjURe/WSPBRVXqQblSGy
1eYGIkteTrI7RrEgHQbR6Pgxh8YFZQqp2vpXQ/SuTY6AfKdNVs2XlcrR7POtiehX
MoxOEHK98zWriBr9WtnFjv+FkyFnOSJoCtN5oqZ836RLXqZ/ydzUZxUKO1fxAyLc
0s0nAoZxt8tho0i1b177eMf9zfNooCdMjPXO77ouDgXZ+5ZGHiUAgdHxUvskeZPH
9Fs6jYp+h1yxUhkMmZEVGdJf8RXSwFeZLdhK0rhGy0A1a2mAkdeKMuknUD1+L5mn
suQjt4+A9dbX1t7qVodC2QUh0LEjOqg3Zk6ILw/Zz2086kvNWX9IkYf5SbR6iAip
+mu6NCacF/8XpFgHZ/P7X8kNHY1qvWKEKmOhFA4MZGKGkX0mepTqZS9Vxz2l1U1R
fl233J7ncaRMyvA7J4gx6JQFfBLHmp3KzO5SIYWFQVi5NQEG5fz6aFSw8P/XYuJl
JSSER1iGTy5GE19+jXUcyXkBx3YyKKoU5CoBvk377vyljsGGj3sf5MkMV1hPn5j0
Ys8GXAslMRCiZzgOl4WenCxCD6GbtuLaDbLtpxk5XNDzviT2OnXJEwHKERchJRV+
yLC6rXt7vWDEpolGNLcjWuYR6fLQ1X2xN2bmZKpwk+aOMswPkxHME28WA3pulhHr
/g5L3WYG6nkZZsj5bWRhSTHBbqXdQeuV0N55ku7IAz+wBoDRy5rehTSLPncbpIZ8
lCdiS13SuCzrqbtJl6AQnROGQC26UsjWFmDiFCCKOeJyaSN8UZE+jC8TQ2D32lgn
yInpdgnD9ZkTZBBf4DF2je1v6P8AyqOuCUpdgAX8023PnjtFQthSfFJo+H5IfRDl
RVaDD4jjCLAR2Qe51nFD7OAWve1bpX6qNPBDZyD6LmuSSBcRxd2NTCFOKk6B3Vny
taXZecGzbquZQZ3bD0gakS8HwO1Wv380HjmkX3DZ8V/Y7mJzwT4vGjmuNs/DGxud
uTBvBZxZZDAZZrn7YjJJ+k+iVE9U2pP0Ll6yJ1qiqYTRBo/MxDouPIo0fzPBB/bg
gp/qyrdjRoKzNovOVahZQCU2pDGpzWR2Ri0Ovh7mOfxibWvogDorvAlCmXv5jw0Z
waKYNNvrXd89nmEQTxC9K/K/0CfKonTlortHJeY+wpwZDnVO5fDxm/9IEYkNhU+G
wmnaiNhwSidzzVtDXZSrx5OCnuEzdPXQjqZeDWtoSeseGidnsdU0fyhzjo3+1rjG
r5VoDVKMAOn3c7Vui2wgFIhLEU5Qu66b+Zxw/0HUfoNqPSgwfrTJOKwvnji5WCQy
4c0BhPx6hfr0cO7yuB7YRrqVUXRvDs0T6ujekW9huAItDv7X9M68jpsMJTz6iVM0
1OAFBXfGJOXyTRGSGq4db/IqLoickfqLK+tB22oem07X6GlPxwLnw6Wrva9/j9FJ
lzWhfJf3+2S9DhS3F2TnUohhHNZFG4Aacf63Ebb6dpT00tlT6LGRb0ogbDtex9uO
d2vOpSsx+G3q3bC9gSeKnFwjCAWP4Rs9Ul6fHeKBvjMUKywUzkMhHAFMOHt8XwVj
L9GOikCa5pP/YfKBfacCQTG79qyzZhIBwHsTb/eKt4CNLLuYV2Vjb+HbY8w54+Xi
/82hytngcB97qLETK8vnMUd2KEZTBvHXHio0CD+xYhjMe/9i0s3uZQ3X6SqGzkjH
LHDL/NVmBDCIVcVx1t13cZ9Y6FRoKdupBSqnGL6J05EBcosJ9oxdo8nFneHNKmCf
NUaA6oMQaq6Yn4VhwvqzQdJPal0bCIj/iGcGKRmPxvmp/JFG3jwMzvMao49jee/D
vz+hbvtt0SGhrCroyr+MlrZTbCugw27n/FeV/mvzV6HEjYWWRV7H4SYO9VD9gMoH
wG+IzfElD16a3hCuC10e04whgk4EEvL401p6PQIWYI9dQjQyPTsjm7rdjk3nMJ+F
h2z/T1ffuyQOc9GI+sALSmtW4s7eiRIHzIZBK8xyCMkaYklAQdRff75Jfznx+y1F
gS+7Y0R5ZEtkcPpm5UO0/lYZGzlxUB2kJ5Feas9mnTIu48xFwtL2T0Xsy3Dntk/k
oIKwLDEAjdzkLiKSH2M6nSxCOzp4hhWsJGX26gW0hdL353aFWfv59xRxR3oOCqWd
lJFI6FasR+EXQK7pJA3uHV4NWk51imLfhl59DnJQnfSXS0EF53zodFLlWFSkNXXA
pX4X97W8tykorx8BJlZycFCKGBu8e8EVAMC2u76DDsVSJFuh6xr0WD4tbpl+6M64
T/AC5BUqaELxoxOfElUtiqBERHdadJ0zhPAWBl969MJ3lMyp4rtIj1UH3qF9pT/o
/0hApELiGw1NkQ5geY5Rq6Jm5vt0zOAHcAD2w/L/W1E3jlh4jiszYBtEfx529r+3
hHqpdesoY7qo2yMvbvEGKZQisXk9pUNCRd9SCWYRUvRmzFw7toCaqfDWb+vhrduc
/wqgptDzacWOTVI/e+e8w6iX+hvKnK17+AvxGhqDugX5pFgJ+6x0k9AxTLK+2UPV
p6E3KzfA+EvDpnoQDdcoRgbB+tQ9xTIZrqvm+9NiTK/8Av88wWOaIpEFYHlN4++a
Esddfamqn39elFaLySKB/PcpDJAmgScvrbKG/b97tnRfkT1vISnRuuoWn8kazgK2
CuWrFADq8sUOohblu1q/PjFsvkoq+G1o+mBmndgnnKppzIcalO4S4je0ayaeDnU0
qn5JtWm90zCQtAEnkiwzaMXmg70VR5D2JrBdkWulunvrey+FlaLkv0XjvJbwjw9O
xiOyMCsMu83iNWf52YqUwCZz7H5vJU+AUpFqI5Cz0RhUuPiamz1wZuA9gvViZF7B
M75dQSJqTmGEghyJNmDTDz8jG6efY3bnuN68x3Qp/AJXKfOJ60f72Xx+KMxze6n1
6KR6uL8miyJ3f1+MYN6bKXMj+6846q4+RPphyqLc0h+HU+P47izNTgzvoxaW2yZP
/YkcbrlTcAbFIKLblTm+DzKWD9FceDS2qphZJGxEFgD0QoS9U4cmCVWx0NhK2atK
W3mLO1vJugtxNlqW/qWIQpBB7MPkbMCbHkLyZgE5UB80N80qObe/rttaXguHcnwi
PscSkNi4w12JQu6KQ0dhRjQkfeI6J8/ylHpxdMfZRc/TUTHyiXKT8S3r0kLVfzap
cedcLBax6Zn0rP6Kycj+g0ukZ4y82zCe6cLYyos22fBNbDyAOlf9LAXxVRYl2kB4
iQ4n6NqoEqsaYtlfiwehv3zy9BWuqWATzAluOoBbvR3pmgum07lPQECnxTHZ/i6S
hI9ZXZnhCGUzXBk/CewA5qOyFgNI/wWCax9/MG0ebFrPf4uzuzhODH2y26UNcdZQ
kvvv566K5omRqCHDa/v27gucRpRlkD6PjFFr+JauD/Kv1r8ToAYW1+lIn4oAGOwb
ysvyQUu80dwFrlbMASeF4gfEQoUvx46D6lR+4HQPBslxABtRh2xgc7QhQ28pAXkG
Xbrb+g/o6l53Fdcv08mk2c9jECm+FEJuCNyveYCLlzPshn4MR9UKmVOyhsHAc05w
94Su5qCxg1KxkjN7mCUgff1sxfzT+D1UDuapviNSvcSsXlqB62C8IZvzxKMM1/NK
5DoWWCqFcAEWLJZN8mqSBPCJAozs6g0jpOv32qitkCwcQ9s1WUKpdX+neabecP+e
FOTTDWPxoSDs3idL7OcfFxIzG3Cth76y3J26OAeEGDHhSJJWDcveJdbNI3L0P28T
qlddY/OhlD86ylNbynYOjFAcjcwoHElOWpmQJOdBHE5qQCJlq4i/Fen3bfIKdr6L
zWiBSXPkVI8uVhZqZLv6TiSQWTyJpvPlHpcd1K9f5Y5E+zaBi484FGkbZn6NRZN4
6Vk+Dwyerz2HNt1oZ+f1GDdUh5Dak3bhbeHfmSuCx1jFFbN32D2v4NHDUR3gP+JD
SmUotDS1BCCLALY6wkKGKJo/1Ib+cXwGpYCPeM9bR2/FYtwH5MoSyATxPX6W3L2/
/+aZbM29W+tDoAT8nAG8aAEdJ0SLVlXqQw7Nty5GZSbCIKmVUn7Xd+wqI2KbREVT
CYP3IM/j+NUODHQSeMNfOFxUFnIJmI2Rgp1krMlumcrh25PXJkTwb0AtekYvKO1R
0Gn6AspyPqz+2DC5G2yzuPOVDQdhw/NZjG7cGGdfvLDwTNWlLnyx3s/shaxdJSaT
4WudkcHZkmSlhRtZRQ6Ip2jZgAKVlQluvUcswk+GjrOlMngDfF1bi/o2yf+hxhm7
Q66RshUhIQFm3J/XDBzUVT3DwMi2baiboEXCReMTI0UdHVQli5Gy63YSDATXhzba
y3SOpmW+nYFyhzXNtuK8HTvNxs3716jFOg9t/4OUtXHLwSrSLi+vE7yaoUAN3wRs
L3B4M2qyJJIbiXCOQS8EW4qPJn962n3E4GmdLGlgrsLxqP4fX7bBZqEtkxjbK2jh
ymINBIxcSaNHmsmFWc20GGs0HXeqcJUhZVb+gRH1KA9pBqUnGETXMWJwUGcBLyPj
IE5SN/J4U58SECwYjMNMS5frSrna4Z7iXKb3CGoa1V655VtzeIul4ymxwzPsLfM4
2jlNHPu744W1bq1gni0NFE3TwgnRMfuCjttaXMIaWWxtWE6fL2uWNDtsOfSel/M6
6oR3b1PqxJ/rGCCX5NPpIVtCf0/6kmj3xRdoMplKgckBewQIHKf/xwGdqihlzdEx
VFy/eBLwUurUMKA1BwPlR2dfOVKiBYgU6YhvIWzp8+yqi9roNnKfgBXT+R0YUC1Z
7RpfHsPVYfBxpvNXet4lOMFIel/DwULjTTLNPIqT4ghXqikeCInPfdM4wuNF5h4e
oD7jofJdtJd3KJ5XTOewnGoAdD3WuoZ4VuQzzAbM41HTxVHezuTn6hBZHoS6uuTl
p7V4ddIEQc75UkxhQx78PRuwv1zmDMG4E4r27alPdKFt+3l0WQ0Oxry6miZrTRae
u2L3nHCvscwIRK7F+SnvcdWOKwljHUGhbIegEYI6w7olvg0HdHRU0qSKTyButcF7
ERUlo3wNNFBD+Marv4qpbuSyiTayBh/g7NxXcPDrkkMAsYDJUkTlYdrmNuhLJRkn
PuGb5MPUNmarb/mnM4OgX6KKBb2jf0a+OovX+SXyjpcpFRRvUzftiFB3L04I/wvk
cEbftLU+gogOmuvvtlEERf/GOmN1yye+PRGzggtP6u8xgHc4aaFu/1hPLoton86T
MdVZVBSMvoYaamTmg2fytqJs7bwrW9/uB8xGAYC5RJKhArkde3BOqBlRO6SODUzC
MTL+bOUEjuHEs6dCtbpv/Vqg7duRkFbRWwaPGguiNAFv0Mpei1K73GR/Q5mBFA2+
fqPrpmaqHJXpIiAO97psU0T0wV9Mg9AuvZ/OlNtANIXwb0XHJLpfora75dBHCOqI
0fs1nwNA7MiOfk44fbPXRSsymhnFsqfNpE9tcMS93kA/0hiVD6AtujUn8xa8NfdB
Iu2iXMR91+Q0mlfypeEFuP4NCmhho95ln9/zeq6Ep2T5dtZS/O2TqBrNqbx0EJ28
tPfzk8poSgieLECVILPhnsIwSuABS73gylTEAQW1u1i/2TH++JFMrUJFdM0oNWb8
TmUlUpqG6sZ4jTE1+BCFm9eXE+ZPsn5Y7Bco1Jrp+26q0/rzlJL2mhNLamDO3PBM
Sdn9q4ALbHlGruNmxyEaEJ1rdI7y24jlD+JXFwPFwhIw/wMv/dUePcvF79Sems53
BuqTBmxLFVjhRChiPxYyxbUrggR34YF1or6sS79X5CIx6MN3zfDVP+ADibLfskZO
/SOgZS0Cm1NEFftGTI0pRx2VkqoGy3mU7ipotSI8VymJk0TA5YhG45fxa2ZPoup0
X4epEdjIInSfRJWYENEcKez1AF/NlK5bIeuSNXRmnQ54ru5ZfS52GRpBIMk3Mbsz
DLOAK7om0tgai5VHApxME6akTRpKlCF3OfkvxiRF7rXkQnu0d0QsPOXxXmGgsdc2
wG/zt2eb3CkKWA8St8H6ffIKq1jDqbAPLE0PdBgTC0fEL6blb9ZuC+Vbiib6yjei
ZZ7QKXrsthM5oqV4IENNh43GqG7ksJt6IacguMNK6CbRM4EbhkdN0YSAm+462jp0
P6KNjupJU4fzTY2oN7dtHgLhNcgnRrItuhUwa5iTKGG8s1S/9BD/hFjsHWR9bhnF
Dh7pf2nOwWZQwcrF62zaovhmkkHZM8MfY0LqvzJEXawIyW1hi7mYYyEQgBH6Du1a
JMo31fbrjGkrRxJeoEqJ2D8kCOUOd7OZ8mHKYYC76CBPV3Eqjx/WNMRcnBSesI2g
m2fiEs29HNA5AKOy3qz+M6mus/vssDvTj+7X7TmMLMVlI93MUE+YfqQ+GFuLG4Ng
gXAJozJAFxnkuXvff3FF3BIBjHNvU/2/FG2dAdZokcnlq9q302p5xuQmZkLmKsgb
9bh84F077F/MQ8R4QJn9D7+VOuRcwZnarI1wQxj+TxZ1nUgrfcQ7cacN9eR/j0Fw
poFDrKS4a2x+AR7Oi4AqgQiART8xBP1Mr/nWBwscr1rkbLBScu7JXb940yBXNNaI
elvxtOf3Ssr/9V6fPZ/B8MTyljuLAXCJctyNK/5JvTZPs8TfCjWO31OUPw9rw+K6
MvO+V8Ymp98A3xCnMv0kLnjZEJF7p8C95Pse9cqcxn3+V9rWxdFOKVExgcShRMFe
YL77W+MhfZBzRpdvcRsEss315q5GEinWQetJAFTfcd9c24hBkmPG1eq2s/2xmWTx
PQ8mEg4nOwEms7/eyCw3suWlh3B6Sr4yTnbwFXWFTpOWxZL3zO4j5Lz1PBTdOFYO
y6Db/orzucKvHNRYguGuIMdiNnOnILkVR9GNWbii1RICYnO1TgKdclJBhWg0undR
USeuHM0mnqtshSjdfsqy+KNiCu51OX4DbfG0gx2ICBwP0phGBy4OYNZoKkgRhtf8
kTX//0mL503nX1r3Vm+3ofknH0+CV5cCU0ZYvMswBTQbUPMva4uSJdNKp8hwHNpu
XTHkC3Qg5VKsr1z6Yzjgi6qK98Z3gEQk1NKAcib3+bGdLSIUt7AItuIgn5IA9T5q
+OyZ2CbN4ETpTdk/f0+S49abbnwn3fVNraAgVr+W9817U32oVOi3+r53a1SSKg98
r/haL5JX5/XBBJanZ/fM4lcgeQvhe1W3PYdj7uihHRbS4pTS75odtdXAVYJf4+aZ
6l6S6Ex42R28L62/3z8NL+q8+lF/IlXnMomLN8aC68w4Cy/9+3hCPzkgcC1mW8vU
MHmvjrlbE1EPCAwjGWtBhgNXXAjSPvNmz1LlHhsZfwck7vfrGRJEtPzgZuSeMlzU
J8Z71MlIGTGRB6OgEdHfJRitNYe9+pABUME4hlD5gLspm0/KHqgps7sIumA0fZRP
M0TBkmmYBaPYSF7NkYD/t5MvkXfezZ9iFIbIGoKUPoqtTH5LHJ4LXrGF+SEQfUGD
5JJJNpqymzK7PIZA1toAaUTIJPrw+zE8jwUQOA/CcsMGMh5WidpaVM1k0cq37V/q
IFluwUNrSAjePe6ds2+kOMBWbMFHNUtSto1m6g8jorCP48ZcMdmQNPF9GXsDHuBF
/5oQR80fLSA2xswa/+EjT4oVc5Pw0VW9mkb3Ag+isxVXpnZpqi0nn+42KlYmVM8R
1dN9kF+aoH7iLkUzi1i+dbxnVdIBvNvOtGf871QhODQo0CwkmARIArO2IGbv+h9l
WoWongkgi+oDjV4YBxMqIUhKvkSNZ1yOlXsMYCFgncXDe8QsXlqMm3dq9OlVy/gF
GUyuzR9MMYXD8CUCZkMCFSMO0dWwTdxyHzSMTQWh2ANlHpKvkntf5cteZ0kGOQ1R
4CdtoRkMpS7szN1jDphfA23fKa0CyE3zxwzH+mDhlWlb5q9UhY7rIlzRN1L+DZi2
uGVP+RfhuRCaiOPUUwjCA0ZBGmmd5MDSRabbWi6czMvwKWs9cBMiABdSeMi99t8Y
zIwOzaQnG/kbrCFdmcfo8o/LlRRw4RhBPWIsvfw2rDwscypZkOuJnvut0ZF61nb/
Oagw9aP43f3ufHFEC6Vzy6H/pijjyJBL9Klx6z2eMSahtqS3IkQFRGvg674dRLUJ
PsR6P9M3qHLd6osFVilHQnr5e+WeofIyXA9+S7TmO3bVmdTWMow/6mHJN5r9oVlX
Nk2aJXf2yMobUHGqRrzrtwnGSDT8zKPhxTpgmTI41RvfJ3RbHN3Y9IEm3lcRTSPS
SD0KEov3sifvPo4F3vS5JPkwdFB8Aa0H6BXNbAOInrQDOciWHxU//IudIMrZCU9c
1BOC9hxDkzFOmaHxULZamv22udYwyaoEe9nYxn5Gnvb/u0Vm8OpBrjYB89MAzfWL
NaVlg60GS31uIAmN8qwmkIN1GizS0HEozAF1IRC9KMeul37AI4sEohoEdqYbkuoH
qz7/27jsDHYgBEhfbqKYgYX48VwNP6xhjv+5xvkLsS7KLupQm0epRghHmW+ywM1g
C3FR5VJ3JuZK2/y/Q9i8lZ7rZJCjqlQgNlQlr9HAjJOWp9fpgf7EMDEidXCCWcy+
1JVGN/TCI4AamKXf0MqTDsiEp35IcjyJ+pCbNn6dTd0WKxwm11BYK7yelKBkuij1
ZJOsetnOEbGbGMOh6eBH0i97XmK29slAFYnCkW3t2cAO5sUcNUxxTRisaLM9XCDc
PN1rsjWfANPmlpapeaXQuHSe3vGP54u7OAUIkzPthTLllT9ajDWwwNEETLW90qhw
pMvLAYMbbD40+EcmLrElvee5eiXcoqRqV2yCYQq1OQxvBali400tpoT4opkKnOHM
FMYj6hyHD+rodhx6eGsguMWIw7hpyL91xKf0ERPPXJU8vsR2IXXyrEPXfZRwNlH8
X0dYGeF6U1ZgZTIeERSfl6+57aHu5dbYM/49b6Fc5N0wLIUg6JvdSyqmcyJHkyg8
lR/MNCPInwatOSv6KiU2quiFVdLtijZE7v7qUO0GPttvinCKouC5ctE/E+0doyap
Y7XL6HghWjyHyzhfEkgkfLJ27BbHrWNWlByCFGsB+MWvfN5QMNWK7rhUDJqNylRD
c+c6kgr9paLYKsAmyht77jv+vdwaHSG375zPzPBQVM5B8RP0+M1kaS+jeyXNLmO+
itdC/5IyTaUlSTQ7rIVwO5++kNAuTfl9QBPiD6vYA8KwjWYMFz0Lf0BgVO9DouhP
64BYtOV2mekNerOKA6YAjjmTZX1fCQFLOVtnrsVNBkSx94Fa1xH/jJgVkCwRIITG
JOlFU38Hzx5U/57Vki2jChdrmVsfT9Bnjxdh/EQHcpoVdoH4CnQ7d2NyQVX6NIdv
e38bRWnZFjXt96te6Qa6RfltMEM/tK7LfKMNCNr1dA6wYQ8R1OO1L2GiE5U/k/4Q
O/tzl/b04SjC2burNwI8KjAY7VEfzG47s3KsW43aPXwWZoThe7IY9vDYa2N5AE2b
sNbfyN1nUCDjpgn87jr0t6nTCD46AqDmtwDsVzCFVRxti6tha+8wDu25JWlPhik7
XYQ6oB4AznsqegMMFYRocK/M9N7yyJyJ+37h8D7LIc2t4Q3hHWFhvea+KV6CvxSK
BB2GBkEcnRV2RZKPfTXYIfZezMvOWPzdfxEAtdjuBW3sCP1dhRjDdLjxIa2GR1sL
GmzpmPAbOc3BMVeKtKPx2kUpO0FEBn6gBmf/DQwBY6TUSOLa+siCHXu6PbKaYW+I
wmeiZYRvgHwN4euPGLfyidpVELfohjHYphRfgiSUzC/oHE5o5ytBMI2Z1ftu0fjx
BBDzyOMRKv7O7EImy8YfIXIgknAMMev1lrzw1BuYgQSiuNPJ8W3fEQhlUbpoYTp9
WQIDu6wdQOqxzVE7CqVMSVLbkQMQ5idsW64ESwreUMFtb0Q4Xv+4TZwUPmdgdiqx
h+USuvtxMTumwkBIrR6Qc5k3FrxYqVCe0NG8kAsD6x14t59N3LXVK79Ed7rRrocb
OXrnrO65hLfQ5aXCu/btZAqYja6t8Y+1iVyMC2RP+RRgRKlV4IKkxrLR8KrdhChv
E6S1EYWzuARo2JfHH+ybkh+1M5ysFA9ZZaXzBoj1w0sEaT6ly8Zjb5YLj6eyR4vM
KNcLBkCQT6HK6Q54fzzunf6l8Dezq5x58B6T9E+7Za2cmIPjtev589VYxxWRr/ZM
E3FrHfb7KLZX1GV/iY5+oO5YBqI+NTUjCYSHVi5xY4jfhVOc5TowILljFlJjv/c3
1keSXLVw6bt/t2PRhAeijuJ8LcEhrfRgp+cn8879pu8a4ESYt+qtlu5QPoTchSxe
hGgzS9eM37tyyp9nmcL1tm2oJipZMBpiLvnaa39I/bl9oB/FlyVzO3OMaWxepRJr
JBAr9XsK7endKmWzqdyY6R0dd4Ugmr0tYV2xVZiheblLexKZLkyTixSqkB/2q88x
/AWHVvKeqlXpuqVMwSh4wa/6JWxfwGJf1ohNFjQa4Lg3JbsVuiKuRtT7hI1suqII
i98XCAzer8/qZeo4231uivmIwkRsnpQfT8XdUY3gmfuVV1k1aBbfGZYGvSsIwpw5
vETto+UOjezdqWOIad4TijgQ3FzNz5o7oc5HVkqMuRZ6qAS79m45CLsxknwVb6lL
mSGPvyHNYaSaIzUdd9f5nKn8qkuWUd/mSrDivO0gQTDcZd2yKP56ppuqJOH+CPqM
dgMRJ9cArWBMuhf54d2ffMyIxFVX17H8xzqH7YfrKavQLoF5RFDxaIL0d55WEz5R
Ch1BPqnRK0Z1Ik4/kCNSyPPxaH06EGKZ860W4SrftfkYtHTPg+ynf0Gx5SlhBs4N
jhhsvEfW1mqxQ6+lhAAkop2blUSc+Ai0XWOTZEzli8hW4/M8qASzHKXCmggUsSKr
ZdXvh6CDXYxdmqksgVq/cCftvNCwSKXWXzGhIp6FYxul6ljQ85U0cYk6hBl3MZPW
Gj8+li+k/0DFJy+/5zdtgmC2iKE+Fq0OrUVQgaQ5QcQ0xCunJLmFA/vOOprHf5PY
KtpPJmxyyvCnIL9erE+dflVgmxUovmwuxhxt7VcsZnEpOytNMXGDA/Vluu7VHKUU
KDmIFu1o8FINZqSnbZvMtEMXcn4h3QOyS12AO2Re2Pjx4Ji1rjRqXLaZPDz4rNIN
zY3xk9aedVVwyouR+oVFLyB9lGldxBVZWmYj1b8SAVwRhPEU0dtT1aOk95TNe1bT
cWKLPKofbLRMFMW+W0CCLwhIr+H6M3YtN05hZahxbblQTYuiHG1Ijqzs/AQSGWg/
UQqcWaDgG581NdiD6eZNey58yMwcbARxh47+z/pb0bYALGmMgEQxk9Wo17OM0TUl
8ldvOJxjsaE4goVh67dGpeHX7oZmaQnzZpSgxDIUPFLqf4pMPI6diL3KwcznV9uX
eLioSUUc2elanLkZPdAeUlf5RGnQ+YLdzKG3YwsCBq+Q5C8stfESt3I8ooBeO0/X
tuKFZ3g9gl0LZ6yB3sGXaUegBd+hlFbbinYtY1BHXBqsCtCSRUs63hm87yP0oED8
SYOTw1n5F0pU2EhwJdFEpQJeAGcLN3mna8R7MJSTQLh17JTIxQH/qs6SRYy1RTzs
f5uJ2oQ/Pk//BUv+kdCpn3fS+iuuNvNVuMNiIbUOyUY7oF1QeFvem0wgR3KTNv2G
/wshoDBuAKmPOoWpjfFnPKpsIrH6gSQGibeto9eA+Go7qQtbVTcfYw8yk/trD0HI
YHzDMZ5PUZN2mGaSB0UJpBEUkkYJxNWMOXEnCDx+OTjAggcZ757QDLjExBmppq26
Kw/I3euHxYJWyUmixB5enPaX451Tt16l5UpOzzrO/Qm2NxqQloQgPTZaRnsVP9a0
XsopBPyQrG5Dqy8mEycMJB44QgqKSipgNMz7U0b6jeIrF51mHycXcq5K7qTgOTke
VGtMDhGoEWkIsDJPK3sejlDE06WsFQomj5w65PSxkQDZWiajyXZDJke/iGeGZ4ZA
E37o5FH+pKclgcAVrA5o1o5P85mVleDtD+AYcGlun4wN8dY4H0VM+dhRkQE/AJtq
PrZC5kNusPFiAQSozyIwxYcdsKv59Ni668aVkQ27fZXsLnOfPDJVFajHdpjJiPNV
2/WfLEAFRnBj9rNbQVZvDzJj0MxYLfxy7tT7ubu46Ynvq4il3osFpL5RgFSU74mc
1GRUNgUAIgPYYHxsywpkFmYxOqSlbqVuTh11ajfPl8ZXR6i05lVjtAORx5lXgzOw
kbbWgHEQpMHlRqmzKG84SQpb97VujgR+kU/FmMyVDtWUO1f4jQYW0GeDawsO+qbl
h+lFxvdxdMLWvdexUT64K9a7iyl19kU2jxxYlT6yba3tFNkOSsSVT/z3Jgopv/dm
1z3h4INsTETcYJ5wNByZAx1EhSGA6/IwLUp9GZoimkfGUexRmn0EDnA4BEYzEpot
nLy8ZcHZmzulWCOt2dn4L5XD/wB1zKqgdwXQWGeDFEc6fVxDFcIXna0X3KGYsIDw
hLz+kQDl9gBARqNyRSA/sn6TjbPFQaXVFqku7peaiJH6RjrIMQ/hcejAlF0k0EUZ
NTzeyuFQTR/ZKhd0C4lh38pyfiCWGzKM3wGLn9Muu1DqtU8oaWyv2eVabU+c2xPQ
Iy8ttuvjWZNwMqltqJ66K43RICoB4Z7g01iBHZi4guOCY7HUsZhfRR2PqbCkbanz
8iRJPLOLM+ZIude3g2b0589nkHhWYBg1C/HpRSeVEoiJ108Q+2mTI+k1d2ciMJOx
RcBcfFYPM5oyWkntsheYkU3+mKDNz1HsIMRwsQbJVzrF0xveXqDdQBzaFL6FSoDZ
CiD2U2Opq7I4iTA4ydeLub1Ut0DtOd1nU3u0BmD84OInbBYcPeSBr4lg2H0EeZkz
mkb51UbekWnEmpRW5hUeyqq+kqKCk3eCVMbDaYTh7zXAdc9p6900igYs9BKUdxsK
Y6bNZc3ZRar4DGpHyPuN4iFb91trCDKY4Msugh6mm1vrmmQnTUpmYEf2czAx8lAV
ehlfSfKBS7ElZw5mi+uAyyWv6VTBedrFpsPYoJj7Mb2R/kUMONVjCseq2j/gEA4h
cB0qM/Ko2nzgVTk2T6EKbSYdtHkmOf50etsDnmtsheAK81jcVXP3l8s9Um2+omKX
DhYlUbRiDT8KOsp1odsrbkSNn2y6YbbyiPXAqM79uF9lBNsHFjltPhOpU6KRkhPn
2kg1D/JeKtVM5l+W8iVPzBXUsJt6my1OOIStGr4dIHgxEt0YJE/V1EX5/4LB/qs7
7YRpEwq+xblD2HhAqPn4ikgXZOrfkg1JkUO25zy5ha0spbMlpkMrue+pChO8VXMn
7OzXFaRvlrJho84ssZzwdUt9txR/uPGBig1rrfWGXJUbofciHLJrnmOfRBQ0vCWE
rcrXluyIdo/8xA43Aaw+K/6Pv4zKOEEsOkFb84+mfJh8d46oH6BUQD+hNEF7Vx3O
9r2Zs4UQHSj96NRCWPILoetMthtLFxulL5xla4JGLL5Imc6MG3txmfGldaMw8kuO
OotpYTOb2KmLye8rvNZaHsta363SIP/fbFAmwNtco/DolxvUNKFzsfmg7Oq/uk75
mdpqJLPEmTM2NRr4ANerFVlcJXu3Trn5DVk/gr3kpMpKtU3Mb4KqBJkW8/M8XW7h
Z8hjJsvIRrQVVBklckrrfzrQloS4o9VS9oE7ZEuE0VUgSn/fVnCLDOxD6iCUEvIY
Ay6QFOnFNjOgSc+qGQYmXzepfdhGdc5jiNSAN3Di4MHbKGKYDTbBOg3ORb09fLs4
YGjVNedigeTF90/2Y1PXO37MRKcYUTp049BtXrA9Frkf3w601I/2mm2jjbRkCeR7
5jlF2kz+EMqQvGL0sDi0Iq47ZtD/R7Nts89n0ItXYcNQS2m9CxtQ5PdT+qW7bjbI
Z/Yo5PIoWVRlmMqVYLpT27j4H8JT9kuXB8CWJ5yS3QSZggdkRjGCOnHnLVzYO4/b
BjPR2fO9bwRfXB3Yxep2X+twt/QGTZlVopQ0nLvjFj10eA4fVbEzFs01OlbHMsVF
xm0k4QmCBr767bHMhUzg9Qtr5Lta7mloqu8RA2+2aGOS+oRSr0JPsCWWPNkcH604
SgN4bnLKZcMXStWyrCou3Zo09TFW5DtmjFaniuDdxkCY73RAZ3lJlyDW9oQ/jH9f
FxhFonISD6hV/TN4SuPiP209A+QcTXTCtHVbr6EiOLKIgq6tApxz8F79poxtX2Kg
/PAwHpQRj2iFLjbx68aXAypIweT8xgpdQsm5VfcVSO8QJeUSn42m2Rn1P0WNZ4HG
j71myoKhdMJN0bEYm/BwS31HxUejaxvRvJxEJAG63TBScGJBOYlpy6E/3Rq9wmvi
/1OXEkewm1iCYlC4+YfmkFSvCPPlo9MuCHmgTQ2MavTjYQcf6GW4wcvJw5u62Gb5
sc/UheAghua+aflHnVhPRM2O8lZ5/wYGAMwzLxN5O1XhUftbHsT/yQ8facWm+8TA
f1l+VhqAwGNi+Bfvk3TnypEOB5m+fAa7A2/6CU63Fq83Nd0yu5f0SQ1asQQ4HLRU
t2XrHOGnhzDBEpWaxkblQSWD6ZfaOkX3hG2Zc50iGFbLcV4s6+nzJOiAQdPzg9I8
p+NQywJcNTz+ZvdZGNwnD3NEz3UXbBEbskUnyBr9BrH5ejhKM+MabuqWA2rhancE
LgdRR5r4vnYo4udGZOt+p3QVkxpDlTNPayo0YH0RRJVHXEBwd5xcNEW7753XQdhn
A52ihFtOI15odcPt44DepAlcvw/CB1e6ORefoeExqS6XynhCdbISXTbXrVCovbM7
lTnQ31ExtNBQ/U2RB5Gqb8c3t6Qwm3x26GIbrGnSL7FOwjndZcQUjivMdi2P0mtw
1r6ddkLKVdGr7EZGCThpk0TTNtj14O+UzJ6Sl1bahsk7mFPzMvZEHTRd8bRcJ297
TJhNNHtqm5ZDmXRP+HwlyZ2rUJ5NvGr3eK5ltuiPX23y8ldyEs9ogFyPjOsjvb4I
A8Ftl/mYwUyKwuHqftzaSfKhuybLAwidWHxajgD0HHqoJifZqg69raX1j3lHovd/
NzBlfW1Y7hkgsgWn2XSikpIRa71xIABxFJsm+bVTTb7CptbBdBwOMzo2w5oCI1kz
niTVV1TAGzfVo/EIO51cxUgmbSNRiz082RoaOl+s5teHOw/pzyGDti2A3yFmlz5b
iEUTMBd5xevLTf6jYRnL2rRoBghsa+SyLCKGyGv1xx+LuL4NX15rQX8tvhz26tfv
nmxMjIMz5Q5A2VZKo07z4IDREpUIPsFW00WBQnZUftZecI8S2htViv+3JZxvxxwD
iymDjco5b3wdyeP5AZKW7+RF5ftst/tEUusqyTunNVOytDn+zpJ6HR5MD///nQKO
fwMFyM0sPnqK5lvRt0SNXF9gAP1F3WKy3TZ1okNG7EU6zEjVbVqzlJ2AL6GTQt8E
e5eF8hs6xrhH/IdxDBUBDZOmEXe5c3RrpSlbYHZ2tW4OpI8SZKmgaicfKwEIM6zj
3lk4sE0+Wsjo+bpf5zFPwGlwIWnyUTeb8lH0udwudCLKw+/6WL1WQST31UcKKI/d
Lp1hQzXggQNfhuTIXF+eZAxDN6RBxwSKHy46IQpIkerkxb+x++0oqYpfwaYc2gIo
JY9iXEkevr1vwZCshbaBzzVNCXu9393M+pIcN6p384k5OOEICSwwXIQynMcz6TUg
W6aNj7goqWJGRzNr+sqfJjojQZ687LbCZ+T7cYEyRcv2NFIASMdK96EetKxDrmur
hBwF97uiReH2AnnPhfvoAkbEA9/MbTn7ay0njSi3R9kOKl7gZPilklbaE/ziNkXZ
ZMTj0VKA5GpYFxNfjEWGCPg1qR739HTa+6nzbluR9YxVQCpmqrPtWPA2bLHvX6bG
1CpKrZfJhvG5ly0PaYz99FXRPHSN77YDbKwm5kdd087F0m0OtwLwWh1tpxR6b4WD
azcJBwL/aiXVn7JhVVt7GR/SMq8YjyU2FFFxZea4Y2nYmNkDTfUrQKBEAOSGzcSb
jcMhpcgZb3YRjh2XWzzMK7VW+PBc8J0JxYC98g5H5YSIaUO93G7eguU114CBXEbB
5lPKgg/aAMTUX3mCRv2u2XysWxT0Edybt2+It8tXn81ehXGmyR7IubiKxk92e6uQ
3HZpT8AsgBRbafaErsllkcozan1RWd4Y8tEKzsNdQASoU8H64G7rC3Ck4LZNdRfZ
+wPZGYbipmQuaokb3GR+SQc4E8TynEwqVJp7uBl0jXgQ/mzzzOhGll6J22Xje78d
/MQ6bVrHw6putz/lMYjAAf7OUwq/tr/ggzGlMKE3psOCvSDZlufomqVZfXkiPbZv
LoqALvobpU3VjJ7vWzLlvelLFaj4g0SaazFlgrbyRVt7THs0Z+QBkKAX5i9cwVJa
PssVx2WWsOrjlXUOERksNZqgb+3j/pGTr8y5VEmtvuZw12RgbTBmR6uhPfn2dxra
UVEOGGuBWBheHkplBJj8xYJswqOjmYRp3PaXNi5nTBDy9QEcnfinNwpVtX6IhtSg
i4kO5ERLQVGAXMV3dI+ra8xANpvZTnJL20UFLxp9LSiIHra1ERcOfc5mR0dfgM/B
3F1GPoOyULF3YFnAwUYjKlxDvkuBAdvH0Tz+RitzAYLNqtYtHjnNulYX6vM6khp2
g0Fi4OnbXI7C8ipgKtD/tH6QkB4TmQndWwyAziMNgUCqEnOQ9PCD6XnJKOka3cr5
YUb2kPWjLb/qSDs9G4wQvNkoIvM9mmTLejZq6cudqaIy0BoXkl3b9XdQHjFywrxf
TTsGjWE5l/NDizxxltIdZmasJXfcUBUysG55PiHtMt8OEdjHqhdUfzokgvZNt5NP
+TJyMSqb8lp18+mz1e+N5fXPlXgxwQyQ0xGX8GAn68L8P9UccNubatvx6PeRxd/0
yrbJUZ8U0nzdBvzqkPQU0hkASWU61OVqgFHL+xhkQXGR/190d8q9jYb9alcQJIIn
dYEfnI7iWP8GbwDKNdu3vruU2qOLg5VVya8LN1XgRP1jrzagXNxaX+wQz62eRTSf
X+RABzsSzweI/nuohFEdd8xCgqczrrX2zd7R60QErQOoOT2KuLllJ6x8Mm4DvIrx
w3812t8ByvfkkZbFiYIGXTaMY4OXzsxhSZeAnJKqg0K4zRH+LTs+kExgSomyzgek
iHFoljQY9wu/QeXwiDndpRm5p+mIOQ/MNAkpwYM+ViwWZ6aa4asskEIS/xlQ1YcX
zb+9UX68QkvzmfeYfk0HtlL9PC2lcYPf/OJ1tQhC3qBMZbagCE18JTM3aW4BZBBa
dKBhdLrUjN9c5PfGzwjV8qTyZAEyLgUmuueg/Q/1j4As5q8kxhauCqldveVS1W/O
RqQpaxm1Rzf+oLl4hEBK2gsQCXbg4M/OpdpYpCeHbHuV5dmF5ks0qwkrpHJr5MLa
Kb32X5mO1CIagWExTGlENIZRKdevW0ydL+ayOwL9XPCReFOhLGfnfDx8x67I1a4C
iPwgobdgz4zzf7b2OH4lOS5ziMQSYu4B2cZt89wCCb8j9o8hG5vMebP6aIlDidFd
03sTeveVO52o5GBGw7LE6Kw1aCFXcPmYA2vThGzpTps+Hwe8ZTsz7kH0N3cCwk3Y
g94tO4G6bBSrYCcwZK1/4dQm+/sjk30Elp8gOlduhDhTQ07hkRN+4QafmiuWRt61
69ST1h24cPYOACKtYFHxMLa7c8hHmB0+zykJ2eoHR2Mr5jRrmVINLo53x4AJhrmC
V/DUimnTQ4w3dM6Ifxmh9YrrUmDiWVkP5QZVGIh3ztOHXzV95T6xG3s/Z/Ds72/Q
9swzhr4PwkKNeBVN8NtEJ89tDKeRWe+7+WL4mPpN4WrgZbDG7xyfwR/DbNWU604N
TBx1tgN1aLCs4a+1reUjKWlRY5p/jlbZ1QuqORfb90LD+xfaMBziIE0yPm3FZsrw
dlXFQM5dRxgVhCbIaQL6Am1OGH9L8lhstpAOQN1mB+bh4QcWX3SAy106NhMUGv55
zvKDL23OOLnwoe2saRwZTu2jSBtkIfBDjcoj+lDbXlVpXg9MxoH9UQdpSEP4jE8f
dHnAyK0+p3P94gYlBbnqM0hsRn+EFF7GNeAdfZC763e2ivxo9m1m+SUa8Vb+KuQs
TE5sfy1KN8sFpjE6V3tAEDfjV4XCTseQYp2hQMJpU3hHYXo5X2jHQvtSk0aaQiEC
XLnRUyUf2XuVaPaAA7oiouYlahTe0X2WbbaLC9/8xbpsa6l16MET70Z9N7a18gC6
eMDACynGq5OG3tId3l1i9UyaR62AHdd3dF73kXDwODtI5blGsgjwcy4Hq2XMr75o
eib6l8UnNXvlwmJP/OeGf2RkDOAs4sbbmKiRky9FjfUfE9jHWN2zcB5LhemevCeS
aCFmiU8Ro9W0XxinIu2LKeJozgkPHs/vN/mBJnoJW8oN1vl9mgWaoZUxo0KbTrvt
065OgkuCTqzd84HNXAZYxIKf0IhfUMOvstwFIDjRrIm28PW8zRl2EzHMye3YIH+M
3ut7cVfvniIEyXgJR5/MuzSk4uffzkMZrf7OxMQAb0Xhzw3aA11HyrWCgaSiWiWA
jhM2cUYhjoFOIgdHKtSzAKBlUzBGBvaT1TmKqFUoIGNFxxk7nk1s4cvpQsD6F/32
TMiDmW+XHZQZFe1yzHTjh9AAAAzC/PTpby/2AVPVV7ZdVBN+y1h5VucPGrYcb+hn
9GbUvuyF88ekJFWiAOTNOYcmaJ+8P714oP2Uq+0npHK1TvpfnsZasiXkr7LnR1ja
Iptj+Ot64WcS6J/P8YxlVwGjiBQWRmErCPJ3ZqQvW0XodczSRbhJw6NW8diXq5hU
3bOzZYHOnZpzqUBmXig751RCYfByKlZmItEQ8YZP1XPjnPgaK4YxPq6YiriSX9wZ
TurgBSdH76Xmwl2eLPwwgYtIxhrGWmMFWcwIF+W3D36pF99THfwL+79nzQQTXs0B
gCCLgHfjIo4GboXS9jGLUfgSRKAUAUrdCkysYwk0XkqQKKQVVpHGlg+pBbvUtZka
uLhHRH28mXXvvPqFSpqx4RL1FknjBv5cZ5K4y/cGHzViSNKVm7AfxncSLVmd6oC9
zx45BPI/CZHa6sJemyWOHB12KvAcDbnbRClVYl8qI20EelNmIqUIrZLjh0GvOE9/
jdbrxEJ3U1HCFIKddPVbntOORmVIWrsI4QFVL5diwkRq5bUpuIJ/RJmcU/te4K/D
u2OJ6aXLln2uKlrMvUiGzBkeHMV4AECnqv/hmgYi2JpS/33WJqaoXWGjdQCoiPAV
2qvyolUatqorzBkbWL64eNW9PbFARQR3w/jSyBhHE6FmnWEiKgVfl2dNRRAX1rjl
a3RNDgqpr19DCPLxdKVOTT0DP/cB0pWCEfmEaZGTCT9oRnHR4HAZy/g0vkWHK9X3
IBkoH8YU/Vgzc7MasuAmBL7sfe4vfA85noeP3BEpga+8qVCcF5c41Yzy2WUsAlFo
X7SQ0PwDy4PaIIGJRRx6qXChpqDKDu7fiuIu/orm8TsrP9+WXTsC+WUYeKbpmPXH
LYzyzaiK4THhCTptdB7IkVtaBCubXndFn94Q6OmMOR78CWG3XetTcIF2ZkyOMfUC
xhQg2tOthiAeHExURWaEdu9sjF81u0POu9GgpqT0FWdiklITNevtEVG+GGhAcIPd
ynXFlmt9HcDdJKvXYo/5U7/LauoyyfOvtfbHTAbdqV3WaJvVrPU9k/pRQdPQjxVF
Ey8aWWNdJLYwV2HDlOQHcVzYdqstKWpuVhpkgS0v7+p4K6uih+3jBYnGzSp42BMz
T9Zs0cGsEhXS+XFUOFP07CrwxBTdub2BlCs7lFaJGcxJNicfnsr3XuyhMHUiQsXb
kyBgeURYnCCPmfzwu4hcQ3o7C4/u3djYo8HPs2Tlabn2GbIvz4csCA36ydrVzqM1
yVlDyw0hWl/ZbU+SZvhJRbSt331ly3/BN7Mmlek/zMtBOtDu9SxCu4Bps7LU+RmW
iWVUBx15PDDkS3iG2k66qBFFgii3tW3HTrINGskyU1zfE8D74lUnxOWf7XJkxFnK
eN6tcxJZnAuYRNUvy/axPTJ9eW2E66EWov/FeDo6g32j7KaCAOZmrTJrvzPe6EPB
tUYgv6h/gN8auq7XE1o5a8L9RFyeOOWAl0z0bsMosRrX64WzaRwXPOvrVf6jKQNN
kNKVlSlxeg9GMSbr7uYU7/7qgVGj7fA+/Ax5mbzCs1TJCZAtdpFG37B2a+SAdE1Z
GTrgrn6zTpvbf/LPpA5/l0wwPagFY1NE3hlj+X+06mI9pon+1L5+GNt7tqeiC83d
xSa5LPV2aGWpDvS6gzIJujMpuU8jHMIfSMSiJHJp13A7hzsOzVavILmnVNQGbEse
U1BgZA4wEcvo3CtV6G7DMwEeiekQ24H0kbY/nPSmkI+nWA1twtLLAkeAjATBrZ+C
pHORmPQIqw5PoUIpq6fsaGzi528BJifyhubZGOEYip4nAhwQHmxfzFGvUL3VJudm
/xxr5LJe/so98SDIU58p/WKkf6V/PR9QeLCkCAQPakdgf0R5+JaVvhpdb/XGrOdv
+VuQ4zK0nDgVEn5nAcFzdhAIqFetsknfjgJqYNKMSSRwFs9t6U7i+GVp3OlyNbD0
Y//4lquZil/8sbIS6kOYik/wyYtKlvyM1ekaBL0osAT6gKUKKff0+ntr9RlI5/X7
4p33QSEb5/cXeRz7mEZEuMxqt8vRRISCuUwNmgBNZk41nCi64ierpeXukVmnC3ZX
Db1CQWqonpd+54ucr4kMkrk1LjmxpdnoK40Q3g70txuHk/OjIOMxQwSoR1cTMcdY
REJ3qe7kZLNmR+lxUcGmkQoQ7agsp0qdsP/gi7xZfoSeS1oJXfU15SwLde779nN9
Cbs1WHKdCB3b4/1og+4aQfahhqtbcwnWQyOHIkQXOTX9oM0GuVnJ07AbRdHqE23P
QEVAl/0jS3oSo2o0Ul4D3WjI1W9vvzLN4w1k4QwHQsPJlKY9M3tYFrLDhvwF8W8I
lor6BRKh6lQRe/Key4etd2EBUx0hAEjVQj0VKMP1z6dW7WJq7R+8w+J6CL39RvbJ
1zDTcyqDEgFdjsIJHtZfrs2dJ8MqudwvHd+8cBErNQ2i2zVaKZPlhSNOUYNEhnfu
ydCcnacKpIydQ3GyQQC+w56oU1A1On1kfBelmufoY1l4k6GT3QlCz+b9pUL0i9FP
534wXxylbzBim8cQ9hICkuDcOat+7uSB08PSDzf0NcSnnW68lhAyot5zMIvrvmVy
UVpPiK0VW31T6caWq5/6zpQ+mpsL3o7vvG0ieZTL54wlnbKg0ZRgwAkcqZgeot6h
ohrlLlU6Ootj+MDjC247NxgX6okPRd11MiNzueZNyIRwuyXtNhW5QpOsJvPw7yOL
UmUTJJeIgqbola8SHn23U4Xg/VTSudtRbwnGO7dqkKRn1qpPxdxc1EEbDZ2JjpIY
Lif37oakj5v/6PhQuNn+IGcI8u7IrUgslJTRMbcCYmJU5+OoYUiWSBnNiC4JJdUe
vmLLRS8iQGtKB2J2gUNzSKYFvqApwN/sHLrLkChly4FDNMI/HwmaVeJNZqMFKB+U
diFrDVG0IQDYl7kuyfxUy2pkgO+kIZIaep8mtOnKv8h99F8LXSmtixso4Y3Qqs++
g26fiYOg3tsrKVqFKcJAI4CLOoP506zQbl7Sx+fpCrRQeZ9P+S5IR7W8KtX1VP9w
h0r0YZUGGExq5IpR+xCBtnNlv9Qumgc9si0L4741ePzRdN5jegi7vimwSNZHE6Yk
fyGGkSJWkQbGpoDXCeB5XZK8Iexibz2r32qha1XApeUjki46IOAndWVHMUMLPRun
/DC9q9YlTv/6YqKT5VNXbzlQvP6CA5eXxn75tVtdJks+lEv3dFHf0IkR2RN4h84k
nFyL6G9IEG/rO6ZvmMdEjFJbABT+ijwWVKvO8aBmdC36ZL2dQCsEhKDUjP71VEX/
9923qQEmGMypo/vPYUBEdXlESL7MX6Yv3vcnKyTg0TkasBRleCHif15msN83wAY7
wgk9G2hmaoKNudwTzQf1LtfCHjJrnkKtz403NNaxBsthyxj3LvEHPrEMzC6CrGA/
WyiI1rIzA32sWUpbVvDcVKYh5rNutAxScD6SSAsjHW3g+FLH4gbl0o7W2kMXI/hi
vtpXoyKvLljGMtqELnGf87w3bKFTKo2OK8a3gP8ygKgMM5hDARb3DjUR/fXADG7E
HxJg+ePV8UdZjv16YShKE3k74uW1A3dK95wsrizsE8lZWXA3AbSsgFMZmuDP6Mqh
l0l+8g/DRjKTlgMjH3piasgbUdoQqNXX8NVxG35Fgzb1scVpk/tv/9B2vSYQQKDv
h8JWUFkRGHPjZSPKWzXiqCVTaIQOSwZNJ//bkIDm5DpluyyjGBof3+IReYlrENay
pXJ4P1qcnWYUe16+79D81BhAlqxQnTraOMkRVQSt7IL/Emvsi6WongcoSUt2s4CY
6+J6/K/Lz4F1V3BUa6vrj/8gmb42PTVKKjzixFMYdA/OIp1vahdSaNdNdFp8nrC4
CTLHMwSZAHG/TI6CAPdx3hvTZDA404ZE9YAZiVRJ5MEl2rsKI+0AxAFQdMY8q7oY
2iVyQXtobofnXog8qKVK3sLr5nbqrCcxxc5Ga0dZXMy54C5+tII1bNi7df8whRFB
n1jsOujXH79A9cOEIfsCWat0eYkckSLs3+AcZ9Q0PasCmt5zVMW88cp/y7x6D6mL
vP6dfZ+VxRr7pHN1Z14xnPZJiQLw+UpTEwnL1oGQZI+qqlx+mZbTFAa4kUHXaSMU
vmxUOU/oCaMtvnY9Tst1XXfp1uVqV7Iem14bkK5M66F0P7fxO/IVHDhVTAVBp6FF
RA4U2m0CsvMFfxSV9oDTsqCYBVCSSLzzE9HEAvXC1Vr/GKorhLUyaCXG6A3ajKwV
r6pZ5/A0SnNqHXBcnqLbi/mxQ16BLx9+nE2okdXRIfjvtY33uYp0KYQcWgEA4Z91
HRqzntEyMtCFJ3LMOQdCRZCWhT4eSbnPGQz6XoSYf8GqMqRhTaqRE4xH7uKXGJVQ
FbXPx3pMqXJnrMEl0y1eEdlkayVCMY3AdAisGyunQau3ROcwAbsqVh/AiZUndYgf
PjAAEplkg+HTOnywhzMqVX68RSzbrPSHQTtqT659zu/fpIAMYY8n+VZk0gKRE7La
5GEYpDEgVGyQp7hrwrBcOIRkwJ6jCC6AnYc7Rfl8x05BvzklrgPnp+py9kLFSAXl
GbiEh1JSyxAJhpLUWq2+uH8P2IGBSPmyW763opu4QPqRdLn2GD/PhfEchjU3cnL6
cMNymfhRQimgeVi0nDjXofcaAnIvtu7Bq7L0VZAia7JQgqTZLa1WAiZL1AQmY/77
Y0Y5ii6i5Kmqq3tBgM+QPT3Jjsu9I8dT/PG0zA2RlvI7LNvpHfuvMs8vEBNVEiLf
nn6kXjPyR10BfwNOLU1TCmGIWUzj+e4l79QikLeg3EpaYpi3ULQlhL5zAbymlJnP
eVCFedgRi/pXe3hXFWxReyfgG2r38LtaKMJ/S3RLk69/oRZVXo5LH/W5Zj9+dWjw
IHVhOAflZlpFYIAn28IrkjRbM6QSv2cYqpSVPDFwbOlm/jc/lVKZHJozzOiLix/R
ruWFZNgX/Sn0NwmrSrmsmyQdMtmK65jLKx09bC85y6U30NAYeLKjbeAG/8vbQyJx
sdg4VN2tBTeefXRFnTAquosxyxt/Ea08ycP34CPMm7cKQ2EW7BZ+UeGiAGVLLPZo
mXM9Cge3FAkqA8/+1WExbpavV9YDU6FQ8UE5Djmrr88KWFe/mrHBNeYAigqmysWY
0KhTYky84pQoBq9KQrvNorYqSjX4DC6ongqRfWCcRjG+faoaDxHZ7inxefOstqAl
jTfIwSjgTLiluCUZ3u/CW26FulcshLs4gkFbDAa+Gk771Ma93emYT1JGcjbAm5Yw
0FRgxDmF78aZUOz7vikQFZceehqL3LwsnQazu8vOBSfjfwUnnkmQ7miAroo8okyj
O0U2fzEV7d8TbVjNSjCA2qRXDDR+ZvtDMSZe9C5EHO6BG+rYPC83cT/odz99eucP
VCTFsPTIOqbXCQO0JtSs3UJblVUVnhG+OXIzYBVo3KtoyyF1sx5sjIJQ35qhFMGa
Juk2xoAQ2MLdfqflgYT0VOdOK0E3n2fJwB9O5m195W6OiY+RAdDSwAPRdtVUc54W
X3qtZCdf3+GzmH6XKOPr1sl/ZIsUYphy+lEymRUWhxH2n7V5fT7AMI2m5z/7j4OA
WtkLvyz845EOk0DxCclirBf8NZKQqkUwcgWeVu2T0HWLzyhuvWMHoZQzgQG6Y35I
4mNboJAyi6qCN4Mqg1HiBW/SFS6vp8UMMOvs2JaDJix3O9K7R68+a+7Xoz/EQhjO
PnItHfcpiOCgWm8MHEATZjuBzJL3H0leIV0xv80SWTzFCGN8heXa943ALhaee+Y7
hd2801QnJO1BeJRkWJwbWE2Mv5mrGdTiJCxkjFAkLb7BtpNRA1F+AD5uGz31rbFj
T7xo1Rwh09IsP9DKmAUmkF0awdLh/rXz8b48T2NeX5y23tT8yOMEcjqfy8wil05V
fCCBwfu4jQ9vggUZbprSVa9QNCeh/gzlmNS0w/y9O2eVJ2dz7fi5DQ8Eki0b26Oe
XO3Rz1ouSrvx90H9DmCF858I6Tr93UOdu9TnvpYAzstxyxK+r276mwCqnHpY6ToR
uq8mN+TAngRoK0DJwFvlooZnt/JXjCl/rBJAsjOJgJvVHy1jKrEEwdMP4XoOCXDN
cWFedcPZ/hQOENr2MAA3/epEGqAjyCungQtMNraCqraQNAmQAmJ0bWAhsLpzFJQG
u3P1VEp/KBsK7UVGA9Ph5vDF05PzEA0gC+JVdl7Ps9oGIfkLVu+U+00dxqo+FalZ
Rs7g6XDa0pvxy5kRLbq8JC/4PemGIRF/Ap621vBGrza44GmyW73MarsG8bfXVGdV
POA1jJgd9l3ABkQRAmL9MobBjZxkI85fWf5EJnQrAGu4k36JtrI79mUVPHVGqd+x
yTb455VgIOSPsKpOW8SQmfgXBWRRzdhIwRnTQS2J4RLsja9J1iXymGjAkyDyD3u8
TfH21K0oCkSViqSp/t7vw6GHOhVyWSnCssUKKXy3BKyCwxivc4dOFawcmL0CvSrK
KpqznQuGznSCRff7C7/Za/I4QCL6STBe4i/jq8oKw1uxjA5JYwxqZTTuOmdBAVAT
oAR9yucLQ9Lni4T5+ynT92RCmknNdnIZKvOqBxwKHB/7/qw/KUIvQBkMdE16OgvL
zHu0psXbw6G7t0X223qtMDaIQ0RiukcHhkT7JHsmdIE5kSvZxuhx9uvj73IARU33
IM8wYA5bsvrIbh4UngrjoB0mvQgM/XVmwPiRGejcGCmcp6j9+nZN5cyKWgmWHmJ/
Q72BoWY2TLhkoibBAgr1X6eka4GtTP6TlGqxwGD2Z76hhWjDjuKBg+KqLCA0hkXi
G+xZkvfYyvCS65qxs99ZQ5lkALojBLtc/BdGIOFIcPPJXiHGq+P4B+NxCKvIDbxN
vDvoLGGcCANRS1wBzvCAM3PfLUaAAUFzTDpHljt3RQ8qqXdYv81Cz5mC7KnyN+kz
BVPuRJ6mcbNwwCEazPjKOEswWV7NK16aWLj4IFuAr3ut9qE7+vPIU1DXZSkV5yaZ
MN3MKPgcX1hfR5J1RZd8+6PAgJRNBA1cy0itnyIpLa3P66dxw+TwN+AY8xyDEleO
iG2AhO/ZQ2QFu01ypn8leQvtPlDXXdika1/BlPHLOYaaYemnm2Rjn99gXMSF0KS9
QSrhU2FAwbrafuj7DqaYj7ypGC0Gtg5mHrtV7RhRtkQ+ViXqIglzvwqXnrnjlcwK
QDW3jmAECCQbp46juDvYxLeJvTbO4dUvy2DKeTV21OuhWRcEMmU2k3oerFenT6Eb
a4KK0jvnmxDoKOXrIldEriKBf35vg+wu+TBk3LphU2A1GRoGjosO/Qq8kSg0nv7A
y7iHklTCRhRlvrQPqTwcR1LBuVNVYyAQCoyUspJkCQmAHe6wTRM7wQk1rizMt4Mq
eo8R1GOopd8mgirSaB4hTFLmjdINtUuwpnUwEupbpxH59OpPQeekegrHTY8gfTDX
hT6xP90O9aE7Cyy+QB3IJPGRs5yN8e6Pij5o2YNzqsbbgS9GG7BPL7lh9yq7IG/p
4L1sGdDwaSQfyQPA1zNCj7tsHrzkJNtW4Pu1ysKReHIyaGjNRiH7ruGVUJomDQp7
HFsMLKfadsD3W9WaXl/VRNb0+I1/S2CrbD2siSQ/okW5/wydSTjDYt9LR5Z029tz
Xz0NTgdUkKs9pGAYTPv/xyspaNEB0YG8WxbhB74squXfWq/QGaf/bdVanEp39SDp
iiG9+vANfDaI6xtIE8nRJXt4f8024xgXwnvP15/Zt70d0TsZkApSJ2IjFd25Lebu
9wHL9Ka9SLEapnnlwCZzFtRElfWi47acLW+cpzycdh7pe1ei1xDamUVQszJYMtvI
HJ5nEOA3T8LVrzj8OtKo6MzqirFFZCrz+ZLxDI6RctS7sDY1Tl26f++tXB9ef89L
WDt7Sx2AZYVR9tVJPy/iSEUrUKCyeBjnpLa/cPwJ2TqMUBMqvlHLSnb4hvK4Qzgn
obJVWGkCzal3C3oeQXLl6zePIW0hTfS1TU8Yo99BJ+RBZBtG2TSWs5BdI5VBbFPc
Hy8B1w/hgIO63a7PmWIrWN+iAy1DhqRCDAu2sE8ZeyoZ7ud6WG9oehMUf08J12Et
/+X80co8rwAzIwPdXRxlMy90MjApFcdy3XPA+bgGRJQJv7T0KBkKY3NSZyqtGoa5
Ju+ojVFLvwe3qJy2YrzIhrG6XgGsESRAuOwJf3wa1CUBxuU9LA1E9Ch+pXIo1/Lb
V0Y0xm96KRQPf2BzUPA+NlHz6OeRndLe1jLPq2FUu1NTvHoE1B710BW2qHDsjz9i
A4govNqjkooR98aqOZiHwazEwHIjO3rBvcT3Du0G2YdHXySIK1rUSwKgzzGZgHXD
+incK30deKREJlNinrA4w1SaIUsLc4kQ8qdWn4VBpkeKtmuN/4gUj33yKdZs/A8Z
pBJzDGbNekkjePw5fWpgwKq6J47T+XF1kYji1TJFEBLG5OVSKTH3Iv7omDkcqxh3
I7qp7Bn+jdA854oALolpbL94jiCt4jPY3HdXhp9iRbwkzngrArZ3Hot6XGvYjtqX
4ISlrYdlCtGElHq/Ie1wxxLcOzReHaZd7CVl/1B7uiD+jLtLbM74IF2dWKBMuKAF
0ci35kSPN9Uws6SsHJukgynDgf2IC8dhWyznZhRwqHa4UPbQKTCw6Mr/whIwV1oA
gxXqAXSn68DI0Hk3ql6F/cIqp6K8Fym0yEW14HafP0gvk2rLPA82cURFgTSN+rl1
AfzwlgkmjuEAi1n8Mn66qSpkVj8xoOGuCH4RGXD1Fd/wdfdZHlXYNJ2b5OWRrkEg
L1D2RJ8RRqxoDeAWtUme5P/SVla7R2Pg9gHS1njqXKPpoKAc+WkRJLe/M5nTUgcp
AZ9IfdpjZNCeHjuZLblz32sNSCklof5+3SIOK0dgntfonnMeVOiAMnDvirfecC8T
Xiz18a/UeJhra34eck1yowdblc0uHU63hLnKEmeLAbF+FIKkiNSAfHadElBUV0Qb
9nbECgKAWoh0LLz8IaeUtJCQlFjg/exvDGfUmQfjVF2llP7esIFpaQqqf9aYqcBC
AUkHVSLY1p9so+cbO5uInwjeew1/lMVjAhJJ1n3gOsLgKtDUio6e0HFEduBbFCQR
KFskY+taEGc5OHt+WSU81aKIEOcdAf+khtqvgNK+2mTTz+ovEGjRmX0XqmnwTrTK
lJp2QeOfafSvyoKS9Gu3z2vMfp2HHUaOPmchgTZpFU59K0ioF9Y/2WOVF4R99xZB
IKbE4iRSYkMJQF6OiYmf0NTkmGv/YqA1/q6nU/vNxGEKz1qKtQUizWtn0OJo0K2f
5VY6ndPlNFsQFmEmIRrrVwLz3VIu/4T4XJ+9NqAsOfu4aFAwzRDw+cqibjvcWlKY
AslPwHLTS8FJd13LuXOwQ4wfPoyzgqpqOuMeG3BzU1Z0ms92UHDpkzigyGoVgfag
QkH3EZYaSmUKMDFbP4C+FAwdmEVGv60ZfOgmNCFtpckZbaHroT6WPpGM7BF0jswj
2/aibXPnJPfFP10O8Ss1c5Rs9zFRbyPrr+wGlagd8AqMMpBQtgsn6yRIJdnjU4E/
5hh2bIdxqPiCPS0XUGbiOUG6Ss5UYWhXgop+VQVV70Uw0iIyjQZ2q3mOsos+iBfB
T1HFOoyMyJFg7bi+rejahP4/nwdUBD4eERmYWW29M6tF6nfX6gouor5E/IfWHtec
4vGG50buq8mpVYsXHKWd30DZIoma1o6YsBlKUW5mcx3EdYgcaGVcgews/wH9mS9q
7PPoILl3JOp2dH8jIPq03pbyfLTKOm/XObZbdqCKvAU6FIVnqJbE4Q5L7gbjFbA6
SuERCebrZR3P6VFIp+Lb/zLNtOrI5Pz7Fi1G07Uvip0q+1f8E3nJ33LZJ+RoB2N4
XNVrpkhyanRPFFLTGe9vUr0YuQqGNE8ygwoU9MmPQ0udpDvc3WjjN3xHuyHsejOC
T9/Z+8E1Eh/u0mISm/mCeOqgiPryfIE8U3zAf3yG9Mt/14G+PcvSwrw95IxCqSPw
UExIuowch8EeRy5p0QxuoKK3EelkK+mFXV7JTVbEFcd3OaBWSLcn0nBHDpDUxkUL
RGxRDy92w6PUaT7vuFeM2ReIQt90pI4QhFFFyKLeBSaMTtuU1wVJCmMvauEZEMvQ
ovvx4Rkmwo5m3YTOdRZ7zXM64a/ttIEaMJCYzURqkraxUFXkjmeX+RRcb92xpJJR
ZsmGUP1bknXWS4E+hieEpuI0A2Mp1CTkBYd6rMDSC/DGCurN3xnWoTXreTk7aICm
f66GhuCqd4Lya8+FMOoBVFuyr1j0CYSixEY7buWmDk+fCMrgQ3RXH2GjNrQS68RI
WS6QtFI4n5Vyc1zuxEfFaXZEbmI9RxSuq1qwqFSEMCW4oxi3pB9jqDN0S1YkkfRl
V4NMwEClWK/TgTuz1qKt+/M8F2ZUMVge5+6TT79VPQWtuMKhAYs1UjHwUF3T2Ic9
QizcnRqQCqleWraML/ViWvBBecgqFmx1yE1rFUMvA5cD013lKRdIdwxqORBpQWM3
m06ijEVuniXdj40GKnOKHeT5m509qV6qrKJCfI+6MzdViVOD8mgV+TuJu28d0sGD
5oyp5f/B2gLFH0RBbD+CMrnpw9847jGOArGjdJUk0536mK2mKvKR4SM9K4lHYgar
NLKkv59AKewN4Pf1t5s0w+84ade2Kjx8Bi8oWd1AsYswv1nSeRwi7aURZ+GGkeFi
olgDqwRIGz5l4m3ijE6TW0X4+TrWfxwhTC2nUlPcGcDZIuTB8rBOmBcjI3ZEMGeF
eVl6qMkxS4XSsPGIXxByXhEdC58+tCj49U/jlR+inI0NpUODWpL2twXM2GCsLTkR
iI0tG0RqmJqBquROrGhMTBYP4I+EKBCQEyrrWSjKcmmQ5nspK3KI6CCG7YOcCORV
g+jKrELKbALM97Q+Lc92sqdBXrLrgXNSZMA5OXXGELAp1ggLY52z8IacZaq/HA7Q
0kB2e9s648WC1+klcbb571XligmnO40whhQMIajRBrsElSSV8BjpGSVKyX24RJSx
pSZViiM6mlih54SMD+ZsZJZnqFKJZCHahSG7rspdyAkprriwRKo0wgwlO2eh8z2I
uOtGfTGvuJopWVngkp4XsQO12rzG5OW7eHzAHNGjARqgbcqvGzY7GU/2NZN7pzuq
uYhNRxSRzTWncb3YteV0BkEXTKkTLacdKJEcNvtVseYLMlQk92TPR/dRLGhacBYI
NcYK44/GOyQcQULCcDbiRoO0O5Xdrzq4zGcj8BHhIXmjRUt/JdH34OGKweT9Rd1P
QVz4OyYjFzYGwcD0slKveSh7NXvdpsO7wF/9sxJOTcJ16sHR15YPVIJduRk+8k/3
RAS063COL8beMvo4Pt66AjZ+ZOTu8IpBxONyYb38lWs/KUlU/okuhFIh4/0kewPY
xacAeJgJYHH9v4N1iwrMZ6r4a0jz7s2DnDfGt4t+GxCFwBx5cJm5SrlNhksUh+ix
HaY7D+ba3bJNHWK8mUZOHPh9OhxLAPXy49QJONJd+v4NNQccrpUtkoaLi/enKw3R
0OWpNvBGYOdjFb2UXQF+4HztmSO0VceCiYTLu3V0QDHgQc9sgvU+CPsysCfA0hnd
HKZVmctJhwDupAqcjb49/kPi5PDqsyZfuL7R9cU8N3mv014449dO00TTYMDyi7HN
KLyWLzBdQc7RLSEKVK/H8NvFTh4raE2VfuhlIM1t7HkKKLEp/BYNXDckfKukV0wx
NPN1wfb774y5ZQ4OxXmxfvK/ferd9g4q3dNH0IJ+QBa0XmcvR9DAbyc8N535WNB2
h6nRN9tphHpPqDiHGBxJU8IMy0yZEf50jN4VW6h/rc0bIGvrTcTjta1F3euAzFq3
gR/0IV0Ylpxz8xKzHtdztW4IYInZexkU1wiC4zuxe648Jt96jFTz226lis5G/jYZ
Foh9DfO0znSpkpOdlcvgpw7KNPe0CfMWogdSn97gk6Krb3wTUrOZ/2PSAxJSI8fS
DaTADC5xcsTjHN+bRDKwBEITCKC0VOS38UkuKiROyKTUHuhnzbfrjaGcW2MUbZB3
JbAthqlUh6fWz/3AmW39yQWN5xRasbydbCGO8cDUY/JWcLN3bfhIJDnCBkJwRd5A
+KIftrodrIWHz5RWav66hplQNeKXScfDAIwqzUf6dCMktCBXoVEoXrt6YFK/EJzr
pAXwnO06ByfPb3wgVn4wKiebmb8JRDIGWvNYyAGutODzt01UV3lx+C2/mUAMjx6a
HhT7lZe/Dys8wiwrG5JseMiFBUjEJLVCIwBDD+1UjA/Xgckl0paChyK46GXT8yqS
Ptlq8buTKQJqgBI+kRX9FGLPcm5eCdG/0wkY/RYYenLd5oNBE0vqMi1F5rE1Nh1i
/MiXm1nHOeogBuCj6A6pxM1Lf404/bJ/qHn4Z7OkY5KWpVGuBhbg69xl7NFJcvTU
+KCW/rshT9sIoJIOsC9VXpvqGpmSpkcMBrrkHgp4SfVUb6wlaGzgGvIIZWV7AQMp
z07ZH65HYMll+1f/Ln1d1lMziIKlRNfN4Q+Nm0BvIX1LGjnQn808Foa87qf80WyB
TlxUGWNAOjOCbpAr/BiS2b36I3ilLw14tjiFCFY7puEW+5RUspzh4SSvcCHay7fx
L2WlUJm1In/wjSDfP5accw/+O2Psf5Rn5keSBLTTiooIYB0JXX/nQsna3ZzQTC1B
IZjsPEQrdDH3mY3Ti76IaqF4viTWEOMNfvOboPbHBKy1Jgp+LnqLkNmzW9Q0Q/8h
Ge17JqljdX1qKcDfbwLcU+ettb0FPyQYPam1LZ+Xu0vBVdDzQ9gjZir12tbYLFpG
nlfjQWD4rAK8DerYWW7KZvUk7Iw1tjJeIkz50RpYM7s7HoX4ie9j5pHoIMBYVzzT
lKOrenD3lvaq0LIiDaxuN30Jw2OMnyBt2b/yE/0vg/87/oBYMvOLsUtBxgJYYaih
3d/jsBpfE8TBb+pJgOpdzgt9WUney5xbWMegYGQnA0ltgyfOFGtQ58d113pbhAzT
zphYO11egnY23wK0DogikJsF2LDNCL4WW8a8H5Y8awiwquNOlzearz1ILKdsWbYz
ZiZfa9wtmh8x8A2Yf4AbPTxNg3U/Or5SgV6urQckeE0Y4DOI+TsORIL1Kp3qdQDa
SuDY1D1B41Tm301gI36BuxmG2KZPP+le0gm3dlAyFwboEWvWbtxz/fVxwNmctMQN
etYnUPc1RMhOXYk2lyJr8lDmF18yhcOcYi6p49MES3Vx8m0VPOtiXeyy6xFa/Tvl
O3Nd5DbEeFQXLRxwAlC+xP/lBNOkQGBUjtPY23GQU/M7kHPMyGEeGMaorNG75Gaa
8bp4bVCeL/9fbe4sjQtMAfyXcWlHSNg0Cv/swfz+obpcNCuAtdT0xZicQAf5UvME
340E7mw5eUj9v4lETxoEsbSmwX/vHi1rEdGCeMkIF1NZD0SjVFD7XDnfM2thpT8m
tVjgLgcWIlpq/NJoIkd9M7lat8Us9aMvSaLabtFkxv9Fb/a7CkWWEEe0G6q4RoeF
qTRW20fa5GnMeSyVe99fKhRKY0RaHCBquuq2tn1Z7PBWOfofySYWi52HqD4/iLnd
F5ot5C+dAUzHQPwIG83AwXa0tOVW2Dxlh2zJX/MxVqZBvM7DCiOvg+Fd9rddGSiu
TRJDFJa+kDMwYXIDP/kRKTFuwX5aqsjKZDhhkjif8C730CZErKofgsBW+1hEwrYf
eI9OFnvxMpjK5DnHqkXgvJIKSyS/kHRJoHwd0rX2RH2NKA/lpu8PoiCsJMaWYiPS
FhzURqG3I3Pxqh9Zd0HtgSoVQzCBXT1FoCo32SY4ZrEuo5H5LtjxJSdCOp5Aisd+
cc5/NI+A9dU+eSHzh00G72IPTOeRLQNDhDvRz7iqWNZyREuElPqsIzj0jMcLMOUD
BbdNOmSo325PApZas8+bos3YJKfZaY1ybfAmNj5Z59abOp2ok0kf3rLLUzRjBHAr
2OYcKsGwMpz9pikkbJStT5ak1bLqaVuFRz4euBRYFUL4Z0QhxAn3DD10PKZl6emh
d0Vwd9PnFbWNc6BXuPeFEEujDIxMZsg68wq25uVveLc5Y0bRjnSxJ4B+w0TJa3sU
AeOaOx445D6/TE9H3NrsZMM0ugbzsk81Q+8kvA61SZX2CsPxhKUTUMiM4Pre/jxz
/ESq+8l9RpCljVBpvfxoT7WeKPK+ND9VSZ6PAN0UyxU5MhKUzv/n0hIZ5nKzUHet
iCw6abUQnwhLI3ZVpF/NcXvbJ5gEnqerogUQmPVwMiBKwgCPMLbzqx37y1p/IQo5
NuZEuwxpuD0TUNOieBOtn6lYJr137Ho1uZah+iGODV7QP81+519qoJYyAnnjc9fx
4Ef+Pwv8vNaW5Tm3hZN/7IK4dyBlZUEbwXz/RvQrznPRby33YNJP1ADPfg9h0pRe
6JzJR5s9gfe1RRstMW6ZsVh47JGHzPuCITvmMGdVron8aQKgT4PmchLqgdgPZhkH
LtwJ6x6YhQfMOSV5/sMsi52LY0ixO/BhpGhOIOsDBYjyA2D8eNQO4m93GdNuNVCg
kSmCli7z1pPRzWoMTQzc4Y/lcgerPMIGfKlRvvj/mxPNfmAFBGGqY7ApIgqo86Kl
fnIFQUKypDdVg9+nZsYIL+3SbTHEGcQ/C3S+cUNoR/U0dMS3st1Je/fAhpkzFO0E
Gnxwp0yJFgJwcwGbV4exX9qVFcZ28kI29nswBj02nApvkUzX/MHGsjGAImSEzUZc
79D+wRUYlU2DdOqyOFcpfam7uPC8K4cAAMsciJ1u31rDE2sLioyFGeGDMMYxrzec
T0iWdXJsWsAtkfSuK7iQZ5zF/ecYhmTVNEFsZCM+lRsA/EogkTL4Ka8AMrO13asS
fZ5Oc1kKG25kP+aJzz6n4DzM8pm8rekwKn83qoPuamJkzwlTH2zA92j339FXbvUV
eZNRaNw1j+kPs+VFU/3rdnzK6Mjm87+DgKFIHh9zrhQsFe8kvk2eYfq3ZF6GhDdK
HnGxovxW4Zgsje8nLVxrA5Ev+XkzU3Gs1IUwLRnWH6VTmo1cG5OLUWzgnPxz/Gb7
mVmSnDhIAB8ICPiq4Kn/YKfI5m/zXKnq6zPRS/3Oi3Ntvias/EC/HoZ6mhLoYTAb
nVb5fBCh6r0FzvkZKKfoLJedumXJQpf0nKJCFNCRZBAbVS+7jfDwswLL5o91zXUv
Be8ofIY/pqFBnlJOiTBzBISdqqGYTIeW9/b2xIMqqHvFQ4OcS2SghwPg7mz6VU1C
y69YFQX1EPNh1XfWYpQSb+UrcraBSeFE9PiLQnNLGxxYKog4ES+4GaloZc1L27a3
MXJzTrdMpJZWDg7jtFApjYHXugmSEpllcG2dl+KovHvd87HBahsK3EwE3Z25BR1y
y0s2B0NAMu4mYVfR0L//hKpLa8Jn3F9cho/W3YoZIky7vzfsmSiIylA7YV8EdK/C
JTO9Tx4WmHo02y1qbdY1cSgPt0Zt1jXVNSBoVaQ+ffT+yb9qrPrKJYXhh9b1GyGl
ugo+ZxxBmXzoD0FKnKs3vGGWUAu324Is/uuy0RqzS1bA/F2ZQlQT8TBQBOTfh61u
TjNRnUL2bmkKuyMOZ18oMRu5yCRYx9931rXP+hcLA9StJNeW9SesY5i90qcHLZLF
VhrTpnMl71qQW6waMU4PjX3pDYVdyModKr9eNZ0aeH702wCFRwciM/92MjzHN3Fk
4YoHWZRefXMkQxidjwmEdzFEutPKNbmv4Y/aOHHz+iAomFAbdRVoN6VX9Le2Bcrd
rktE+pe0CXICFHLdv1+mkDfUzlgTGbJoqE0bxkYSLRE3u2P/creVNLEEnLQo3Kyt
YGgjvgY2hJRHgrXsCItdG3/lhmHkZ+4YuULu0z6CkKrW74BZw/xMVr9xH595g7jx
NHzj8pOzpryxXXYdeT4sWHK22jtJPr1SOWM99rKKQYCY6IU/+sYCsZ9nFxGv4rbe
frf+xuV09TjS28GmbQDybvPNBS1ZXaM4HKV7xmDhMDfspmnuoaNPsvjsOnznmEz5
VNCRRNmTU6Yv6hbKxwe7PpRGtkSxr8h8ipJHQrZ2FK1SUPIOHxFCvs5mRmJN3m2+
bC9O8OchUvrHGgP+gB3/im1nX2Nv63F/gywTWBWJVrcPGa5KDjyUqec3R9kbRVm/
f8y0HhpPUXm7fBnC57hg9U27QonXLKjcvXLdURkFKyqJfizf1WL4xg5aOXmL00kP
sC/H7YPX61sAD5ZgGIuhGD1drMTqNqMoONCdmjiNgQNZZgiw9r7JfGLNfUs8CS0W
TbukaHLGX18cEQ3ygSRYwyoOTrwiFqvkb1kCFkyc49fmI40+2/b6Xw/7EjR/oteQ
SuZdHXkHHLCfqiZ0xQucEZASP+UtRiJIk/srIkiu479hvW/qoRlo0FJuzm6dPLmC
meIm7A/AVwhntm8amFdXnEbKx91YS+OVzjP0/vZy7dMeGUMdhExl1hx0c0ASYkeu
SItuDbKSahodOWfELq0OkeCvNr+BW5J+4D4coHjC6hviEl5Z4NQcAs4/RkHdbydG
dbaoi5anL78NZtSOoNRZLUd7zmK2sgJkWUE1XYYlHYGyBqp7RbpJlY+B/2wgxilL
Aa0H1EWE89EkobK4ZDKoSUTfroH9GDu45Y2RQWXduPeephjv3QkrVtBlAMA0/JU8
2mZyBxfQICSscCQq0PgONlk15oCSZ7LfaK3jrwcsMk1P+L0bwzrR8xznE4FZJ6G/
O18xNKcKrVGBI4JcsLaFgI6ed5ECCcEzXSE/OIESUWVk4KZL1NNbRNP3aK6A46T6
/dkHpvaP0AVJRUSgTEy00m4jYwiUbriTyyfo+a/Lrjqgr4gx1EU8y8gCGSRHtP+J
HTYx1NJjyUbyBSzdtjbdSKW/56hp8rop8gpFKJ5j1RLh21SANSGySCIB5U6sgE7T
nk0xnpi/WYiRX25ITjNJIaK5n//rWnQGBSkbRR6/OWaI99Y3jZLeuAFQaj7zuMfe
dFEqrrq6LMK5kNn8ASIKkYFdJiMe8Aa2jRNSRGth40SmmIhZhsHjKffoyVPrOQ3S
fnoU0DKaAGY/0X6Id2DyuJbI8fnF6PztWMDQ21eMCkq6VolrvLNevHRgN0Qi7xcb
1dVg/tlxe9Gu8DITzHcJ4PHzxXjEzum4JDIIixgdpZkkxNff6fYxqJZOHz7Iq1Rg
2O0LX2O+kqGRHcXJo8vqelnL5Yj4E1RRUSYE6TbnJvdXWp8jPtVDTXDg4u55CZVj
EzyXwIy5f1guvIAGkr0dMfFIAZP1l8NOEkoSdEixPUgAGyfruz6eInzUBKCeKih1
+ENWFasUn0vQezlBs8MCtH2ZtaRO2P1arwu4ytCXnqfbWFW/4GwTMowVBoKWUwXm
mcE4rtqIA8Ir0UXDf03WUBtuZJmaDm098+r/v60kUHH9iPaX/vFvkD5XZcrCk18Y
h1oZF8Y3xZyL9xR6Z+aXD0lJ7AhCts83uXHemtQZ7qxKUV5+Bp9/mzNOe34iw1jL
2Y3YRK2PMzGhj5Oj01eI8s0mmQSDt/GmMsR2C3ymim50eO6cD8dKt4NM1B4dxpFa
erO6wYbCp9j6J8/UqHhtHRSkURo2ywVlk/VSWG077W7APQBGwwKWIrKP1Z2e3G+M
Ueyk1DBOjm3Uu7XeHM8SAA68Xd9pGMS/9wLMbuG1HwpeUv/xjo4b39dWXOibkN1n
GE4bkyjnro3Vg9DcUhcgNEQZk1ktJOsge3mI/omx2eOI5JQ2aw9J+T/QX5tCkLkP
7WYq5ZCUUQz6eMlq5U5TOuDOsHh1E8LGAvLZuLNYLe0MCLV0n/XpoyNfaht8Wqz8
gLVNJhvP6LEqNuSHs/uc16le3govv+0gHr1Xf5CEytWQE+kouTB8iSwukEESJJ2H
6abLHObvL9mg6EFywbSdPpqxuoXGtGctCi5BdTpEWC+Mvm8Qf/KiASzo71LRR9Ae
9O6pDKBkuxfRIzmhf6WNFkZ0bhsK6vEA1zgumhMUg1Ro+QeVuCwPjSBwEv3rvZjG
sLd5PSGXYcwdy+iXq4idLfWM6FqW4NqzLgu4O/wVGxvKOKxVB32ZhWOLNfSsHinv
+tStDPM9bFPd6QxbCa6YTzNAZrCMjMNERT4mgDzPSVK4SvV2NMO4BdkFWxLDjCF+
X2FWEf6bbqCR9Xy2DoQZMAkIyeufe59otczo2Kiwopkmt8VwHJ7eTOYvLVYh2c1Z
D0BK/C+QNdbwjBJa+tBb2W88oHRlgXZNntktkFXqLKzxWPKPR3EoMMranHkQiv+n
R/FZ6vmObAN3Gbvz7KDoD0k2ZgSzH0M0ofQuP/sakB05nx9t7P10cU+ftRhoPkzr
NHhHQbzcTBpfRN2RuUiJaQhW/WnYIS00aZbPxOQ3vOMr59qo7tREVIS+WZcVFTPp
TtifgdNr/B2tO+xedHAGzY+GrkzhTOGQyroTSOZLMeotrRWQo525NPPHPVYfG2CE
jAQH3PUEwR9Bvk4Ai6APzGyi0kR93H3yGbvWu9QgL+Cp1VsXJ12CUSFI5UcWgXH3
bwDOU7SaRYlnNI6bp9E26ECj4Djt8OD1LmxDgrFN8ySDgblQ4iLFhXdsQShWd//8
ayUwoh2c2QpQvRCVFpDcd7J0/6RMMYtLwB/L7nMHEEVALVozN2QNCLwzFDiNdUng
Ot0juRfKpDjezEEKI5kybtE+EA01ZeHwV0xwsNsJ0tMr6uGLlmwcARQlSheLRHhG
qJ7TgYabb/189CwR1jrJtlB0Yk4W1G8uxrFHi+23XarAMqO5klH5K31u9w0vLE4C
tQKjsiN1MME+QAFxMo2tXYGk/N/d6/1AhNwdEo+niZ4VK9GOmEeAGNvJgXb/R8TC
y3k1UEZCpG+0UZOcTXselPaztmZ8GUHG0y9s6CQhAIcb7Pbdw9Hcaz38/8IlKnlU
qBFFPf25LML1kx31tyNG/MJpx1Z20MYqrup8XRAGXdmkKxGLUtS9hJ/vkymByu8W
wQ3sGjXcPa6A5c1StAUVOLEQQ5+zQ7GdvchFW7dALh//hMdYp1vMd9b2DClCjFK8
pDq2hM+aQ+F6WNG3x5bRziYMgPdf6+IjF4nGlmgJ4YDTgYzVffoWXngZVLpt11W3
QIMeYPNS3R/ve2lBGg/LtJMC2L5cU7H8UJ9oBM4Z6ybpnEqO3RYEfhWyv4L+0re8
+0Dc3ufCV0jEMGsQLOJs/Hc/ow5slEnisTWknWBkj2d2qpRA/j6qUVqYjlgL2m1n
A66+eXpwq1vWireOVULhbV1UjECtkBawm0+tQO7QLEc0GSd4QtEkZHi9ZtaTlYDx
Sq6gU9vvDVAQxIi7TCwTiVjDTZJWqoGhvK/s3lByr9AgdYV2otuduWd6bdmv22zk
xIQjbBnkyHukF2OHrDn4vv6HazF+08CRZwXKs1xcGGzt81L8dxttghP8l/S47/pA
7kHr7Oraf/LV5+IiGhkhKtc2GmSiXYSpxrvfMNhliylPahlw3QVVc+cKk4q2RqIB
8KESY/plEBsTO0gfoeQUjSSacspKLuYft/aaq1fW15YjXxTq6e4HqZdo9mVZWK0M
JHWC4rbXgbPx44acTMrXtLOvEEBPsiHeAHkmUper3IbLhNQFTXfweIAwozoYR0B5
i7ory3uNo+Bg0VZXzVCfN9ZY8aAFXklS0N0kj5M0S3d1CEh1Wkq0hNqhwN+chTEa
CDPPwVFcp1A7JOGNO2fxiK8Zfnq8vlw4raG2dJo2brCEXu3LwxGWiMUwBqp110QC
HcJEA61kwL4GkCHpzbUB57IajCZufl3dkPJYon5bAKgd8Z8w7daIsO1yjbQYCDrc
q4nlDG6IwyOr2dSOKorugJEJvPJ85T+8RSCIICsR+4/qyJL/mlybnKkaaYjUPunY
BrD0T8q3fwV2aSlUyjF/BtCaFne01vjU8ae1BTZ94L+JdBjKwEGHTqNlnpW/diAs
MegywHMhQQC11ePh1sAAJGP8HS0Lql6wfLK6K2JMQIlkEB4QSpnb6KisYcTXS8ji
VQnWgwaBwvGM3WcI2iDNlXaYez0Jl/MlQlmP0T3JGmDjAJ/z8FJ/6hhHI5bcuzxn
1+AvzSMwpHW+U/brAs38AgykH/kDedUj54BgP81dsAaE+OOgtq2jhsxp3ziyy/Kp
gsu3LW6LDDKSOymu7WKPXmnrGWaDd7fTN9UN1OZiGEkHieYEuMyh4i5ws9ZzPdlU
6YRwcOPZ7QQfXeAELLb+ayzuOViEyjOnBQgbmwoU2/XGlNsxH9+K4tIjXYHECcMJ
So5U7cbw7IwzwoQlgbxA5YQ/IasyVm/Lbt8OBOFdLqguKTBKuzi/azJmjLZf0wfZ
YVXXUUulclHdefiQoY89EF3stAmu3fYCoSemtnlKnltEoEeymnFfo9ydWcoHfiRM
Nr1VWloiZLxuBUHHTVdi5WZuqUFqvtKAH3qhvM9weOVAD56Ku4nBwE17Wy9pkASF
LetMiF8tKpbOHPh6o/qxR/Gltdve2ONRWB59bPZSIvn2t5Q6aV8JfYYLJbwXZPfj
x8PCsT0NL+afMCamYglHrVZCkXg8qE0sJM0aHCEpk9O7877yVk83ySAe+qUcJ9dL
El/msxi+9HsE29t5kKFMv9lOqXkox1BIGN/7g4c9ReX4TnoUfXJklhqMIylAv8tq
GGdAXfIBi5N0OQPeldCuSyIQKBfLmWVPBDJ6eK7B0BT0hmEFyufhHkHK+XLMMaKm
BxBl4Au9hTc8WAViHO+1s6k7P7cNwvdbH5F/IWTLFzuSikVJ5cxwn/DPzaMvZ4oC
mVn6176svw7BNv/0Y1qnx+Lr1vnwrNg6bZle6X62sgVCk0+EKaraIkeQ+A7vqLdl
vdDIBlvomklhf++RdJunDtL+y3+Fg6+8VmKMlNeqr8vljrLEO8CjYbnPNkfizQXm
46F4AupXysYUfjFdd/0/HMgWux0LlunvFWu4nZ1I/QF6fW6uazKpoWXH5QEf8PxC
tWdDvBWfGgwYGW7iM3bhuzburOyUeXDERXKoQXVc4GPHvf1eDqcDBMkknDrOz1gK
B1n1zxlJZszJrAipj1ZdiyRYn0HcCgTaiMW7CzliWWFgi0ckkVN+I5TQDqwhvu7l
EUigdnF7M9CQ4/9LkjaZ2hsYy0VgGuY+CADiacOtU/NMTrs1ACV7OAGbZaurbbKC
1TxRNNUdlw+Kv6wvWxwaQ7cXKtLBycz8MIPUMEwq8NJYVaiSAB2ryV1FdUJBatm+
yRG7ApUGIeYb+EExEeL2/p8+8AIeeyh7CeSWLNPdjHaJERIslsKqTe4zRs/8EzZf
PrUXp2wYzG/Cf8Dvqvl2d0VNcbDUygtw7JSxRjYkPuu7cWE6FrI1LNzsXxuIegiy
fOsvHei2PlgVG2GgOXjcwn/Z/YNugxInZmknOHzvaaa+sxlRDakpF361lZa3cnbO
M8IrGsxhE2i1Zb0LccS2MXz/aWbpfHq2AeqQYJeyQua+M8a/W/xD7Diit+EbHqYf
rjjHRm50GwX7Ez/hgzAl5c+fADy7SPShmDgjGOo41zCKu832TJQ3EjrVZhR3DE6n
hNDTFsG8OxWkrt74Jk1X4ooWImgJqqt2k7oT3hdH+UxVkCgCi8JTpSVLT6D8ty2w
9F07jJ63+YCX3rqfkYtyW8r9E98SiHS9SFljBJdagN7qMMBBxnk6Oqj5sP4Md/M3
tP+LuURD2T7bLH28+5g/wk3B9dXtUq2bMuUoMGtHGrsdDTajfVIp51Rfem5Zc+i5
Xv0iMIlo9aCNa3MubS/ZIYtHZ680/2PPmRXRBAXYnZOHc3wHx/V+zSuNktgFCcdS
XV46d89+p1jwuQ2Zkztdk1l8BFXJu7wICl2EirGqjH8r8FIsO9fNlZzeq0BU5INi
kx4siQzJ0Mdqa+uZiXzypiXNuEjeDcGDfZAp107b8Jkd3W07PCUj+jI513B5OlWA
a2+c4YoQxFxGuKwGurwxCf9jgI/9ZYX6INoSd3rMhEnDCSrWfNYNOscDTikpOPMz
RhlSLkA1BYXcMNouZ2+zj41JTLXBhxtLPB4nycp1sosecoxrDdVHWLgsoeHoXHIJ
1hQmy1BIeTo5Dp+PXKuOBje9RSstziy/NBGsRNGBJyVM0NzaVixo5XUMIiYOipck
KpA4N2Hqy4L3HopiP60Tfq25DQAf7XD3UlZp8cbCwDBLTTEH7zTZ9LoFoJY+MkMV
0f25wq5+aQhJnZfnz6HXm0EkuxRxP1mJuRgT6jkvgkQ7WoTZ3u6KJmEyOUfW5vSz
pr8oNAXM/CUHuSU0QCuHnN3AOLyp6m+4qtad6gYqhjozfXGpZGszzXYU6PcnAQpj
PQBXon1JG7YXaiNJE4gqAuEvqo5jaqcKS2Ler5cRbaFljEKiIEbO8bgGnWe8UurB
UkR+NojSfvn6lavBox0KrJoxh+2jvQXvSptqp1HFUfJGupPS4Anm4n7b5Ta7aDAF
qDcz2ahz/jTeCWUUvUdfNakV/0prsfi1fnN6bHjm42BNA4SA+40OClaSdOos709n
wg4dbjZvHMszL6wUxZosJWpXOSw5ll7j4FMTfK4OXJ0HD8pklxHCe3saZ7RHvYbe
7zl4J62U27F6DbCSVvAUweIWJ15rHuc6sjHkmMlJWEl9YIHlkqCY2+OWNQl6PMDD
MYnYfaVHlMmCEDrKFEHJlAFPSrF0zo9hFy359P2NC3SaqW3kSEScCoPgL8409TA9
AGuH4JwSFHnlAwip6AjrXuBh0nUBl44fIp/P+YYbVHVQpI2jq0BLwkXp1R/Gc2US
kDEne9yYbY1DTIQMNZ0ICUJBiZ/vzCSfWrMsc+hcR3ORHCtq6L/Q5ZJ5BAcOArqB
nLGsFoQdVO/GLJFPRE5O1JKhPAwK9xQWOUTIb9oTqkaXoFOCTGbdsFrtTs+epelN
5enLJh7A2Vr1TqI2OWGS3eibYzpFuKchhW1+vLh6sCzygEjqs36QosySj8+F3USY
deZLC9VO28smN976BRAWJBg1aeGP3VYuVlKeXN7/jyEV8Upax3vxu/Sf/UNFLTj6
pLo3GAo+Oi7LEoJjtXV8kIYKJLmYvUrgtk9B2G06TViUrDC+aZoBviI+UXijofpo
Ur772vsDnLy914QWq7jITw06DgZNMf6Aq+GL3d0Q4YjBcvR3jo0wwtP8QzsKmQLX
EXKBLWUP+QRmBEbWSbTMHs+3M3fUmn7ZSyHrMDQXAMFIcdWXOajPlenD6lYln6CY
mIwKLZK0RazezG6BC72p3eHq0ZOaXZaRyVAdXlSNxUPseFWdsJd1EHoZU0Q5esnP
Q9kxnHNWR+KxdmYry8vEuuUwm/3IHOqz0T1bSNxn4c5M+zaE7zKYDMQmTgu0xBC0
hknIYpBJVazq5+qCEsO3dHMlXQmf78+K7jJAXzZlyvjwikakvurNtR3ncyIDbWtP
fMs6/6mhZ7BhIaVip9EgEFCwcnK8DGKLFltluZyUtzI+cy5rsDdpX2M9kteJ9tvw
eDv0oJHN+6HhrCa3Ai2Vk0l4TWCLtHpJpCKev6w9evhGN8ATvjZhe1NdOOQTSp/l
WaoaWnNsHW8Zb2Ua51Nfq2wkrhNgt9m6e6Qioz7INKk+UOLrzE9mgubr6Dfrnslf
PFvTLU+MaG0f60wACajsFFbTTG4mct5XT+sQ8L399rZQ3CAyPKHseOYWuGBxviZu
UoTL/Mq7DLpo5LCin8CiiNQpTjTh+DP5TloZyO060lmk0uNDo0pvwW8QYyUO1b6U
578RGOZruGHKKMGQyQLS0qjzlPcfGGbBm68yel6/4dYUC3wrWFzGjss87hKB6hL6
PnrNa814Ispinujq43AA538JlXXKXTsa1sS1KFDx71hTAnx33RtfFM5c3GphsiAs
YoApRtiqULHclvU7S6j8a7/EX3DCazauWThfvXapLLFFujO6TC0WFzZJPRb4V2oR
FcNPKDqBcIR0D/SXulWgdBWuHRbwGZgGdUeRLTjPLod8gN+IYKBbHflxrC/x0iyU
OcFbhsdqaefZTTiHmN9n25kPwGXW8W3Hw/0cOba47lydZa6RmLmNo5rQj+te+RZT
/Z3HA1Buqnpqolns2vWJXn8b9RAG9Nw1Hpg1nzrZROMY171874TVt7/u31u8WmsT
3em/wvczVdWYRzFwLbXieTinMuGKox6TPGVjrRVKHG7OnmfrtjczRYJKwCLju39H
n5LY3jDPC2YzrsZHsolJFBcxMK3iOXC2+N//Pfk03rbfdm+q8I80dG9lQzSpAzm/
0SFOhokY+i3dNbcJCO5/oOvKky5JRV7id+IJiKxwchbeH35Lcpx/64c/WbI8hJh2
m6gVxvkkjLalUd3OKIku7I/4m02bbv+BDoh8jQf7qg1muKl00Ht4f+1LGDBguI5B
xTcfU7TWkHFic/iv2vNQLlCqAK9NF7TP2tKW052CCB6Z7j0EILrTJxDOcUT4q1JD
/x+rAgeCK6fujINKvNhSQWsFHZXDd7GT4HK5ooY03SiR24VwKCQkbeHJYx+sUT73
4XfU1WU0gvlA6mqnfukmuiDenLrbcLctgXAcaSwDIZEid38m7qRvl18zEMML77x4
l1gxEQP9CGSrwuAlZvUnoz/JlMNiTr6RFgIqRcY14JrLRvllFOAiNjLp7djDStiE
VpqNlYL/nESascWAC1i7zqm7GDuF2zgr+anQkjEA7wxA2kDkMJdEl5rTzXciuaax
4pEGhJEx7mX/kV51Sq2Q13kboilGoHl0vdNkYsUTQUIcYZiiLvqIYod0oHHZvEBD
4bQUF9IWkSe3JjpgAnrT9THVjnUAkt93oFTTfAicHhGcRWl6/qe3RTrNgWJ+MqwC
zkueCNI+8hwTEOOg3tMwuG+/pTdSbRbzM5POjgl1kzenDjvzN96AgNg/sxNtqDuI
RiK/pEtVZw8/qOxDMqKWvo2rbgBKF8fomK5Lf2w5aX6/3ntuYj+/gWguSxk1O/pk
mdLqXS02jMtPz/+GzyKceYoYynFcDaLqqdMNE1L2jDam2YnKly4q0R0EqFyNEpOL
EDkA6hzs99XWjFK/TfRD6RjSqCiguti2l2rsrNHpI1J1/CqH7VCGRaeHz5JxjHyz
klaJcPQOusvRQT9MT5at1ywencGc8Rw+3lTavO7WeWg9hr1J+uy8Pew2sPMSATyC
u7OwsrouGFyqiW9O1AnsdhzFAQZIv8iKJhdrHlnK0Dy2zAfWdsF+DPh7p/ADA9Qw
OxLF9Z3Ls5bKFbtMOzH7jB4fkckuSDAAxqhFYT0r/0Z6h/uRRgN6E9/T0DS3/q1c
aYxXkMIXsqS+jips3CkpVlwjd8LkyrUA/LmvH02rt4w0KIV/CyUOg8XPB2nd/iOG
oaNN27lDgt2ocHj0R30CXOLfwjaOOMM7Y1Fy6sO2dRADlas0q69iAKv7uvx3fNyu
f7j1HHhdmCJnrAWULEoBdG5SVBf/I4cXPubftHzeNdxwvhSppl/l0uyiUxfEJhcz
/ZHQsxRGUoYYtpOVXkvz3XPbmhK70LfqpVDzkL890zbDZjmq0AfR69psj/tgSfK4
9yIiHReR0k3G+ZbrZlX4lfq9MuU2ocMMDTXr7HwezZFEtE0Gi869ni7u8UGXs1tu
ye9FztRbNFCnzHQTSeUf446+H9LaV/UozrhlrlztBi7r7W3CkfBv63eawrGnf7O1
cKm5zWELiOuCvgU+vlSF/2YFJGM2HkTdq/tL4B4RIHciBmqyK3dq1MP++J76HEQh
3QMCc4YQLqq+dofL7f8F8QL2Umy61UwZ5tXTMlPPkQ0jOX+tH0u/yJfcnJfu7P2M
7CRNfwU5zF3xlAgsMLWAY2k9knxUmGYb5l3STi+MbYy7TGnJEITewyK4S70yDkxI
jr7+vOv/rnmi/C19Qr3W1fb46wNGR9/CaX5Xjvr0VpKKMRhq6po4E4A+gYveotwq
IVqkOP6cZNuE10BOMF441xMYFF3Pr0iKtypLi1etYOP9yKcGPH10/UxHkHXiJzSs
sENKAcQ4riOaxumr0Anmo30wOkzgX0/c4UQys7dp0mcb590rvMKi0T6NE3GG+sjB
oOy1QsmAyANte/4157wNrmMxP6zK7S3pviO6oX+gFNT2YpoMJrtxmHxOVF870IBf
EzResVqPxGPZLmr9d9l7T5/qCoPfwdz1qbDgQQZUmXaAy1h9YizTAE6s7ZcesQP7
JAPSPMYHOKHW7E/Wk7fYdw9FDAxTWX1fPKYmyB704xaSRaS2lqLnXDHuXl6k2GL8
u0fKvVzYgZH3Y43zuenAWOh6rWRzcZjb+HCDHxZT2Rel8Gg5mVDkcJZjoFf8p8hD
D5qMA77syJ9nC9+GIaWriqiV6EVR28AbQMoRoqe7oKmyappor0J7XFD4Pv0japeg
rFCrqxsgnXCzpvv07FTVhqQKAdjX6xX7Uy/Us7g+pzC0uyGpq8edh5U83NYuyGQm
S3PCHKwRTo7siCFU1NAyLsdwUym7QvXftslAt1WuEQRpsSJbgX/AJgM6qbOEotMM
5jl1dGxgG1sipjdcgwgWaBrNZ150yI+jcFZVACKnZPqq7Cc4priJ9Z/W5Ve+ixkL
go3FLAIYMzyUFzyvb/GNBW2JzREQTfTHmlNgAzXCpi1vj49n5zo9r9yaCfwfVQNY
+dVJQt9W/ZmeTFMuMQkSZsqODMm6YV/1pr7VNzSRCOQlqpVOfFar41EHtb+4U87o
rRuvM05F4ea8jZ/6LQM64YTqN+MDY87FA8avobcjYGsK3JtPoDoHFPYLGnXXks5L
7NbaDwUxbozWFuJ503Kn+a2FcvmJ/RtOiGKwV9StodH8mXk05am5WhDfFKcQYNPI
Bs7tOYTWXcQNbie2kqighGpCLOX78EAbS7RM9HrCJCMcJDIbRB4a2UIJ3OSBYZzj
XgkfZ1TErt7X31rc/Mbz6M2wk+nIVUP7IfK2vt72cnnS5DBATX2yertXOTHv6Mk+
zZwmbYnNtCUy/+Gas4FrRYkC7ya+NQyEnC1/p3oLrfe8Zom8n9sawS+Javp2Y4at
hw+BbE8xNQhGp9msGZaDJ7EzVQ/H/yk6DnnP0mtuzxvdC8dXCnBCZERGPD2pQEXh
EUkPWhjZ8Xps20lj0MQFAaJUFhrj1e3ieOe3LcX4KIskdGf6bOlCdWy9KDaUq18N
lqvRcAaQ8OtWRQxLt9xz+cSkUKNy3KcdlbVKg2Cc59ad2h7Xc55SZ3L7E3cJtop5
g/hYyJ5vtrfMyFSnaL8b9ceFQQGbaQH1SvMPmgBB17aBA7MLWFUAgvbD6JwxACoi
EwQpp2Fy00WGLihU3T4qq2hGcCII/Ovqbv39ldgYqMfBRXoYhcAgzLVjyiY1aiZK
IwojFgqTtGb118q0IudA5XRSgrgAwHCta+a2jmb9DOCCTQKxM8CBq4k/6wHC5hik
AAdTxDoVB71KqnlCtkG/eR/TIBSnLsh0uUX3S2zUfP7hHtEtG65hJ6T55idgg1lB
9y06Z16OcBpuynojt5ZLeh6OZMDeC+4ARzMpWIpVATz9PoJQ+Oj8bXjxY3MPjCia
alsAVvDsVGBZXLYyFz27tQ3MRjzrc/NMm5W+xhJFWKh9JqWvIKm37Q8suhZ1RMzv
zUu8U5gAV61atVm2alIfTuhcxePhAdyode9cv0/bPAMpflijv1kIkiKj8MSaMXEg
eLlQIy3QoVDrSuYzHejN8z+GZfQD3fL3e9YBzoMsyiSMjRPM72p67aI2xN1/KJtL
yG9Wog4Cv/pQ2CTIKSH194heLtpjpUO+/K/QaXm2KPBN/GNi11VjW9X9XkfdeWm7
EiCCpt3UxVAosVubcyfdFleVqecZef0/5cW3HwFdmn2CA49AZAXsDD2G3HzYt1c+
A2Ocr33XKBSDVYrJ4kXiLsIrNYyZCkT6fRAXupenojx0k485cGZCi3I3dkFw4Jcq
IO9oA3P1AgPC0dqVlwDwHyxsmQBBdsvkO3w3dLo83NJn2iS7mdyptWJ0pLxjLhP0
doh6WCeoqSfzbBLH00eVbLA47xBXfpw/vRdeEebm1nwRRkLK8c4xR+YUoMp2pyx4
U6gCvuZyc0jAommMjEehscfPN68ynUZv/P3RmOcEFnkwq92WTtPKVB5xY4odh8eL
1f4W27DO+IEuJKzUI3xF24WoS5KMuZH5hLI4eWe+Ya87+mYxrsiE+MlyQl6w5iXE
TigEkjNxfNW3VIxnwMjCXtccIcl8BgiBSOUuSdWfvg5x3/SUr5JWfY3mTUyyCu6r
KZb9NcfsFcKj3C1nnGdE16gYffpPd5AT3WFJpg2CiVUfoRvgHbeFlz/yeWwNuPDk
Jq0S+oGSlBROm7ikJtbFdoIW/9bRwLg3NrXUjYFzWHgigFhVPXMke6MGktktBjh0
7RxFjhoemcf8CDDYbApqn0GIh5yRldFg0L27PRgh9cqrgEcL6J9ZkpwCAoQm1Njv
+98CursKawoIct/gjyvRw5M4Hqp+8wz1suPCdvlMsxiMhmSNIWnPo7zAQLjJYX6F
iFMVR31rpp7Ic1hLAKjSEedxHOxljPL/CxHbus2FO0TJmzLpzOnNts2SybhSHNS9
d4LGPPqjBqlNXhL1O3Hl+sIgAsn4lvWePSyJ4mv4tRIIqnWHegvJCgOXD3wpZwHc
GTzhORSQ7aLsDcOfoVxKbp5t491FeXWjgLkS6HhlS+Jq3j4eOO2bAA6cycoSiOwn
gKBnSkLvCgNJ/EBHzY6cPikOmmXBdp6JtAP4D3MOhUqAE6F073TqnZpm+gONb70D
bmV8xUQ+N+OVpXca6Lgr/D0n6p+GAuZE72dTLPPk/KpLKlyvFMEKq1wV06/UCG+f
Rtd1HZ2adDQYJ8/wh/TcmhwroIGm+uo/DWZC2GyYcJoAK+3ANx5EA4ne945mN7nE
WWqtzydE6A9eiDGps1NXRcFBK1hsYQHclBlZCoxA4bxyN4kWW45UHBHkbygC5XeD
m0+WPgHt4Ru/LAg0ivNQ1F2TTdoX8dKzPD6Gtw/eGV7IlCaI62vu9rTMr/VcIk+9
jvOgHq5srod0KD900zzA0oEVyOfAWBAwPEaVaPqnu71/GImNs/Cpb5v1GP5YOh1R
X2GZxkFqPI7fx3PvtVjI2kvWWlLFOk8o/1pb4vkIvGCB95B8oHjS1FUULOP5Jy9K
nEhzV3azm+uujRj8dV0aZdqPa09li8UM4VPOsJJjEUBrNDRRX2ETdTv/WT4TEdiH
IgIJuM4syvQP5bHldXj/a5P+AeObp7dRAgbTb54qDDHPOUb02IVebeJwjQQcN2U8
zqbihGG7qQa+CWJEyoYmGWs6GA4vINUCGXzqIVm2f4KDW0+8eEwE6U4ju+44SMdH
Zimia/cqtydgMO5Lwssz3+XZ3kBeYUpOireSp6ZaSiu+VkfTgXv4Q/NYopRmGbU1
4wgyzH+PL2kYHpU6U/h3mkGot82yNBwXdzfEjE7GTQEb9X9oIxd1iDBQwZqdIfXN
A6lMUPE5rkL5WNotvWCDKac+QOWKCk+zaSPqW+lLMlJRj/T5mUj6zP8DdS0q8aCg
2ncWVJtjyNOIHgeAPZL+8rx9GxlyW5PzfkPpSr1n8ODvnMoR74+RzyU/tKpYuqLG
VGkal2cris46GRSK1NpkLr2hC+2ZqHZZti7sMvIXwkulu4dKJuS2kaWs26YtZvzf
aR1zlMzcHNY5hGmTDfF8irlTzFdVmD6fDatO+C07o778kv211VcKe72LTKZSXpvN
PKTVk8mCRcqIc9x7FO8jPnER9CpKafSyl8IdLevHvqGneqwt7NmxLEs4ZIJK3e8O
ke3Pwj3xETI4Cag8hs3xF3KM6IpVxeqqKVz3Q9s+p+AwMKx9fujoyk3AkLvVlKkG
tjldCtsH4dWLFilX7+QJmo+n63B8e+SHbWrgqltO9WqLnU/9on6TdKnoI+057AkU
PB/I9Em4Ly27x77m7Ouwlyp8YSWBPkVaTwIAPGMtODNP98aWM/9cvYNeTxtDu9Ln
7ZeiUKlHqMGfBVFru0S7M76BhhpWcB/8djzrPDiPW/civxCgqsZVC89BhV3cBDfc
BUg9j3YMGVS2+5eMFuhtBbgmJYPJn6xH+dqu4zq2fLwOxdD6KMFuaw2FMaeAxkGW
vaHHZZrzaXL8KWPQOFeyfLyrYbmBSBf9t9ulria4AJ8+oY/0zTz4NHRLO2DvhTg9
SoWpVkUVB1vGYVS3AZ0s2Cor7OeCUv3iWJMg0U9N96DKpkHXcKWY7Fke8Va0eNkr
mK2Vy3gQHKTy8tEVfN6V3cAcgka8+BTFtHrEQ1bDqXihOg6Z484O+dREhd8AjDH+
M8RZe3sb4d/HnyxLdYLBiQb+wFo56XDlmArR68GLgEXn9KYjkKCROsNSuOnz1DTw
/4T0pD4ef0tx4RknXs38fHr3Eru3kSmsVyaomXj1JwGBVstOdQhVye10OE7KKSbE
81LOwzImniupppVVMAvXNtLFD4Wb0ydEC+gM9m0v8s/g73oa/pYJFHZQv0fQJ+5B
enk1UgeqcAaaeM9HDi9h3Y34hXec+9J6wsA7ztl900sMxXQR03k8ahp3ItpJ24yS
Y28PRYkug9H+Y1thRejpX63gQlILGMhYBSKr+cL4hIQmRdZr64Yq8qlGth+fmhu7
vbb7k/wxkdEuyb2pnbjPdgfiCi4nM2Z72M5DZhiZaJTi3+zp0rRCLF87jZCyoUPu
MX1zf53u6V88eug66Jjbn9MKkqC8NFGdRj6DLYVEfsyeGbjnCxCwptDZ7GBGRXyG
cMTtWILextkyooqUxOymKCOIbSqy6znesSvppST8OQXPr1pccGYGF75Fc28XoQKw
qk1Wfb6N7MkKse9Ie3b5Qr3CcydMs44P3QLGO4+19Wr6l12cjABUjXgHT+41cwSA
Fg05irgn3CJhnnfG+KxnbDtoilbodbFkpdcM5eAVnEbLUA5fsPRS2hvZp6lBJ4O/
lsnSLfjNYqqO8YeeAWU1y5CYcXH986ZvRLvRQhR7FhuRObQiMi/qdk2z8XPfnZ1d
PNwTTjmmTVBx5BE5Vj8KtT5Tyjyum7Z3mfH5UVMRrIiL16jR3541WCZ5C/k/Ontp
59fWXcXfWkEkuJSqvTdu7331njb4oETYYN0KkY0UJ50XB31VX0XlBvQ+9/bF+6hJ
jL2hx1d8moFr/4qrTY+IQuiL50YT44o+pDr93IgZ4kwptm/xWTxiJ47rh+WIXtfY
DLToMS4japg39w06E/EW9H9FDP2HcJ+sQ3wh4193WQwOVmTUwzZ7gHVp+pFfjSNZ
w4ORgZqxR1z5jb/qYkcutbW2TNj/Onr/DKh2Yl1A9+/eJkRJBw6pjcwgKsV5kO43
9Wxz9NMxWPBQZAJzrf5aFeSYKBsZRc4nFUxdmPTgm7fWohHyHv3NdLshLJ9PP0mP
SL6CLY8VIgOuf1xX7c8aA8PfP1d3lbeB/lGo+0B0wdG+O9VlL5Q9RFo2ntcgm2hT
uODnuUUTR1zKSGyj0fLfU2cEERxE8Oc3wysAGPYd690eQnOZW6CREwIxCVxzZDU3
CHMtKLvoS+ce+jCYdFBv5fUttQML/rUgN7/DoaueN5wM0y8E9fzHH05fWtimpWV+
OMEPiANZ61IaExWBu54xY0wkAhj87NdLMNUaVEXLAnUQWloLUaO4qDJfauGvUoHf
VkEg7H0TNrU1L6NmQncd/4W0pLHxKVy+8hZGExXkwIz4Hc8AKg/9Rz0gVrQcCLh4
e/60lV7esX7PALq+Kfqo9BKHERHQIe/RZvroXLWGONO83PMbA5s+JayGZakZKx4Z
1foveDDTDr3YlqsKHtdG1tZh7CXp7rb5v53tFNjvYxu7e/AvzU8i3zmH6HzCWwpr
f76bPZTVz5Io4wLKVrr6WAINwQM11Fk1bAaKOxHu935r8wgdAPpnkup3ul2GtZlc
mRMlq6Gt5GEX09yh1I7EiviBEwNqAz77U+3fJwwGWBgwXfrqgwUkdcNZLsltIEcM
Q0Iy1X6515k8rx6D4WWl8Y3zlNoJcHXhMyuTqMAyKIZbZXnOogDLUobO3yFw9/HD
DdkSNy8kwCLIgyU1QWVHIxBgz/ayLUwiyO27aoeIR+3Y1gGf5yJlx1lDb6V3looI
tDFMnZzur3qUtJukXjPhNBk8pAUS9f9bcITQun7eY0o87aiSK1lRRAYpZ0EbAEEw
DcbRz9bYNvaaJCOKnHow/vX1ES+eS8aQunJ3tHP1mLVR94FfCZr7ILc6iNsIB+Xg
zJQMqykbSWB8eMFcDX8vnMno7sjD9vMEGMI82aN9/jlyOGuzwWn9MdWz/9UoEqq/
IH8mfGmfPppM+1EMmdmM/P+7pj4GtCWHQyEHTXnHcl3rISWyFKvfunbf7Nskcrw7
g88/Vi2gKVFQ4ROfOrw+f5GWkDs5w37n2aIyZfr/hyom0eyQLco+DHsfpRVJ53To
+vScxnc3SzPI6I3YTzU3SmEgsD0R+GixYrhi83LaAHb3Oiehm3loTAYDpBhUqeaq
UNBp6NqN5aTNmIq3uZLXiPjzytVH8u/3LAKBucy6ofJ3+mCQKqVG86GU+Ga7AKa8
eQKBjxCXcE3ZMfZ/w9iTFTwqu88fKVcj6vnoS5a/d6gIENEk2w4sEvyol1aSSthU
TRK5xGM9C/n9ljXqeTqtQe2xsKWjbtPLHCsvvYFiZaVdBRSDPSFytdJ+3majRNPX
+ZdMFsCEwXzWt/8SG8lgTMCIQIzxfHNTA2dxtEwnrNUcomGwuk/H6b4j2POw8TiD
oyYC8oEFDIEROahW+ICMvW2uevkvDqHGLxsdleDxIaN0Vkh61qUqVs/B4LtQ7Cuo
rwbfej/MSFCOj5pUZvF7Rn7ZxjPslzuxEjoFztbCTJsEmSgbdTH/HfI710+4F/Jk
4dfwWeDGBdtK9+RjeDlOmPgDtqTrMZ/cZlHmgVDWT7Fg3MpBQjIqhD80t2S3EKf8
ouVpwpNuT1gd7V7g6+PGOdeG/UqvTDcYw9sZcrbjfKOvZ1gvZnGDQohc30h5gfgH
BQkVDQxxoOZvbOjGwdnD7ooSnNGPzXuUEj2sOiXULX1ZeZgUTOWRjcakk5K7Nm+P
wsXpFzBleKGSoheBOaKk+LF66+yC3rD6CT+SE2b5uSkE63vNvf8Xu2NPjCCfn28G
Nby2pmA/EVHC33bkoGb0g/jcWxRPEGoj6maKusyU7vd+33v8zv82TPJBZCa/B/Lc
exJSwQxG12iDZeu9CzF6SKBUaJKaiEpqQ3ZXS8qLZQGG6SBaDJn4E6J4IGrR1NYm
HediS99gwT+F6pfmQ99seBhwSPsc62I7/XEx9zdEY3f0d7QG1Y8eZnsnc+fExZcf
qQbu/+UNeIwbb1F3rRluXW48dtbLkjFsVr6Uohf20Hg43xsfASq655aasqpLmHzl
UNTQ3GaNyOEzhU6Pkn8b1W/8KLsvm6T4GytAdImtvaiJFQyfwbYYwB7j1tE6Cm10
qjjgUrmcd5pnBB5lNcG4KuDguNADPqXWv26RGoqeIRNdzkp+sbb1dCR0wNWp+vbO
eSl7tTj0GNAMGqJBIOxzWRk4G8SUpA4kHHPFArOMMhWfGLkCp4tJg/K5ElnRT9as
NJVHgGcFYOw9LnGLzGHgsCDicK/5ReNkx7w+QREdmaWK/CuEppfublnaFbf8g6xn
Jh5cn1f1DSa1r8G2rw7XLXmb5AobO5QiEpxlxgH4QMgOqsMRYNp6iKLSjYaiqf34
gZJbwmBTe3JgY2h/h5xtBQ/o3MnM+QSuYOjp+I6S3Qvuaz5mvURnHl8Oz3D5wbte
D0bQ9XlokFYc6AVAmShkr8UzPWXx1TKzU6Cg5YkhHpPeJR87nRaFPDQd7dS1wvhZ
krCbbKQnaaOxSfJns268/qkxUQpt0e2QScZxuUkKkkgVgxeUid16Bmqnjmpez6A8
MQ1yzQbDqAkBYeiCFqMaIlcbdd+BAgOFmK1/nRFvJk0miTn1ZjnLKG9SMHedM0hJ
DJpehXyPhYZM+YKjimcsQgHY2ey7tUIxgcI8qQ59Im6T4ZMqQfcBnzmnkpXh1krp
N4lThpQpXTU7LUou7Y5atjpLaBgfwfIPxIjYZlnm8wj2JVdPqfcdqwd5te1PVoq6
RPoWJRIwndwIS6j4UbHNt0Xgw063xkXLFn10OQyt3rtgwYGck6SLYLJrF6vqjDia
2YW1AU+q2vB56KI4SwuJ2uR8Lj5lCkQqe5i7gkFH8ympX3JmvTrylVAshxrFmdF2
8Yp9+HV5LHbCy6NEvib5zIz4udR+fNexogdRmuz34+O9bds6asSKqNrbi8ysu+Wz
+Of606jxjjf1YyNjaIqqqxHE0dxY46j+7V3LaFkDGCdmCLeyV57ts11aQvcxZinm
JPxyJzgqDvrarZCYzZjuJCbwF7M3aa3zKg+5z7eFIu+mtNvITR3/EKhxGzpvHXJi
KQfMzdleHB2kAvyPqkD0at9ZZBJq/DEAWDA9gQ75ej9eKd4aPgtAP6j90+O7xb22
RoNUEW+zTnE03gLZ4sDdZfvx4Fozog6fF2PFCXIZWvz7XZPT5d3CF9gir3y8TZJT
Z12TsRJbuj20P+4AL+bdBKMD61cX+cWFf/tB2T1X3jvKVddqYcGI1vsFFjrf2bVy
xFElD1WzJLpAFqmS+FFxLp5isKMlZ9Ex9Jvs00Be3z+F6TY7H1mFkfpSkwQb2ejp
QJK1R8cH8OjI2iBp7e3aIA9xlzsP1YOVAjjXkZrbxBfZoiKtep5apKv9uKoxT+qa
QqJ7wJGv/uKoQ34gh+W+iUAEbq+xiSWyOepakeAN77REgnpGOlCrrLGVuxHv1G2S
6YZlXzayVVNnHpRMJnVIzDGJ8KG+ZGsPLL1zVjXR5Fqj8MPfJLptirbFb/d7o1mD
jZeBFomD0X7s3o4qkygTunZXW8X1fJ0Ra+JTDpXPDB/Upod6oT65HOaXjTVdFeKg
h1BmFUcna3yRxDsmsEPD1X4NX5EnRcyIsOnjU6rJqJFcXH3vK7pqWfMakozUdkpT
7y8bxYO1Qz1Zjt3sf4WNSKzsZ6Z9ZDriAEP/VZxeOqV8uU+IMa0MmTxFLm0RpoAk
VdbA+8HueuGXDCpycLxCj9ikkQI1NLp67iVWMz1zy1plbySok7QgEAF3E3UljBbI
Od+1qTclPkKf58KqvrKkHj0CA6cPjY2pVB4Rg0UxSQeQXOAcYpKtxENCbqwKZJ+O
K/5SpOhM095t5sLHOUzESbZ8CpgFiZJEhQQnvJaIxQYdxqpoHlg5J7gnNwBIjFB8
4qHSF1pGhXTSm53LStqJ5bJ8SRjlhR/aZnjhuSvrNFyRZjqAcJgl9IalayyB/7yc
0ld1SrIY4REl67czjTBwuNoSjNABwbp2BVfgpyP83V/PdNW52uHPytWHtCg/Xxmq
y9nBwHRbuw/wnaNL+Om17D0TjuFKLWMUNnilo2FyiYCsKyVKws2t8/NFkHUnMj+P
cHPWG7RDev/HYL0pDKCiCTiBHQZiFp1kEVJ8q70L38nqd9pWbED4ywUA5T83PD5t
wgiazpDCgceQ3MqdUQe7+Ja2QtDVq3bGlEJ3LRumVgOe4ishMlG/fTe0ppUzqV+F
FlU6rwKjuFnvVM/zia/nckfga36fZW+haLPuUdaBkHT73t7mKtkESM7hLSiaB0KG
cNxCb0Guns5Y+3JhQV7TPSm6Wy7W2RK+qX4LnaUaMuqPIOMGqTcrpxThPOKFccfe
Mwg+H/Jf9hYWq2/SAPogXLzHaB+W7MA+OExRNjlbHj4EW7JgHw6h9PXiSxeV2Fi2
eDiPW5OHAOJTEXmwiJqCp90iqVtqt4oUWhjBVtQ44IfHcxea2VurrUuv1jLlQD5z
740yuVOWTGpb8/T+p8r1r3PLcv7bYpNlMQZYjCTM5dMsfh80Ro4VWecYiErFsEM+
PbDZRV4a65qduPQLabY9nDVmoeWEAoOTHvwi6BCtMiRyRLqqsFAWyhpfAMjdd77I
LTL8fpcwgpaVbL7/GsWi+sZpaoGixB4XeW5lSVTZ3RtNOmx9d01LGrtC0AHNk3Nr
BNCCJSO/Z4y9Ma3ewWmS7J5n5owNL6OHdi1EicO/Ppgterrpe6ove5qGXw8Vx5XN
bQXmZrYFarRqvrYHLsfCCOx4mTN/Yic/GfyyMIFQWPYELAcR6AUacsp8E6LotSWt
M8iEHPRW4I0pxM1HM8cDyYsVHPKaEmI9QxTStqcFu4TCNa6R25N0jeeVyIxK6+Kt
yDkrnPyzrEwJUU+AxUn8hS4T1RACU6feBXylNVsyOLTckSypRFL6fZ9YUYgnweek
zcYdtSQhegRRNu3z42BB2aTMvvlSsqcR4YjzWJoewRZZivDTD6vk6djWazytXFoP
TBLxjW6SrZZGEAnXjgnAYyY6RBftwiMXp+OERjl4MFtKUe+gwMDQgOedHzxyqTz6
AMFCymvTKbb4wiL3Mci/Ye49LN3k347XyH5kXQfSp9xcN3mbf8k2UmuRUXAvE9HJ
3weEwvANan7G/vZtTjXzbG/G2n1y3608X5ukbvTRzQi0yp6iVyV+Yprsji+lZ5h5
8G5ESAscMB4ipvPB9aR50B4a/piUwpHqDcNG7zLIjAwBGtIal8J2cs1+x7xs82l0
QFkMe1DBaVH+2XjqDBwHc96nZ3KRI5M1Wt0VhaXwyJa+jR9WMAlWHqZv00KiyL/D
SK4J+5tvGx0dEAvZc/U7+rvSnZGV5ZbfGLeRP+Gs4QXhu850kTbDpff7fTj05ccl
rc77Ckhg5qCvyQg0bEOX/rnYRmCijVFYgFA+1mTCgihf5SgslcxPGUepOz7KagD0
pYoiUwNJLToxegmHzJKIixoHBXwUYVrJVAMjbxFaF3Cb+afX90uIruySP6Mbc28p
aS4TqwWhN1GGQnOV0MqjqyzDuX+j0rpfkHXzE3K4TLvwRWI5U3b52RujGOodHoD7
zCRAEDzkGDQS6XpBkMyi83gtqDJU58rEPCdyh/2lnT3R7YY323rfiLUwmZrXALB4
VU6TIuCBDJzFnAZs97JRnxxPBFYac1xPTeAFy9Txg6yzpm8bZUgLFKTNe701eRNw
kOB11h1fHm5AR1N3eHGBSfQ/dOmf6mgbPhPRZNY4qgKyp2kXOhOcrsWPA5lTXoyM
Ysd20DJPhjlOgvKRfjOTdbKoJbfIXWTWGkHbMv0Q6DgqiZgnafXzEsKvfIwqjY8U
nsZa6wM3cKxIvkPKza5a3Ch9pgklFIPrQBNM0QLPAgqe/IeADssu4P5htvnJNak2
xXaKYZR9I0AwmGfjAJtxf9l3pnAplHlhgXzn5+tCcwhQayUeYvQJ2JJFSjzm/GJE
ZXI2Lg8ZHWf9an7C2fj+PJQAcymusAaNKf8Yo3gKkg344VkkNAgkdHPA4ZavRPaV
7psTGQaghsIOmSqXIW4HCrw2xj2pZ1RdNxwHrVQIJLx1Ub5AjDe5l0fXYthSm3+N
MJ0w1rWyyAlMFskIetZrQC9PVdRLNq0xGHDnath2o7w1QKVHo2HjluMbhIXlyEVF
9LP5SXqyvUZowupiFs4S8e1XqoDnSHVdzCm2G1K5kPFv4NhXZqr5qEbm9pFxHTrE
JJPP3r6hrQbQkzafxO8VE2H9Ol7X19vcgwsYxadK30MCwRmDUhOzE5/2SKIY8t1C
o5EBruLspgGucWLkFuCRBNK1upZub6sF9I/UiJLibfWsWnKGBVR3aSGhSA4R1PkJ
620rTm668pPDaA1pfIRyTrus06vrewFEUBt7MyJGu3jj7nYgLIsY02shsAdDl0hm
y8FyWZ5/OOhQshIoFCg4NvgHTfCZWJE4UXhrL5nd3xPTlZgdXIV6B/RsrkELqgM8
uAx+KwOW19WWzyvPw1uGflUCCipTffcqNN0lbf91HjDRZo4wS/+ZfBv4+dkNuurX
AnKXdsle+fe7bCrobW1hA/5t6lIJ/YGdiBnDGIQ/YWmawuExQgVKscn1+ZpS8ckJ
WopOQ6DS+7OPyu5LQyTl7TzoNhg+naV1TxZCh3m2vdi4qwxpnaGJGYuo2LtvALqs
wA0EYy7e8zRSKH2+ClBzXvLgVfSKKsmVpGcjKB/Z+qClTgqutxZnxZwsKAhcHeP6
N8FTL5P8nYYTj1t6hTGbxSVFux3UfAMRFhus+lIvntDZ2gJM07nOCITaEW+dFQeQ
xyk+4bODdtYWyOGU+ZqVPUNwHDxF/PvizAhyVZsEkHR7RRXrQQbzgZQUimJYAh59
+3mTVjbdlqevA17GLBglavflQBx2jZsR67XBX/ERdQ1gP7RBdnlUUbhBz77Mv5j0
y2kTPN1CpYTdMC5ZCf8VXRNfUMsAUBSpbWoJD0uFxu08LuUrlZUorpRYttnef0Aj
K/ztmUjfomUi8s/iqxatplco/vxzAd0kixQB3OoeiyZYVs5aYh0/wP81+JftchtQ
/FDxYLY51Hs0R22wfPaoCZ/uSURLNtqLTssZuUCzj04MtG8ZnzcuXuOieFRzjJWx
bq0XB+/eKqxRbFah6tG58dik4kKt0x8sTbZc7IIglmLKLOYFGMsRyApVnp23HgTR
L5i8eSrcWlk5GaOv1ReAVfj0njVDa2tmqXOdD/6XJ/Jd6y1+6Qjinin5VbYV7Da9
mA57WP7UbphGYUMrsx1aLckvH6fS6H2lOTm0XHH/KTnWE1E5HzLlIAtwZX5+6DjZ
mBU7lw/TCIhp+ne842xQi9F2pcee9hCfHSYyYblvV9JWu7cwbPKhNEOgkzYbt5ZH
vn1DQjtjDpJOFRRYREHv5YaU+AmKwzFJrTOTodbItMFTJrYG1TJLfc/XqrVpsLoQ
9v337uXHASdlA0cnrrggVcJ8m0Ffopkou1DEjdCLckRnkuz7s+oLH2uDrDl+8a7X
aI1GOIepWzMnmN97dMZpVLZdWwrkoTs8pKX728fNdIHPxFWnXPwbthaCHsDTnjeQ
HlI3kwjdKtTZqkLSWcHpSmADzzR2B5t9Mkxk92XauTxyjt2R/Yw+32X8tCohv8Ho
DZddX8ngwgCaU9HcjfhcpMV4J9uG0PbPRoeBzl3jzxOKK56JUXa5VAUNs54ZGHhM
R7rdQVD3HLTBoaPDGGAYGZDKTdMsCvJ+3hnWgmRY5zJSduofsX/RKcubtVnAlR6P
V1NHYK1MOV56a3xqw+oPpudZ1xZz/BZlUjOdbqmhxlFFUumsKcxzsY3r6nPDWQDM
I1u6LadKTzuf0xY3LYq7HEqdfAMKceRjQ5lU+s/lUC5ekknd8NqmgwSYlKzk/OVS
uCpmrJps7YdyiHbmJnmyMEFfSBlvvpv4LQsmiSQrgKNrzZAmubjrpuZVWrzSGZys
XvoVE1xMvdlnylHfhXij2utBrrsEdehCOX/Jn4m3dteEEjWOwI2YjQYKQHq3FVch
jmLNixdCf1c7XRgmNywIyhVAv5dGA8O7SPNsyBPfJ0RPpUD47R7U2v6Z00epbHmg
p2MNIKzb01gdwn4JPcCUjj4fAkkErv8s7gTARE/FMQFI5unNCdhCrxjAKWopFM14
yf5iWC5qukofcIjTtwgQP5+FQz/jobI9md5HKvA8CPlw57BBBTR3OfiHTqvNOyoR
Izbs4msA5LYAO9VJmd+GzjIxnYxhBFm9BMMwKup5TLxDcACEynwUBrhcpR/rpTL0
fVr33x4zsg4A3xFFvjspls0ykr0qoPI+vY4eLSXMQuCDN5Y0ptM6lkR7TN5tddIJ
Lhkg1fVaZ7RBSTbIqX0mfUnT5BpTRxY6/rqsgRROuc9wX7aEx9iTkmLVS3RV+kvi
i02PmS8lkw4xeats5MIAIDvlX6Md0aUKDiX4MqOABqlSaSXY4/ONGQYsPTxZ407l
iDSIKqzGYvQan9y7QR+YvtynYqT0UzEKiS5eTabOOfwm3Kv8n99hvoTi6s+/wnZ9
R8OMfv9WSjTethoDIzfdcTQ3EglzUEztHfwLGhkpRjOZ3ebMQOLqPvQMoFb3svfd
nVIE4hPLYm0zQj5SD0svjCVUMPi7DV+s9kzxPguGx1nBMLwZzDHEs7zCOzCQkEeA
spQk88y7H3ptgcj6FRHy8o8HdqLzCeHXzTfXmSHx0+CzEmUxnzETT6w1IymZfej2
Ryuu5sPuO+wlfET+enDVT93+HgR3tBgQLmyOVl/DiYHsRCodY/QGOSgGS+sI/nx8
JlQ96v7oRL7J1SR3iCqp93AVNvpWkImnjhd5YQVavZm0G2N7SSJPVFRNBMnCtt3Q
87boPov2U5B8P2XNi28AHB6Qu4eubTDhLnNqxaZbv3lD+tnDZHlIqhRk/F8jG+qA
rCTC/bnS8kjR9xJc8x+rGFGBfNSJG9ZGy/Wv/TYQjh0e5bXFOjKF+fl7/iccIhyF
TumVccYQmb2C0VqAXqdnP1KiQHHpZBQzoxb+8mQUeUNbXdsD6xKOk9Mrie9QbdJ4
BaDhZwqFCF30w91XJTdi3GkBH6RcDX/pXwnKTxCjt4XSZJ9jDPFT7w9vUHJxjwzM
7GG8nO8JETK4U7kyqAht1fDt0D+6txSNjfPmD8dOIas+xhHF52tFwRqo7P+TVffT
+XjtbWVIKhzAU8us3RPf/V/9qJXw2istGdFGQMnyQS5EYTzjCTMs//qbqQzyp/gk
kAE8p9Ca+XdseMlsHoQm99p2tuesXzFcSzddB/a0U1J6JRDpPicIGXIottKH+NM+
onuQYJxwq7F53dma3/pxfJ3XPq6GEL4IqOpiVOXEaLTvaqmBodN8ERLerdJBP6qx
YeSKPVkwpc8Ckjc1on1wVEW5qEgQbqfaF4rL28yj4GVlfRbH9XcSy4Y7k1gUTloS
l3VA0+WJt/VQCRr2OTsqI0rjq3d1B5wLhs8tgOBsGxGk2qrBl0TSj+46TAEgkQbY
E9HLcdRjvdxKktaXCLdTkGHQLDCf/t2h2mKowpa1NzRP11uUiaxsPJit06khP7cn
Jge8XJIjfXKS7yzhZ0bA/5l/ga81RwsSVLeN2gQYpLzcX4EubWijuR8d4qO+FjZo
L1Nxe6ooQq4Ed3abul41vzTU/lAf/lI6AxHiUf538wLlnYmMOXEz6gfUAB6Q0m5g
rRUyUjkOo+LCY8KNpMtNuXxLb96cdoXmqvlt6VN6Q4FwAaf033ne25+LPDY0Y271
oKoYgmosK7P++Z8p1Ipq94IecfjPL6BWuQFBt4rf8ba/nnovThMNrYoq7Cq0FAfk
NhDSLpI+D9ZiimyqeNDXv2hoA+p7RsX817pZUwbuOs9M4KdWc8/xmEgzXOat6q0q
E0y8xARcJuKN783xmQeXZ+e5rbVFjVwo/4lUe3X6mVz5WmON9VVSoqlU6VIJnM1N
SpL0gZfRdjEM0C48nYrBZcXxu/LlpKF77NgiIV3DAJKns4oIzgnpjhSCTWchzGOK
l6l6FiPEzTk7sq5RFAFyCbHxsbMSgnk6xDpt7JF9GSi5Wew/YuaXPEyQV/Uqvvg8
r43O9GssKk0dxBY/8CIPNe/2w4EoYwZWtoEALrEw2dVlKVtP8A3nwuPy7ZZqV7Vw
v5dPZShADg/T1mdgX1kNECra0ZEFPo+DdQ0XWCEJ3jwLe9ZEU9RsbZlxjaXfw9jh
4mfKCo1UM3V7c/pgtoAfxXLyqVQJW0JYPaiYzpSp6rnHI/Mm3LgIxWu0EReBTDZs
QDmNU7yxVB5HSq+Haa+ptCrDvT7vlvbgbY5fr09BerN+QGTMA7mXNnskRgueqyj/
LuxZETvRjgB7POpueDaZOwBCvYCuKknnZpSF/hZIClcyH6QM1h3eZeElpaoU2GTt
BmDV2mjiWdrMXD58VAG9VVlGRw73R+nVsXITlUuGm0ZAoKpKQrvLipI0yEE44bI+
+NA3yB6YxNTler0zw8WXbBreFTnduZt68NbZBi9wIzQYPf3HzgGPjGRLvdPt838+
eEvBMSxN2S8ElEbjT87Z0ChoJOszOrGnGbN+Jm6VqbvXks5X7wEVTxLeHcagUlHo
eCMTD0JSKMLCoCZ6r3aHEE0qGmFYbtIVKlMu2CYHDAFaVHHE/j8uW0lTSw/yYHx0
rVGhlIAE0vkkL7nDNTyaCTlZvcFt0XxVlbXy9CyNiPenYoxry2viD2KizhIKYU93
ysx7fTkRhB7he3+u1BrRtrIBv9f8C5T7xkYPd1cS6Xi5glQBOCuLzKY0SLHb0oM/
CEvDodk0nfw+J/Zm3/7TDUmGXPF7O/CxUMTu2nSfd/Qau1CyCgsZOlncpL9VDJdw
txKIMJkK68jEc40bRq3HDR0kZ+nnDjgsz3wdJX9ATKe/7jLTHstO7/7cUftgahAN
No0HMMfTzGwy+H2BbTFCzsU+VNW6hdi21x0jK1+nmzEgLuyd6PcsHwaZsIdXiQsf
zZySDJ+gOyv5WPZyJNRpysZuBMTMmmAxvXnDovcf/q4uUod72bEMBGEyf3Fsu41B
Aqj30VhuXJHjQRH/rBo7FPOV65MQ1N1fuUkqtjW0wexp4qvTzaImT2kSw/701RFG
lgWncxTJh7AumNaKaXEtrhEuWMYwaVWXqyrQyQsaeV8GJ+v4sBnOjkgvr83PMPz9
4y8NQRuaRW8lrrqPuwsbRDEf79utuDaAcz62E1cobIzqRSwTTXRrHaEtMSJiSJP1
PlveBUXqcC4AidUcqEKiNKW7EsmohO5EHBeIqj7BU8O/CIG6SFD0E8De7d7OUHFV
JNmqHQwGC0MiS8CTLasIgenaiYeL0G137H4hwN1jlWgG0mp4JhvN9GkQCI64zGd7
vTtN3wE53GB5wjlqYZ2aQqE7vyCt0VzWR8LsOiiu80m9QKwwMzemGRZMiv6eLChi
gdHEXz43RxxckH6kTKX8yJ30Cx6cuYp0CqZVk94sF3SRYE6EcmHYQj5KYNJQMArG
iTskdnh6mbJA4NuUFTHy30pxUIO3hR5DkWKfN+q1PuX670dZdSR2rIUvbS5uydz6
6+DdYQyMmB4ADBP9dJD2HMClAh24vSOHpRLywgXSFAFCMNPE8w7PArLq22esZDeg
nMFeeWCH1GZsLeGcBoadqtzqMMDwBRX8ijOho8jFd4bnJ+/i2PlR9EZdJcKiuUZ+
MMzQG19XWCdMjwtXMf6EelSR9UbxXsGBgufrfDW/lu2dk2OLOgczEm30OvqlP+Az
k/AuldPBnU7oY/gqJkS4OObeZxjtr9y5+t/WTSzFGvQrRl1Sv4iQcsjAHsdvxNLU
bW6X2qV3bHdQ+ndIRTiobiAChqSHmIpeChGCEBPhoTMmoOJir+Wz/eofH0ECigjx
DxF4UDbMi+1GZzdg73Lkl+B8q6xH/lLAzcrFiABL6BID8oR+nT/CnPl1ML+clkG4
Z0Bgq0pV3jv/p6sCLV66Pr98/CMC1SagxoKuXW3SjTJbIp2hWzT7KGTiq5BUeItg
D2ULIBihGHVIOeq7jcgHIWPULE+V2oMl5o66i74RrfTVYZaAS9IySkCWkb03sr4t
P5TPRuA7SLLnljPrdBhmCBgpq6o79BA2HI5OtXJ85Ly8WJmfRJcU31wWCfwqngI+
UMmhHkU7Sx3PqHKc/WOy7Sq6B040aQTMRelkPhEobs1z7wIUjAloLzsRwxv6uKzE
yK4v5BTXuW90ItXRdu+QJZKiKYwgDssZ1redKdUzbmdXPZzcUz4LUO6EH7OhRAL0
9SW8h0cy+mmslltLXx8eRKCI4JkpGyqGUO1TA02iwFIlq731ClmofMX1FKvvLUwY
WKV5hHB7PcY8iX8M3qmv8nWIBAyC2LAdUV6NCmppoS0l1ZUr85DFpyhJjGmOopNq
Td5tM15Abf0xY4YZ0ARQaPx1uFz4QSVigC9DDJ3dgF6i0rD02919yJfWfWHg9JSX
Vqhx+V1QhHeshHlNimDlJcYJVHHowmgcmYts3WXscCxQd3dtP4jWAdwMJgI7C1jT
WM4CxMmOqdKo7pJFtmf7jVloju7a9/LkjWS6U0k16hB6OViGrSWXFl1liUIwk65r
0LSmS7OVUKJoYVrR6CkfkiEmDD0VoOspW/CK1EfXw57FCqe26aQ8+6c2GEGX4dJE
QNx/8/zA38LE/nYQXhPxyFgrkBXefm6ggwCz1zaXZV2hd0ZIsPCOp/A3r8QKSyWk
8dYwhMRa00e5jI8O/chu2+rK83v3zQh6+RRZ7i01krB/zjfyLlxTlAy7qCi585ZG
Xqw3ffrjdqFC8pVZapHXzOBitfUWj7YnpDryFJqxO+SPJRO+2SG5KmiRDZ5Q6vV2
VI4wr51VLTU+PNo4n4bdtVEUowwh7MxYu8OGl1Jar8l98nzcDwHJP9IsE5mX6gLo
F4B8hBTEDk1AZ5f4mGY9WyKz+LzBvmZZuGekETc13oIWSat5Nu/bYtSE65s5bmxH
6W0FPylyjlaiPnQ0UYWvWYnfDOfZZR0k1+2xO6FVUlHJMBdRoY5cr3b06Y5SBiOI
R4yTnlBoiEQdqtrsclFX4QD+8AW6kzbMgOCptTjU+SMOGZj7vuyykSz44M5w+LKj
SrtUBbAuu2SP92sGnjslkg0zkTCk7i44LdzE22GqziYstdmSHSKuzkxjTdnVx7Q0
5CBerI6cz9qbveDJkFm1GhoXTDv1qoBZ44M5P9tuef274F+iJCqCZv0o94VuWcrI
6DytP9uAZtESDM9K6yoqNlmnfCnwhh708F5oJWN16K4gmGLGWhh0qKYZUL777G/q
mtmSLj6Ml23XKsvbgS5qhechmvuvZhr28dYbj2rgr7k5ysrJREqB1b5TUKozx5Oh
+lmwafXsfktC++9OHyS/SHHFhM/n6oJjf8Cscjl1bghhUIPHlB9+6JHK8PbsLxDr
CmeMU1opGepR/uIts1iVsFT1JGaGGuz7+N1bUI7+AkekVWT2D6lCeKwxGtS1LcUr
hpQyz+eMoUUqJldnkk4qCoVLVlBT+E/W6QrmK5NvMIzNlBPtcEzR7pfvn8hHruSN
Ni5wmgQpapXdBYyzuOq15BhjXMJ+HDH8cNMwoNsKbQUH6hBTqR0m+DKQffDhI2eU
49A+/7S1hblBo2si9hlWEFrLSJPJci8HsubtpEf9xKoZuok7uu8NIex2P64yX5Sc
CjxRJNlQXlYcKPx/aPOwJB4YxYpd6gFdK+BmvW/5M0E3Y5cdMuc11+Bw6GX8NK1B
q6ZRV6tQbb/8bp9AvUwqv14iBww2eli3jh3MH5agWPH4nflaiPZPbPBucfmXIvN4
5Uy81pnUFMfoI9dTSKXLnlWsOta9WgCoe8kETfUNNLxgMMa82F17x3AHvMjqrz0/
UGFz9laWHYhJ2l+d3FT168Bf2lXmX7m01RpdxU1+ttxeHouinaCwrYpRMmx6OsIp
X6PrTS1Yd9Z7w0CZ7OexS3WfnmXFBpFCyT5+S6airHnI13efaRobwOr+lTMnV2lm
sZa0iRYcmSAQbTE/BlaLqn4WHB1hwB1oW07pwJZFgd5vNCZilkBym+L5S9cPmSP7
LRPy+Rko4cxoQnQLyPRsCoasGP6ZNGluSENnSgWNS3J+c+Q1HzmmTWINFjCQASw0
kXo1nnXJDNjXf4HrLgOyUPD/tIOlKrj8b1lyZAKqBAcP5fuQQXWNRgexQq2pHMlc
AfMFieugwh9LkRMAiM5DO214cdrwCQ4YQ8EqdwcUQM2HWWWXUMJUOEH7zUyFSAjv
Jp0/6y4U7HKjLEIaPHzsTmpmkULbvBPpQ6SWf4+Xey7omnuucOZwGBcLfx53SDnq
t9hxSojkmiQKZ4EZx9qKaTNMprxfD6RBiSqJEusBJjBuqlX40cbsHA9Sm88QrXXH
vlhmmjpU9qFR8aOXPOOrkDKCCgOL8/OqfVbo8LOkJO0HrlSWlV77s5hmKdgBfEUy
p+xeu+1y+gWan2uaxIDrw8yQWCCLtOc5jpHy7m5KXQCcJv/JQQ6K8EZRGFELacvz
XwOr3NAWdrWSOlFLIaHe8xwgbZRZp02GAtOaVT1PJeTDQEJ4RH+UiuQqsv508gge
xRCjlZ4aNmN30MD2hUH39LG5v3auc5jVDmo/LhQtiqS4ZTd5c+JZvS8c2Bf5IWx6
QTDHdcYJfmPm0pZXRR6q7x7ZXFsvkKBax9Uc2gN/NQG1eu3JnbXThUmmSj2VzZXM
xbI4vzb4q41rKLoAGbVzP6zTFezM2Y/MbXPTQkFeD91ydJ8GKBhxk3e2AucX3Udg
arAAuOcFioSVxl10nIB6JRdwAn9AXMnfyU99fy0Rkv00BhQxdBXDsrX1CPq6EmeG
yaXx2L1gNRLkavRA1zmrzXhdn1jAYcXnIDAfvQE/BviQ3gLLf0gYcNLaBx3bKYIH
wpy1u9SUiY/jLwvHkDRWisO/NOaJJopi2yhj3Jo0Z01GeBtLprnbhSwSBYTLhesW
vEK4Mvr0eTdEbEgGS9ZdBqyjrdrxNpHnGHQzISkeCB+08C2X3I3Hl4/Z0U0JTn7e
uGhhcU/Vz7rTHfo11JawACz9LDXdpOsjL6Rf+9QiItZxHjdbq1C3fMSqLQDKVH7D
MkzNxlwKrU7OBrkSoNVi8cZk4+wYg+hl0CE5+WQMZAFy5wVXPC3aNHjyi+Fv7mU9
kqxSTODxq+9LEsQOSfVlctMCYpUtZdajkJ/3I1J8zvfegbO9cw5VIbk3fOZ2Duss
5qXQZ8RRlK/GclCtrNpBMpBZ4Yr4WIPwYeuTn4tJHMRGYKXxsUBUqlLK8J9ppqZq
rbOuZAeOBGniLbCnqzKtRLQgf0XHSL3MTVj8ApsXP6n+XXuDg5gRl8wMQ8N4zIA3
hc96p3kV+2/DjmjXor+9fC+zB3CN/lqtI2wxrjBQXsmW6hkXov2lp7xJfVQEAMqa
sA6lQLPGWvnVAzqjGwxNcc2vmEdflGoEEkeh894jvpoGyAgIugogJd8zp+9pcXy1
utMF6kHqS+Wfn9HcXe4yvjzqtMUgsx1YttNk14E0/PGBsqFKYl2tzCZqVRE2z0fa
gKMfxcJJW/Atn3QMj1UxsRjPqYfSpsBUlSaHartcSOEmf2a0noCqWRFarB+52bR3
56HJF56l32HIvad+aulG7C+yWNK4S6VxIK0Z7EH51qnhywPSmMbW5upNSi3xsVkM
9PUx7vHd9V/eMeq/pY+/lzci46dRCG3RIgdJ+sHuywUmznqRcMJ7OigSLGLrSlha
tdG3vsgRPCbpx6aPQ5nqqjzcXhuFEafCeHt+m4mQmKqG7M0FzfJq+27wCjtSleeZ
nM0GDeVr4I3yT59QDBxWAa2NRE212/4fN39PTHlFqov8tVkLqJLaBitF3bFJSGxZ
SfuADKui02nd+pwuYu647XF1/RaG3qFC3xFpHqzrdxryUyrBFA0ckwrsrNRe/d8p
hvLmP9m35IHTR2/1JUgaFKafbZvPxE6Ad9GW+eackWR5l8CqBVuWJonvjQXIKJAq
Y+8gg5SePX+b3NZvmHVB7IV6xX/J7PMfHJIaV/adN1j5RMXWUpga/FCp/YGe8gYx
QupWRrr2w4dQIbJi+c3EqFXVFrdkk9MDs6v8iiLoZwpce1BLsfPKPOD9pf5k6d3f
PIegGY2jJF5Izy+VStrXzkJs0HKdku6I2Sk/VP2lonfHxtkzN7BHlAn6Xc0P1wKj
NrtyyivZWt6W2pSjEa1Zj2ZrNsMjc3wZ+cSiTmWMsT/GLAsF6gMWTqrn0+Hj0dFG
sedQUX1DYljiHy3NyrSIXEiRg0KFOSkOggrdg41uQWnLWqQZ57pWPCwFPvzdNet2
nAFooBhDzHjrwd8elJq6zkIv9byIgTpm8SdBbGBuake7sRo3SiBUCUb8vqNwrkID
zUOXsQEKe/50G4lFPrETBHu9NfKIlMZL60hmQPVAsIrCwTGxCfg9v3/FmpSySOV7
OFpMn3fFjxLB/xby2qQ/JTHC5XjJ527d4WzRhDG/7WkeJon9QVsV19APfbIQHoLi
bnjNesQdX8YSoTrXKkmB8YgxZ3Pt+rPZJQuXi+LppkxThuv4cTDKujup/q0lUOFj
DFBZIJGkdOsQ/fvAi0vjJqSVXjcANkUUqWSa4QA0VpqwtRQZNqHXPmE1/7TYTAxF
Ki6idMywZ5utdbZ9DZJERoslPsKfI5ql4doQ2MPVJOERuaathQgKGiyznCHo9cDk
ljgUZCaCYSFWnAWoDDcnhJTwzQSXYCJVhjKsidPkcMzvX3z37ndPcjMzQzixXMnz
hUoIHsPvE9PSmUIQFs99j35ESLFfbe8HwuTqmd+82STllIIND0nWh+LC8okgJOc1
4MlkjmgbfjZoD92KMSSg046h+Aqnxf2vXyr7j/g5G39eZ/MHmZhTXW3nUPcSrlgz
jWHK0zqS+Pxb16tUIxX+VJIXSpaPLvgEzl90ZQuCXpYUvHHzp1imhcr8CDlgZonf
9IUsUm3GX001PM5Xen3MPVTr+KmHVl82a2l4Q3ujeScVUmTfVeu8Krw0UUR1fzWL
0FPOUP1W7YsgOogbDXLK4UIdnACC6gf4Surg7EGpKQMAGRLwKdPj/YG6MjFBzPNG
4C/SOm9BSlW9okBW1mZ4FT9oLBtaU/WZqWY1SBY9p7ilZXtMyeHV0KlvdGP7+SVa
VmJGTrmG6+RzQ7khX7fk1res85suS9qfz/pVUGK1Yjoch3+Ed75w28GWmHsVpUEd
8bMZbcKtnYBP/HX+2SSfChMXE0JsGidQe472XkDr1ifT11w7eihEJBLNSwfTudc1
ohxnG7g49fzm5glomTXzdpQUq88LCFQzwVzqtPZM9JdWZxlruRMGiCy4oGIkjCqo
HMi3uaZ/yZtQbwdXvT57R+GwuutCDEKE7nsf3Wecra0O7r0/PpbDj9XfefoaIK5J
OJDPI+QfemhPmISs1G3oXlxeMFY5Suglsl7iJbmYpZrS8kU68yd/4CRKdj3aiyI/
TgmVmxz7B0bxXfS4VZYiruk7sJjyx1Ct1lPeHB2Su78+r4CJDYJMgZTeqgy3mDji
3OuMVon4iUipz6+YN326i43+E0XNbyc+bhpVf5uiHTtyppq5uz/yfEvooRJfx1Ig
jgzb5zQGEIYVntib3GGrqhywE/qBb1/GXGqlHZ8krXVqyK+2i6TEYWeZBTOIVmXi
6rd0pb1R+XETjQbXdhGIYp+9/HH2DKwkA2JRsnO+yWDNXYPVHfNOGxxAjYUswAwS
kvgXeQez1muYL0Xd3+RBhyZokXfvg6/gNHRmXK4LtEK2PXN95uyWAZtXtxYJXvxW
+hCs4h2uepnIX8DoHuI6DRPgbxWjMAsLQWKsf3JKuYw835KIDUh/oxkhdvw5P2Yc
GxNtrHo26GdO6KyVlqsnBFuRHTio8OwtTlOkOa6MyffFav7OoOk0TinMPAjR9+mY
42XOE5mgiYee5Oo+x86SQuqD+svCqbncuqLvtmO56MUsi8aj0gLJo9KlCukBRAW+
p0AhH7m4V4xvV4nSWL+4yvdAxCG5JEyoWZYzUkBKxSIdMBMNQcflt9N6vDgSjm2d
IfbqtW+M1zFlB6wVnR4QP1W/lyjqPvxORDtfCvKd6T/zc1qiD95TStAZfZxz8hlV
Kzq0J3eiqGxuzTMpx1rqXdG1BMdGwdBd9VJpWuzVd0qc71iwZzJm+QBRkVMwtryo
f/ZI4cx66mI3c0PitRsxHed8RG9WJI2lGkbp9yS7HZ1mmMdnxSl3debv2gy4UdSa
ZopicDuKLDqNq6xOBT+ugaVWqYMytPm81VCmmwL1KYhs95tBjglBPTCDwSoV8qWT
fJm7jx2FZf8B0Pt4AnTS2yNi3KLeH2iJYTehMS+qzWsaItJ/xGqjBQ6e/uuUG61f
gO7zzNuwJgnTWQraLoRjRNnc5aEDUNjzkZYsjP3TZPXZfVBltl7Z//j+qFPHwKC5
caoiu9bdvhsWB0mYeZ2dmeHeUfDqEf3p7vO3UvUY7Gia8isuA2D1uqWfrAzhxE0g
wA6JbwH34CI5cifCzDoRuBJBMS4pwH6+Cz0SaS6gExBaDiI+aHnLnWuIEpIE9qgx
aob4wiGqWMAby1SwAlqBmxH+oP6Opx7UFwAIPumSJdBNUKw5g11bZbzIgriS5F0c
iJSqItxOlr3supqiW8d/goapjj8LW8nHzzmzdH69leX57ixugkjLXEKIZiIQyvRy
9RzOhQ9QWf/g3fzXWKPd+8JYxltu9ulWnRSxINDV3wQN4VS4cRmAjJdZFYdJA3vr
MTZeBzG07YO/gPpfotamVcD6uxu1Sp4rEo2fh/hsF/SEHVezjTTOsQHQQvlX3NrV
yrg4C1cu6yRf8ewvl0VVl5CMRBtx46xjnJirEGvQySO0u+eVAHTJbFslXFLt7AvE
FseAFWNoomNjjvnabrTf52cYRgupoLpaBliOi40xdGcDppOPunhWksGhohMBpIAU
7SHX8ufHfIyOZcd0HSePPpHYdacJ/960JJAsrjnbWrae7vzM36vPuj7bI+DT09z9
uQSKSx5a3r72XdUnvzI8ESDzQcpncQd8QDyhL/aL2fddu+lesnsDoGhvsD+xh7QI
nm23RVLiPbA7+GTzTTkluqVCjakhC+P8Z/E5a+zSzl/ee3zPDWkJpUCRG1G3DiJP
51vUEXY1Pv0lAVStAGY56MvuT+sBZb+GEuM/bpmdJWqtYcY7ZZ6y7R/Hqj8NpQC9
OFqv9gwx21BKAXb9++EoH9VUEfWQq50GqpzMCrUGMAy3Z2fSBHZyWZJkLrOJAKHO
lHZzmhkKYt+X4en/YKaCyywwVtFO5yzgOPi/aXmL2PerXEix2tPaNXSJFG/l2eXi
xQ4ku5/ASlzqd76a9KMECkQHcJNKiD9xD9hqYRN9K5fQgR7bYvmdKESx5y21HedO
pcdvI8ymMSnoloMGoujcVIJDUGGsB4cQ1ql+XkFj3FkOy3AxYYiTgEIcHzwBCR64
ge0w2kTXHneXkPAUONMSZnuUQ9r2Dgk2HZFrjX+rXVXQ3faXp+ojHtIG6Zu3zq/N
obbe5l8bTuL74a1OBYp/b40J1mc8i3fiuIIqNqZs6/rBzdESeLAjMHECmkNKCdK3
ZW7yNCvfNNgiI7MjLh+fZ+V7e/eMFCcqJo/8fzvO9Icr8RoE9DgDDp2KtJeeO6Kx
JwBjuCYaCYtNPpBVLfOB4wo++wPqD083Q1yzcC+WvulsJardkGTsZ/aYytFwpsJZ
f4zkT4Smt+kmGn7rbdFWMdOUHddFU6UKMpmPjWg6l+vvC+Ss7cGedcSI3I7TjLzf
5qjK7hGeey28vWeJFIdcWnPwMihOlhPefjE/rAd7rSk65sJyfbopgE74kRfJ4/fe
+sFlWorny567a15NOo8h+YFeDiegVqMhe5sGhLjGaF6GfVV0RLPl7SscGhjvUCRw
vpquCkaYOrMEceINFG2SHH7ciaRFgl817/vKP0h8zN3OuysLZp+6xKqY8WREJ+K8
w5AjICE2KV3+j4R2gWOdbNV4z+rVV6eluigHB4mp566Txvzw99weUvc322nCZBTr
l+aBZFEHk710IfWMMW1H0gHi/7eNPz6QvSmUOtjiWi6J5tl0N7nPJi9H/WoKmLJI
pcwZjKiZwl2nkyoO/Fuw+NI8P3THuaAA7oqAM/X+hMFTNQOGQt76xa9kFfmOZx4r
OgPmY+lwJUnxOlVAKOy4RAy4Cn61LhWTTGFSDff9YML0F9UydkNR5LeCK2PxPef/
oTGzoFU3DH84V7/PxhYCYoAoXkfxDc0n+0mSWHs1FL1pSbgiVUoua/Ymsen1eRz0
rubSrZTdBiBehRsESTkJz11fAyMbXty/PtRQ4DB11hH57jug15sx7canGJXt0eK/
fPKqVvugtMFfI9Pd8Q1atraHFXrsMsVTPw/ewfFn07p7wTRz6QHHOJKCmddemgia
V5j3crVgUTsgr19v/LCOoxzpv+kwGYyAob1+WACnkWUgcUlP6zTurB9L6XhRhL3L
Na/OGnYM4qN4bRbuEEHfNoMPKJ2dvy64J8SCvWb8wyKw+VH8uk5fSyAV9BHOi1iE
XRjARur0dyCN1KO9qfgcM+PYAwGfcICODIBL+nJHY4CdFxqOT6BhfOuREgL+Ox0c
8mQsSgfi+Xf9ao1v0Pw+x6c2MB/dead8Vs6ZMaBXUB6mO5do7bsqOMULUg5y33Na
4XxatmQHzErU5JqO0HoOX4+F8s7lxzNmDzTZ7oYygZFo+Xz0AkYP/b59QVSBJ/h+
TdCuwgxT/S+HDlAspdBFqDt6yY5r3rsC1pU4gNMJRG2l5fjP7wGAol6+Q2RpHOKJ
okbUWvaqeRKPkTLWB500+GLFa0kr+n1gCJCzy8ambQCjGCvxTmvX1ifLhqppxP8R
aOn2LlCs4rJp/uxKKsSZHYoHkJSvu+6TexTZayHok91NZ81O6VTK/DDL5+AD+sO+
cASESLPEWrEUOwggO2gbx03dAX2Oojx2FPWWvfI6bgbqWNZcDb0pkAVUiKBNLWGP
AmfsgncwMgDPJ+5BWcypadYC069OEcf/LNDLzYuHSLE197pXed/LX6Qb1MBdwnT2
18sT1SYMySMaUOdwkgBVeoQ9ekzFmjUDLWDjVmIN9ierxkBpniczKH+ARV2AQRka
MZ7xas82oX64wDzEOAMdkymlcv822be0NEXFdLGSOE4aWkdNmh4Rd2QaF8OTtMUQ
2q//JIZUFQ0wr0osfeIwNnh94hIfRHivt3BokU/isb6jGTKsKYI02hhUWvXRTEkw
LDVv5t02kbwpDBckqC0xebWToJVNux6nqp1jbQXVN70iKwT4FvL6TtN5Hv5aZ4Rb
8P1/XlRxfZMW8D7C8GonCoL6dHdh5nva1T1bkdWySXHvhaZCbLF/PopolA3fAj3q
CnoxlN/k7k+q5Dpx/F6GeKyXHkrQUF7hHDpTBLccRX2bMZI0MAyyeM8HrQWYrwWg
ooVCp3dOOym2Y34PjkJKJCjjCKt7EhWsimTqqX0OcVXNVitmegn9JGmRHcd2mjtT
bX0j6cjJQeXWD2YlPIlpi3KPxqHv0uLRav8L1cc3PiHtADBd6TD/fIq0xKbfhjfD
4htp2XIGgBvcwtwcuqDqBGqq8WKE7S+N2ncIe5JIxRfmsDhtq0ilyjMb73KJnySR
WQYwG9cvzFJN41NDEl7hwJN1uEjJQ8QSboXRp5RpxoCIKXEl1DOr4x+khLYFC2q1
MufDgXqSixmAadZ5dmJDjvx5jEubEpAyxp4wgDy1kQXjo4u+1+dpeNS/YtJVl6J2
NNp19T86nwy6BaluhZEnR+7XYGNiAz6hjAzWXSTKVhyfEPxF7WNus5i6tRkIGhlL
oV1Vz0L1HrmWs1vnp4gH8oqpvYduZ5/jAhQ6EGPW8YCkKQYbp0tyxDf9+LXYwLB3
gx/fwj2oX4qJ0oi9rAShZXi1M/ntnZABn5XbytEKuQZXlD+BnoAT6fO78hAx4z9M
JyEuFSP8ohTJWzZOyFOC1iUKZ+M4bSnPXITQFJrPgngPG9DsOb//6ofhAJPDVVIe
fSQAWxW+ldRFENw9wUuuZ+8T8Q0kp6IrenJgHWJxkwEn4bv33YVPvr3k3PCPEMAA
lBhrHTBU0MiT9IFAyHHZBqJPbdLer0owHtDSEJty7FdrvBdooo3Lbr43ppriyTDJ
sYIdv195zxJgjbLIlLtSbh/bzQ66vZESUnbgljf3GlV1A8Q2Q5piUpWFXaqqbSrh
R3TS5h85UbP8iAeGv9pzY3j88okYtCeQ/OeOc20rh5JXELYVAsF5kiNacQY8yuvS
/O+Qx0LVN6kJ45VkEreMe9mnNT+5yAez0A9zJi0wtj3RHVyprDTyyDUqULedDEUX
dFxapHN6+PvwD7ioprnzVL2HVoIzolQ5Y48CvlIXMpyve2cFRMikzGcfdlIsaUXK
1w1SqB82RWQy152VaRkxB8smCO+eoBKUl1GJ/BtQgL7jntlVCUj59gMxAexkfyGp
lAhV5/UfZWVcrjKm+7PWa+qArFGwY9Wp0uNrMvX12011OSyv4qkqZZR48xpj6BrM
7YxJo82LtGDDgBL24cpJWGHY1IbrttuwagHBNEiehidgppOqBKk9yTZBzpmkxCym
gVuX2Hrs9sRX5sYQErL4f2KVgY3veAdvlIP4Dq6lKnOrQbRsUHLg9HYnNKUZtbgY
V6Ed7hXQThFaXyIihiJc0c7++jQCwrWPPx9usuK925oy7PHO1gxqEZnVN/uKAV1b
qeQbeJ6Zx8FQz9EqgnUmYfaKFqEnUkmFMuZ7tNQ6ZJBqNhm0LnU3TvtS0HT8sjk5
bSFueCbgslE1acenwec9Lesv2lKIaK1uwNU8S4bxSVBDe2gFezkiVpnK8TiU5bkL
H5mBdknmcvHNyUllGJVEeR7xBEcMO3PpnE82gOpvAwxtavtCDY/RlWO8WL/4geLa
ynoiBV3ckI2quCYh0s8q86+49VYZ82qc/ot8BiVuYjk6Ow3ZPbzdnTmsAEsFt/pL
gHigTws9PDQRVXqbwFHrvG3AV2c5NoyxkgKN2YJauhOczjEiN27d/wKNIlQWjKQV
Uo2LOXewExN6yoiMbChzPCv9jw+h8e7kGwf4pmtL3uSdWMhkdN4qMaQ18VwgLYYA
A7ZvWOMkasvmlI9n6L9tRkumYAGYOtjcwXj1BMSJa9ah2G519hDYK8SvAMRkGJsx
xdcmmUX6NF1/+n5FficsLeMbyZNDCIMDgnfU0zTUQM2Gkn9HzW1dhNc5tPF/2UfR
RRkFPP62gOtea6tt7rlNRkZ++UzAHSSUHVqGTsCAEMYEgLQRPz77JWIGY34/cELt
jy7FKYRG8pNGitYXKW9V9IKsvQMbeB4cqpXqYh9jZsLNqtzvykEo9lqY459blZV7
wakbc7wgA/xGRcsySrGb91r3SYalOfk5ABWOKm+JHqhOXzpw/U5xePcuRsPF88Lb
fEFg0qLRkWVyT4lbvup8ZDZycl/oGpii8wABWOFQkd2JtbQplEBUoUd8GDhcgcmc
AM++lkvmgTPbAThJs6OT3VUioq7zHRt27MmSuqAyWogKut6Iq0QcoGzmrKlWIJCN
+qdVmPo5pLyP+DB+76W8QVNgY62q0Z25XA8jxGcUru36ycCkTXuZP5UgXJm+1a2U
DXSHnjx1ZVPESCsfG8VrZlQWhp1km9/sazxBj1BBSlglX1s6tHQiVeHReaJC+DM6
Q3B9ujUwqseQwxr5BcNwvBpawigsRrudIbhk2w2OlkU1vNsvPrefv+3wU5Gtbm+K
6fpREF8tbUOr5y3FDxkP+F2DAtGWCUmynD9qSdoIz/rue2aequLvLU2rrhmEmVVB
E7pexePyLFaHYg6zOpn2xnpoUTP2X1366FvXcTPV3+Ql6kwj/SS4IsOKY3gf2zlG
BhfXF6hgZ+oKHNfP2/ZnzQ7frXGzb9MBlfkHdJCelHPgjw/i7MUcV4Hi2lrIO9oP
XudPfEmkELZ9Z0ZcHP63uQFNwa5sqyjvuWHq501XptWSwpZ8U2AhA9utR6A1Yuwo
Fq0NIfihjDJ/CEQm5Lr68z3CR3pyW96grG6W3ZdvWEN/P5Bzq6wFWGPkoI1hs0fl
2L/NH6XUIC+5l8SITYmq7KTrWcf3vhNs6HhO7kEioA1D9XrkNIA2TBvkVAXnDnA+
uUfcbwDLpgNU3ohxo/61GwtSZzELguV8o5X1tDjCmWhbnl1fe6eZ7zxi69AJgyCC
ludIF9B+tQ6X0TyhSNkEic7OXyI5SXdp67jkITE7Z1spFPsVRZ+D1FcagbTP6/hs
+DBS6PwOEs/HNvE/XrlaLwmaaCpCdMHg3eYtrhPpiz8oBv9+zerE1qGw1zi5pQl8
YNKwo1bR8SSefHxaKbjOgiXO/Zw5STEWUhy5flH+6oW5MQi8L6MsbX4x/vQaBOj9
a+lDP2Ms88eTZ0GtIoufaoy2gSqKUbZdWbQEdUKJIAu6D3WJb+dprPPTGxgAiLll
ddxj33tDvuOj+uMflbabv5x/4kYalENuxqH3sU7uwxaZju5+BAjoXD3VCBi8JMmY
YWyxWElCp2LB7FvMaaqODHES2zZISt61vwHFVjIohqC9xv/VyiNsFBzoWKgDKnIZ
nZcKr/fkl2f+mpUNGr3MD5I/11icFywGb3f7AMJUrmWaOiRHJwcXcD1RDmehWxBF
gcI2o2C7iWPUkr8vLsZzOLCJPFzSo84gviUA4ZuaJX+1Lo0+kLYs04mDMh0fkuAQ
rA/GuxK/wz1TzaNjXHUD8FdJUAkAp64lAPEfZYRs8d8MbV12J3q5tj+FX1bnnDNc
9F670CRUwtL+f74jAh9YEV+Vq5Kk+8TsaFoyqeHRMC2FGsPwhHZ4Jqp0hr6x9ZkE
kvR0L9OkPKh4+jSUfCSajaGt6/YACgLn2lqkwRvdh0ghMGm2DGl1AJho2/j8Ptb3
FNY2HajXfXyeGVnfQ7m4aHfJZyKfnj3/t9wD88gzglN8jbE+fN1nR39gMd6qB80o
+fC+TcFy+ryB6j6KSkj4wMBVnUyfD4pSuvCYoKSoqdrPSiPdR0bnSxM5HgI5CLkW
aVrlzSooLOrfIQBMasGfYZi1zlm2Dn53UVVE88ukt7KvIefgry+0VbrTT6g6b3tV
NGfXgShylbHXW0Wy6UFARKflb9NQIEQQVrgncnchVcrQiI1KNAYkSRshijXY6WuB
8DDjseuHMmUy+TIf0UEr3p+ZkhmlM953KNommE+5MQCg0fsYqQ9pRVjKjn3BR+Ft
OJPsEdPjBQ17kXc2F/zK4Gyu2dgmegafQy+O3EFQPf81JgBd51nbO1yNMO/dBGdk
t5I4ThuHYq+aawLXZlaEMbZxjiPe8BB9IkkKvJax646M9Q4oHU6ZVz1DT2mUmOuu
HUjNvB2cpbqeik5APuUDmcbEMe2RsVteoSMoyEcZfeT6C6BhRUvhjW3iZec9HX2B
UTGfV0SspR/SH9FEprxSv30bFrrtL0q2Nvm7ft/fUYoEnFPDFwNYzhRBH/eZLGyQ
ADG3eZo7lBDTt0vnSIc8R8gu/Bg8XxyR622W354VLzvBy2S+3zoDJO9Zo31xzENK
CmnZTV0o952zkes/Tlfz8BRLabSTK2okH8MaK1iilTAkqkxdPdgMsN4KJz+q/RdD
RtWcvBpfrAmMO/33G5p9cgZw4HDaZDhjJdxULvv6/Gviwa8FVFJ+LL4fIIC2wz4u
wavUmK/+fXQDgb/X6DMw5wDMIyaNX05d95sh7QD8sBiL4eH5gPyJVcOTEaPfBjoE
z8X6PC1SGtPow4OPCk9qlnDI8H+Wj8IyO4xXtXRr9POsgHKf4GBiPwIoV4mZIujX
5XZs/+IFLi3aGmGBAuteMOAoOkRNk5/yor6f/sPd69kGViFeH/ofZycuxtAZ93rX
U44ij6aIRoUn1PrnIbVUUVSDQjvmv9c2STTyxQVzBB4Rl0/aPmFbr1OAXXAQeP3f
3/TwHh1HNVudEipvajE8dMTmtEXDyU5P6BI7hHRp8xKynVFiswZE67eakDO95KVP
6M+aUCn02xoj4M7kBYMu7sVQpzB1zh0vjMnYzh3cwOOiPINWBokt4UlD7pczp3d8
r4W2rs7Uza0OqnQJVLsJqDBCplh1CcRMhLWHQJsDMZRhbBSKzdQ8FlXXRvMjfVVx
X4n8QIadkIQLKphglZTyyyrY4io/O57nASdLB0VmoLV88gEJdqyIKKkd+9sLZtig
YQt4h7MyHa1lHhvNJDWkOXfZLYpzqR+udxn04ARe5CP14I16/nsuxlm5mmOAkhSi
DqVyQAHGYcnoL7TGgMx7k5vIXFJXuyGvFN6fgELvOfyBAn9If/6VvqmJg9y50cwt
niThcq7as0OXM+HNmXTUL8Q2H/GjDJm17bA70Z7orulSIzTKwjsULSpt7ivWB6RK
eCd55ZexiKhep28+unuLj9tlCPrzY6Y7fN36IwIIT+eA3xumGbz9Hp1vvK+SDK/q
jB/J9Gg/HOWdqmceCLI2CbAf7bO7iA0aQhkE13gtbcF198aJR3mjhp20hQx12aGM
K5CUy+lKWE+PnpM/+xSg2kXGAPjLCeDqYnRov2+XM7Ge4qo0jbdZzpGDE1qe/UfE
5afSfE8We54l6g4cvFTn5uREVvfhiEXf4nLGhlZfXpyMCuEKLP2/WmCq2B0q1dQD
LYm6XBMo43++01nVAvrh/Z7Iwh35qN9rw9a0FSEq0Wmbs8WNUhXHN+9btHDitQLS
wGGUqCb8L+KbbAN1gqYRoND4vUkI7FeJzLxOJItJhIimeNdSm5toMzoapVemFs3k
gtl4DAuPJgDTuGagxuXSQptBK7Aumj/9+kO8GyRy2TcxkNuMfbc8Bcms6d9Rd8hk
yCJHnxCoPovQyYrkJaCMLDLgE3ulHVElb7axVwPs2vBmVMVkyJ8dGertqyQSLU47
1h87/rJK2zaJoGbzuJFVAT3dXxV6aq6XvSzer95IKcnH5w2khlGPMFPQFhcWWP/S
czIPJrf2YGZYmxWmKQvOyM897I9HE0WGUp9tzeryC2I8zkry7TTrGMQKRKd4yxHT
GO4tS9/FCXwXq9EioDn8ZX2xloeCesnrVL7fPuuWkawDRK3tOxwdCgh7ftDCq7cv
tgUd1fGKvxkg2MdywmjGdKntGnCSMFr5t6y0pmVtshOuRJVGYC1hsyfHRCj8n03m
a4Svnqm49v39lP/EoSbED4XP5iUQbwTZ4wP+GJLtDsrzZKA4f81VA7GgqCztF2ht
IsqS6AxUvqjLBY2wQDvPjBRoRwFjNutL1dTA8swV+UqCkDB8n3d8Xz3wctgZrIRO
ko52g5g663l9Zp5NskhMK+Xl8ynm1nQdr0it68n/ITmOY6+wVU1gJISfpRuYZNBW
40+oo4JA5+9lyacTiXlF51aVFw6vlxhGjoJnOaxAXvX/2eU/gPWnwPsH/GgsJsqR
duocGgmeUxr+7/FjqT5HV0ldA3ix4Imy/LMIVSaB3GG8Ws+eKtDKjcWvrEcbbOJb
tZNaSUn8w0WhJ9vh1iSD7ikniA5l1qUWErtSrQ5Ya8sWPEkEhQy4mbxkWwPQrKej
GeSSO3t1zrhQykFVrJVAj/Yt1hacBKMIPjCC81nbL/z+VJ3J4AS6bH2gmAJ7vMGs
aU2jLsxPeBFy+ETAlZ4ry/bp9gbAySQIjW5zkxKRhJnDEX8M9rfS5i7rG6Cw+kv1
a8jHpuq+i43Rw3Pgk2lxOf3vNMdGKgSO1IOpG9Rf4e3oRE89Aiag7xRPLa18iLS4
vIabMvI+fMtQioKe+23ZtUC88yqGFANVmdwhvXS9yf7pQg2ZZ82VDU+Bgxu905gp
XD5i3IoN/OGfMC1TWBdRAoO37/rV3/oOvNNYu24TNxcnH5S94wQosZFD//qxWi9a
fep2MjJXHXS7NZqh5I4JgCfq9pT5DLPg6x2i2QqLM8+qqG+ffSj5+UmiWBWH59md
2AHOBcZgtXmHbutIw6NF1Q6rZp+OvACofDi6nFjEdKE9z6Z1Qt1+H3BzATYm3rL3
/2dBQi8CSY5ac++t/QxCGiXV44kHkMeG7AWOxv9AqewZA/vBUHQPcnvk4v/ee1aX
iZwrvHy+aWXebD5Cj7bubSqCin/btbRwln/VX7vQg1b00IYwJr+mlYCNi41hr8rv
zPh5Z9r9AC2NOlD8d80uHZIM9FM99x4biyuibXlAYOcTqBzBhnamL9iS9ni7wUFf
VXAIaDO22LVc5HO4V6pJ/3DngEz6kFquN+sUaXTl8N9Ym1vKQbCTCS8LdFzsMT1F
axGgfYoJPPMXW4wEnznI8s5+zhFfJ56x74WdtXDp1NAXiHcvwIMs1Jg1vg34G0Hq
M80FZWZpjz4niN0UP84xMp9VZfR52nEqHF3uCQ+oACMpDjPJ7dCBnjdI/6WDCUm0
QYsEcgxSSbWv9cqjOHh81fJsb4qR8wrR+VeRhRGQUhHxbxO1Rc/RSNET4m68ttqW
zWyA4aEroB0Ap6yvHhrgxClBZww402VENLYtdBWQD5biKLvw5ymzwVq5KZdMUPpo
Y7G1sN3EHlW2Dlf440lD3eu/epzA2RrAJvIiGWE8tvsM8HMLUhskk0FKXl+Y6nUM
Ef6AuiBTtr7bX/P4/A9/3f4ZbAWYzyLZVEYNSXtszRBU74014xbS+SO3fHXM/4EA
kHGOJQagA9yAes1+b90dfmMumU0zuGyoVLBzWNMIfcZs5S0q1l0nsobHqRWz5B1D
847Cge2E0wAi1EDEg+iDkrgHkhFHasuxIOVGPuw3krPjH6dExah27AldPYuYNNzK
HjQ8PKGzH45uWRjwCsZr290kLL+fMLnBxIwywPY1YG7U52cYpxLtQykkxOO2uK79
WLQjvTXf/m5Ej+yeqNcu9wId2yop6O1Cpq70dxv1QQoGsGkM1JpDwu9+UqUMutV1
660zdMWIIGW3vh26DeyvxIcMt9msZj42cdSLJDSF1xDUyvjqIeEyHxI6/jbe4xeW
2m7rYbIxEVR5mfSei7f2m8U4Hz40wCXgvIfW4gLNIr4EAblKsPYKnQaLEzzdlK4x
S4J7XYEXt8w0L8ClkDK5QgVLfDvPBTwJAj81X3B5UXw5dj6knb3jr6AHX0c2ZO0a
Qvg8GH8X+mzKQYfwzseKnSO2k+YkHiVmipWXSQ4hwJu8TNNUmetWCG7/bvH1nV4x
uj5o08x7klzBRHtl4orubkjDuRtY1WP1V+I9LO+z0nWN1T1j+3U7YlEFcy3O513+
38tjSlebgdsigkUqCa2ikNeioQNOBAx6q8x0ZKrDEvO/gfuOAfcuR2TXYK3LWEjh
AbxBC55GSU+sfasWq4TJAkk5EAejSg6ehqlJyZD2JkthZxeyH9CGs+zQJ4MLTxGI
ZBiaV4UrcAjJTkTVokWOVH6vcgxRw+K61Nfj1svsHJ1uWkO6tyuXzBaHVYMn2DLr
kPvn6uyDf/aYQkGXSKe6MZMbN00daZyKCK51YzEIVy/vlSayn452Ey9Ml7lIvTuC
Ey/5uTMpj3vy+rZcdq1XZB7p8Pu/DkLupiY6fYPjqQ0DprcMOx5C3yLCQjfLlU/h
ITI+h5p3DNbq1c4v6Sg4Rr3dfUY0AAXcu/761h1Z+ntZcvaRwILG6T84sHjQMyai
HjJzge0Tj8Aj9e/2Nj4TpUieuRirkm53qYGjnO+L9zcERbESdTvLnr2tnEABwxGb
BhIUMfU/CLPrJCJuUfmUws5QcxL7LzzWviK/fUDLvavZ0xxi70eAmOJVoOE1kuKr
xO/JJaR+pT7yJGLLxzzCEylDbNmuioR5BEREUsvoKkFuGq0MtAjNVxRUZQBP5ISb
SsLcToe/p1EQLYnTamJTTCEBG0wamSjorUkJOrWggRGHi7dmY/bBUOFIPMsm+oGb
qgAwoJ0DvwBWA6UHgyc9YtC5z6TR8bcoo1KHvh+vkSnjUDDmhdwmj/izeXaStx/S
sV4ePeISVcZxrATP9LoPoQ2te9RU49Rc1jz4bZhQ5rjmlSa8f0ItCGS5RjFSfynk
CrVf9s8BRfbMtwzivuIAqRCT1xNiXFoUYdj1UmJN+fRDsvI0ALDcI+fY513GobuR
uPwdXesgWl8LcWq4nLiLXRsFgR57likX7WNf8nLQiCcW31FmayDofcCsUoLLUhX+
/sCH1LBnHQSStCplyggwsnRKOJWcSiZVuYMa85TQKxfxS2NzBsbvRrb86fCgJexn
78StisYShFjO+ZFJVJirih8aKTJZNGjoJuotFxzgSy1wDLTFIR/K4PxSQhLwB2xh
8SQ4bAeGFpd2yJLAd4xmJVCQ/O1+Lwh50/HZjb5wO2v79JLgsE5nLef8qeN/Bye5
U2hp8tMtAIkESjTVgixRLJAPiWXqXTyiVEJTSEugETXp53zjuzqebAVD8Jg+6CXY
nshWHezuXD8/ZwrO0eNJzD7oq+QO+/kP9O9eBaHszKZRJvecdL19vOghv77ARiS7
wHE4BFYSAp11qWQuN6uM5fp5wDHBj/OiSAE/t74XLJJ22g/szZYNSpq1SKXRCOwx
xnDugkQNt/cjn8sXD4godghgULMlz73lu4hJHQP2TQI6WkTZTJAICF6igXn3UcEI
CsQJzIC0vaxLTtyDaJJEB/T/mSj4WwiBcGhQq2Cm9pIahqVnPbje5MadihlEQ0Pd
wR6LXOpGTrJqioIyXuXzdbPAa+9Q0/pim6IC/GRqwnc7MQmgASoJK6FvtbHT9912
AAT5hOjQm3GMk1nKHt8G5nE9xesa4vh4x55tcrWfmInDR/2WWAN3phv/CYwTnH2c
5qcVAAZxRvUQarYIwQ+0HvnEOfPF61+htw8wVECQaZg8qZ7SIQsWOxriZpwk61zd
drKdE8EQApucg5d9Ob25z5koZoMNXm/a/t/gwPwKmK2O4RQHtaSUtvYsljgj10b/
7tCOWjus+RSSEP+NuGLXuMQjLtbIl7ktT6fnUhZpVjcLDhpS8w+h24qvpmiSIElb
GZ71+6i34ZltLj6Faa1mRtNBOQFNSA1viOBORwKoHPVzldZRDBxU0tAcjuZfRkPq
v8OGbXiumKmpfEM9I2bhUBOICrtjDoP+rAvXf1V3bZeNDu8RsQjERxJ9Rq6a08zV
PILfqQQP3dhUZHe0gsCUbR4wwamxw7UXF0I6+N1eYZGodl1OVybd9/ivQMV9jmrD
T0s4+reGi87Fm7W/hYBD89u7GcBl+WcTaP1eqH6B7jNYxD1BmDEmen4SCbu/l/BH
e73V2P3MLDYv3JylbRlroZ+ZC+vtbH0bcQf57hGDWeKQotfLBeNdU/qLIQbonxyA
EDCaOArM8fZI17Xd3kun8BDDjnX8rcFAFLVdAw0HeZB5XB2pxMDd0hnS795EUlQ9
hHElcsY6DjMdm/8Nx5Wiw79eZII7miWMkDa1MZNcKUEZkbDCBbOjVQNeW+QjFYfD
RWxuIRTrJRDFz7wkgrIrxheJbIzQpmCDHG6fjvKPdUjQtpvnCV3LfrDImHVMVkVV
cvOGKR4ChE8LxD7tMlMl+mXB6SlKQPOcDq1z61tRHBWQKO/LFDglhlgUkOINianL
QXEqyxipUEspszMWIL4qonDFqAXaFCa/81n3+OFfA5uQDU25lXhY/X69E8uROAeK
iUFKtLnOqHZ9e0D1/T1OLzkrOFbs1acrkGYkZ9+Ki7wOcQIrUrsYinFTHofnN4Op
9ThgrZZALAX474atg7u8OZ4BINf+vTToh3YTP35lXqBJJMPDLhw74A6St39UQ/xN
p+ecGDD1aOh7lsyZjK+zE8T4eszSdhDytho6QNujC7emm0YEvqVGQpVnmYX/JZhd
ZHnmJxyLGmCn0TUHKtWqaNtfF/P/+N5pgS9efjgbLgv1T/+oACpue2WB9SEof9WP
s4XPPUb+t6wsg+Ahgl4r/vzHHZbl3RH9B0Yz/qxgnHdSUdHfMan9wxSsGBLjT0mz
KTWCa6u2sUFvuQR2ibbPT6oMQBWeL3rCHavdCHCzTypnT1nV8cngm6hc5WK3oAs4
0w7Ry8rXFPZMHIgRW1bB0VILf+1+pPcuT9nlAFYddbX0FWVG0c24bwkMB8DPrtl8
trwfGBSaE7+SjagFWrC+pMO75jVgYz7plYa70qsJlJPWi+ex/u7pL8CPMTLpYcgr
jG1HgbLNJbGKJozkqQu+e3D3RhASEPOu7l0qMZqsPiJK+bNqZi2XpOYsO1HRaix4
OBXff+9174gWYirVM6LXg8JB3PEzr5NcSVRRrgl8oLUQS5paVQrLmSrEICookDxj
sv4qvJLIAtgqQOjTVlisAfg3wygRoDZi1HLOiSjns6BAHePPjGQRdawOmC8chfsm
1L4SpHRHmjsXektwyKgc87+TMiHL8MH2tX+IC8yfjTzvnAh0vaoeVOygG+XQ7Yi9
Vkxyn3fOAEvVFBuT+AoEYKCJlrKzpv/L+If6Jkd3RQkbbGbANa32aXZ+luu4bCgr
9mDoUU3A98GzNFGfJWvh089dd8AwaZ+YFMVcAm14JXPcR5IWOSyVohtO5b0+qhJG
m+XuHhZxs8R7hXiHxLm8PaFkPLdKga+7zCjkx653dZzruodUUP318D+GqTehwMmj
Z32V+VBNygQjwCjLxhg9eg9xO7p9bBQnvQDbV/pcR7vOOXczwe2Z8yKbFolmnes0
94hm1sSuldC4gpDJFIIpjIi1btAb7lbHdTCfnwbxnsBzFQe9IFXEBx0BnvQHS8Dx
kqh0PiyNUrKeorz2YpagFgXZvV60ikMoseNkbOFhiPbl22GVVT2jj3UDL/r/JHXj
IEW4s8bt0ySLeBkBniVfoguWjOgoAJlYVKmiNCZTdMSquKw+f66nPXjAQjZ+idsX
tCa/0PMKkZ9E0V3J1LCWo+uTOl3NtlhIADmU1BfhWeTKs1qTkhDUwfzrxYKtTt32
dClvq+0IRqpBZFYJH8A63eNhqmPljFjeGvMjgjjf/qqDtO563B7izr0AOeke2cKQ
A/HT5TLVn+v1ZPjDsNbT/1DMyqTdg4iLWBLk5PrytgvRL8wx+3H5r6Lh5SvNckuV
jmmP96zN/lvQG/3tG7VJrtpvAQH5m0X1PR4j5B83lOA5mxmgaRhLbM81qDSAYnzG
VMbe0INze5rj+VklqkYLNXhpkh2FyQ10N6XSEWwfHDQumxwXixZNy7GOSY5ZwjoS
ZmMT7+qY6ngMCswm09DF8bBerIH5jGSftlkC//5hDW8MKTg15t3wFk6VZr2VggpT
+CTKLSteb96wSWstHtEZrTgRYfLT5OBPetYyloDpPGcTZMPsaT6ZD5ZbyErYXRcu
1YDRLAZoXybTdVPlGPv4n+9ynMi0xVoHYx+XfBT1qbss6ohqsWGFbU+CCkOlvVua
75svWoclGdrrlCoDd5ELE+OStq3R8r1kSt0C888iFYYV9veVQM5fvoqG1j4/88MV
wQjmhZtViaXvy8eZ4Xm3gI9tkmxdarX7XZbdnM03/j52m7xVgrbHyCUUzIvEJE9G
/3iNIup51ljQnbsyHessZSsOu/5FUI0aSngScqDbPAjRXd568RMjfBToI77IoOK1
SE/29pUxHAIWQ5UswQ32xSTIzvHgiOBr+i1lf/Sd3QiBecgFlDO2ISeEHM/gozXU
7/K5Gb8LuXTQp6/GUNbmWyVuLD9cgf7iGuNes40zBhUy1T2tXy5iDccS6V0PE+Jb
JS5RDmVMcHFHmRN3J7ni+zivN1EbhMmMWB+ZBUzqh3RkVbRIqmdQZs/E63xBzTiR
RJCf5RACX9lRZlIbo6Fj3zdim7xdKVmSSW6OZ0uFWYgDLskVeQQ1RZfevEr/EibE
uW9/C9I0g7n/uL2NeB2Ie6HC/pxByfkoZ7Y/9x1FhfQezjQo+gYYaKNXOLCo7+Xc
ThMl5l0HnijrMTyb7IXPXty+8tzZ2R3abfWaH+X6pArypMlLU8A+oPLnBUOa4r7H
uqJGBq7GHK/smV8Fme3Yn5g59Ags6J+4q4d0E7HXcHWqcKzUCLaUwN8Zm/ykdhgi
pBfiGi+ka/ZU/CPdRAjwPuvtRXSLPaR1cjZ2gUFhK6YcycxvhfCSjYvwfWxlWDeH
cv8EkqIIYJIDuCAKB/nJYu0/+/UbqC7UrTzz4sa1eN1D+gr+1tp5eFnjCRO/Ja1o
/jbbF0h11zuUUOO7RviOnLUfma5UhRxgjqwDTDfffW6sWAROi61N85DnmHHhcyIt
iJWuq89J+6HJ2xNvBmAZrZLIoQTFLdovFbiLM19SkWfE88L8iNglKKIAOIl/h7DS
c+1KKb3TkuckCxex2JG0pbTNFTsFGZLHsr+N031+a+dS4182BFWPUcZ+0VRY3Urj
eHgsfAFES8vWQXpdTFNde/+bYnop4SAJfyYNLIDpnRlrqeKimKBYxddbI3QitGG1
7VrqLAhxQhWLkt4y2IyKRC9osBJdjkRuDYa2bOrvsOiMg3DV0dsT3Btiak8/ax7Y
+auehCOQtNSYppo1fVtXE2P4L7FKEZeXUtW5Kvjxmpv05IOh2UrBqKVsH01CLdIO
+IIgoO4gxLHwS13l/I9xHkFyWr23QO7GP5iOboG4rtOafefaSuFWtTSHZP7B1iSs
YxEfr243+tangZm6wegsO+d97Qy17bpEVUoge7Tl7rj/7U3FpoLIDofuwNBqo98X
yhW6vZkQiaYe/xkb3StF71xu5LXg3FgPfILU9KubmA+BF1tqZnP3OZtG+ZD899n9
bNIPt+zwDzYRRq25dq7X2kT33J+dZRkUq6Of+KUEBY7sUtHL6u/nSjpAWkpROjOz
1uI9RAl8wV2u5vC86+TQW6HD9stDxNmJMyASPl0M3PBJ+Vs5wkF3xlTEVaW6/u7T
+TLsqOPNzNYP7H6AgB9vT8opAwf27fchNEE7iN/sVDKfSXMa8RoLT4qotopLJTZe
ojCK5dM+LX8dQGK+urZoKvC7FhX0qjxHb61yMnSCjQZtIeufvmI1Hj5tRlKfGSQm
L57Y6GCmkLCCws8FQy/6Lxrb19C51nI0bWKMWoPJCl8ov65lG7AQC0hh0KHjGFZ+
NW+oeX4YpySzd2TcIE8ItVXeWMBLWkNiZV8SapvkNCSArTYQ2BVbyBftwRSRIaZ5
ez97z5pEO0IG8JD1hT0bwMmrahKLa5eaVOwpJ0/rgy4pFiweWVkx9N+NaMcRllfs
UBENCe3eazYcnQM3teI4WZPKEkdAAMatOhIItcIXecbRAa+BIVwp10GY64k/xfNR
lWvGzL7YC75G1smVXbrH7diHyk5otpk4Vd4PwL1rZZ3T8Q6VesAuSBGU7QRswScw
+hJNd6KgesZl2NCoyXOmGz90G/sQusTWGHc5TuROufxapsOh17yWcVgU08KH364S
DnNEjnlF64oQuREu2mKa9OlO2wjl9p9QakMAGkIstqovUGjiPa/rT8pLCK4LPUCO
R9xUmlfp9FuYi+5yB6Us0IWd+DYpYfZ0cOKq3AaxkHQyc+bfyx/Do3ytdZvQ4zIa
tfczTSzHSlsxr/oCNia4EGC5bQBOV594C/Nb6xXuxYK2NVW3VzZpEPV2JoEd5oG4
U2aEwKgE4pvj33Vz9waNbJH4l2VZ5Le4PX0d42PWWY+sHthA3FKO/4AHorFdOXMG
N0oy3/7oGAq71s6Ybopiv8UdXjxc5DpnhYu9RrQLtT4QoisPYZPVvqrqT/mvpPR8
zo4TvW5/qIPpoFvHKLL3f1A/qWNQzXYyQ6oRz1BAo126d/W9bxGWdUuvdPfztBqY
JaV6CtrJrEJsZ1stbyf8+ChKY6/ubZYPq165aJf/7o2c3PWePhoXi28kuVVhNb6f
tOMgKeCaQ+bC2VZw8OCSGJQCLF8Qw77J3MNUGoGge3HXV5n1m/cwd/+3e06NWL3k
vhqqcZtK4tiQUYCBhpPOqcJ/KhonfCTrhfg9wy8Daa7EcEedMTiA0f3+laFmDo5t
riBgtsQZ1t3QD097TNkeey2rNyqfvy0giB/zCYY1a++sNkD4YHmCnbnyx9JIrXhq
iHm1JsiDka1PBv2ZCv7FM5UNxoVLM6B6DwHaQhByVoj/tWJ5aGZb5MjNy3u7M85X
vQmHjom689Y3VQLhy4wZeHKPcpoeZFetJ5OSffemRjPKsDFbA5Sk7Z9kK3c5XnvB
UFlQaerZ0KGyWlw7KtN8hqNW30nKZTPmkWZSH6aFdAdzpjm8/Mbgkd+Fey13DHau
AgqmxqVG2m1lYb+zUrzkFeLvQ4Mx68MK5dtLCxDiKMV5h6xgAizOP8mV6ry6PJ1P
MfVd0nY85me9vo+bfVyLfFbCcyu54DH4/sCRlmc9FXRRZgxIwCzuo/RsZODDOzGa
PoQ1M/SxLBsu1+pO3oVJBLntjhEcWRMWk/xTJOJrapRzIOetxBlbkGXmPf32HVWG
cRwkm2Vu1FaLoF0JZfJHoKgGEIIbsLEhgZpU0rIhU7N3a+KsmxBiXJdoVOgL6Clj
kYG6iRRGsp4slIzE32645Iu0vd1paT5emILT/v1mFFaKRx3TMPTZcGHdXlfmlry8
WhgA75O1/pIuSFowKEbkW02ip2meiVHvx1EhPy8+tYdr6wN7cLBAcWkcOFXuyCUh
j3vWtjJ+ipimP1hnfU6Yqf4Khispdogsk4Sre3lOflX8aIatU5wN1Uh65EHzQJst
Tcw626dQr0zehuyVKEnxxhCem3Qy/Foz2Az4bLgGcXpvHheBihfv88r5Ow9wrUU4
qdSPEau/MAzmG/VFERjDBQsQSGyFcGfN1bJ+ouQ30Hn7dcr4qwmb55NJW5KByHRr
tBHzIan7inZKvI1mhLwZVPVSDcJGaZX80mv0srRdif7a1sQNo72uLlPq4//3ygr9
Tjm0ofbWZo0aSxwbrQHIzYHg6VmqondHemCdIyZ7eAiWSgb//jM+BM5NeTlL+aZM
hMoLoSlpN5e7j1cYQNMpSMDlG9yyXrKa78mLpaa8yUXxcZc0qkRUU5oveJ7kI9zp
c5DNB1ZRXY+lG0YZUiQvXQU3j2NP6aV90+FdnSYDfcePfyg1i99+Fcbmo5QcMVKL
S3ErkgT4LJ7SN+wj2vHJO4Po13BiPqR5MNEfSu7+/MBAPhn1/aESjxLUhmClBjo/
Jr+dj9/W5Vo76sXzmMeWYUjDfP26XCzHV96mWP2pa2IrKltcQ0Ww/PRt79izbhzA
RdOr82UAJSd+aoJxjCizxNvIP26s6rSV6g5jyQ81HiWpW5aRFYImPJbIQNFOzoZu
hXkRYV59lA2kq0YzPeFwR/oksstO+aNXhiQH1hpcf3TBMOxgraEJMel8LFbpdSr0
xsKx8+EFQUCN73/zndXWCcU+H31GJ5W1C1VlhM01Bk1MYdtu6y6qQhYvN+gK9OKp
iS5Rb5Qhfanv/g3o3ffyAfpKyxQqUQZFnUPajme2yPaLHlV4JIdzG2H1zjZk+ZfG
BWj+R/n/7HGq/TsQng/k3QGtKXlHpsl+8i9AFy+XSOrNTzq1yKsXjJDYPJLz8VUd
ACOglcWRs1/2ejOVs2pQ11qpzfnpRJb0x0VQuW5NLMUMeJnvCgDmh6u2Yf52TZmv
diDxDLSymp8mBlaEk7DlEhMpUnNM3mOgdG+KTcJ7VMaQrke8k0uaMV4bV78588jE
GIUIU/rIX5hzdamuXfTwOdwo7SGHlH9XR4/nWMnxnTnfENvUBrf/tgeatJU2kk4q
EQ6ki1ZZedONhgSIsuw5SKs9mOe1+ev9eHgJmdopf+t2ZZ8UrEKrMBZ2HerFV2Sb
RWeM0kWQuy7PDh9+L8vpkVERZgy1yuHE1UOER2NRIVS09fAYB2tV3GekirBNCIZc
fPASCUbB0dqevhV6DmsPogNF/6q3MIvgE5d8ptjhl4VSON4KBFaftTCzYi88tPFr
j78TI+br5JkPBJC1U+/8x7CYRCTgkN9NVfaBLaV6enBvuPtDjx2yU+VXzU4NT8gz
WknF+h15c0KyiRXv3VrqZPqVnFRAGZOs5jh+swq8HxBdCCeL+BwfGi8AGDUX3fsA
MTZGTXD+4gaoMlqJqDy4yoRoF00dyoXV/VklQ+dsMepC5QRWaXuqBSQeqVsYc1cA
i3FQSQd2wQuwGiZ4OxJzZf/6efRSUGR+4RYQ+oaWP8JbKBNEake3pIEvfSA4WKS1
z485ugThwM17Ops28WFHCiQMTtqn2Mxm6hi+GUfuFO8SGGef5bBA1xcgBhMbEi8y
KGCVxZPb+cdBlQMkQM19ncj4nc6HJrKD8fjK6LE0O1it03f+G43mwY2P8R1azVXw
rMYFmZgmayOE6zjzi8LDJKlc2bSRi48XymYFp9ARLJxf0hzruqUGCr1v4pT7mwNN
J6FHUVox410/xSJVHEE8C2ehBXz3Nnn+J8+8fd7xuARe8yY/efcMo6xBQDm6fEq2
4Gihq5UYtI7cdOwWDq7dQo8BLjWTW3mf/uA5GL7KKoxfsQK0IVCsz/OmRDjP7J+z
rdI6I15oCknk2ldf8MBQ+9TrzPlza+0BSKs6M87pqTxCC4/Ksi0xKvPTGSnFAR09
hiDU9eZkf1TnGVss1qaXvInU9u0lHf+HmmKuzhsgMavISXLzlu0DxMulF9idiqa9
6aOp5vWdL3ACeQJ8Q9oLIfKje23LzhsXuN2GQ+/4NfgSgX/SieQNoEimwYba4tON
xBoPRdyl8bJmT3VGziRMDG1SzioBZiaE5lSizwO32reeDnxCaXE4mF3SO7qXeB3u
52S6TtjU1lT/BTeExLzejwvQs40lDl3oH3DcLzFwbEDIz4tftumg0Dcb69l50oz0
VzpNsknxZoRH6BE+u+KCVO33M88MMWdxJB+lTTSUOprzs0bcK9pd+rxhbScxZJXj
G9DJA3+mSHZzrsnhS16QzgHeMDuhiaZ57byZ6264JYAnfbrcGwC4fX3LYReUGGdY
UPuGnOpxQgWingkWBNf2PT5meH2LR+PmimRFTYcw+gtBp0r6vjc3XyGAcg0i+7QI
fIcHGCFm8PZgJ+NYbV+inZ0gso2fXs4zCpXOflVHn0knwIJlPNQCp0zdUUYYs6aC
YurGB5u0FoQURpC961ZfqT3ez+DwevLpl8/z0vQwWCkGQYoChPqTnGuY57RuW3F0
XfhvxgIGQRUslUrVDuYNJ9vlbs3LpZ+/EtjEnBisHsA77GV/xAR/yvHk+CZfw9Ku
ofxtUINRR8ZZBzPyxvvY7SjfDyoJ4NEddfCcusyY9ukMo5pNlDnz8jHevIv2r0Ji
uwhG8Xd8vfLJDVNvOyp4bUiNlHWmDHWLmsTtbJxu0XxzauddSSSti2fPEllox/sS
T8PlGiq7zkxZKq5yLccCmIL9p7kDYmHwb5LqMWOfLyqHR3viiGak7KJc5FRLvITr
SoQ1RuK4+l4MJj7g7GLnK4y3a8XR1zrq8oTP5pV5juZdKiG1xguEYdHwPID/1AQp
mhK/Fjh7UD4o+gzyodXzdTkN8LSgQB1p96U+P6QROW/wCnAIzG4E83bsSRkUD5kx
rldwAuk8G+hcp7NoBfbz/qRWDGBz7gL5R0MafRj1ZQb9Ycn8zxUTBV3UPX2QdGa8
8wC14TSYy5QNfyMYzuNdg1oyW9FK8V05Bbi66XmzhV15P9obbuBC+7a9JjCaN/sS
A9Csk24iw03DwDrf+CgC4BhoY/XC8gUc5wZX+wyD3A0tRhrUXH6frjMICzDVhYkC
zaJCyAxOMb4NuWDaHTZ4y3J8DQKcQows0YOLaIbQqiqDBeISRSeV1tIYGGG5hbqF
zuUMNfuiYc9sALw4iTtt0gQtMtMipGJRMNCaiBZFmQR+Wy4Z1TWyExyRJy+VLZz7
oaEelPltnIdsbMya2N0ku3K6vXR2nw/vHXuMGTU3G08+Zg+XI5PWGidxQMyToC4D
gmM3THEI9Msk5NKkEL5cXPb7d/HB5Or8pmxRxVK++9ownDQyWrmxOI94HVLkhTdx
bJ7RPM/05xpssG0BVx2Zql+YWkC2O6v5DC+nmzd9VrP1BJKYTZTrz/lOo1+/MCul
lYogWEymw7iSfIW2zTnFX0c/+31MSDCUPMFNA7FGk82fJaudlKODZZHSugQCYK4W
gs/RqhSaWFCu1ECKDSIogi4yLHkI3IKZzDVTy3ItPwLSPMLQ/lyKsvu37sarY97E
QmmFJ9tC4e+Xo/bcZr4qSsDJsrEYpmChe0oOOVqOIK6aF2tQEKY9AkSRDRfBCPq5
FoH0/d2Hb6wPymF8xPNfJWBQC09WY+/kceZt2rJXBYDhRj283BXwH8R90vTpG34u
iGfl44f/2VW1cFhq0fYeWPkAUE7Zirs/k4AMEcT2RzVBEI70Y0+yRkePwuRskk4e
BwOMHcdJKPlc2Qpg0qIykX4uc7IHf5WJA4u/L2JUqPbtR68xHXN6v3uUd+HFVLbx
PXmUfHncMu62Ok/1rRskTq3GWaGQFMmdeTgixUjCt1I2Hy4KoRP9BB93rty/bbcg
mAIVKbND12xFPxMBxvUgghBOVASZdo0vaaOMyd+CU89IUXjXHy8g28vUuJwaO7tN
3oWFQ/BFqCTRdsWkh2fRjF/N07YiaayVMlTm8Qcr/eQUimkcwdi6R0EwNZySOIbv
AQCB2uhL+PHhFi4rw++Hd/gxgbAYeBMqC49bG+lsbC+en9pN+b0cCO+NKZdu/ryS
prW3ELU1E4rjWoap+hMcIvTCIpokNyDedQi2AaV4mcAkey6wAgLNwufMKKHZjW/F
qViLjzkyhkECJNUHhvujhwJORDgVzQCCmYrCI0eiQKYqd0zNDAFNlt/WqpHtMAkS
miUK+rwbo9Hik3erno/kL8TxkD8tyFBOY9GeZFid/fbIbXi5at0zZ6ZNYQoZOkT5
pXh+CnrpLIzpZKqni/x37dhs1nfzPZvgMBc3L6UXmuSpke0yHeNJ75UCgmIVNNCZ
N0skptr9cN2zkRb7k1qAKf/+Mvamol+OjsBqIagl6WVShC5CSIgictQBybIgwvKn
ybP41fmgB2BZT0/jqqloYNuLpKdw+Bz2txG8U8fG19S2fDCUCq/H00D/T1TTsa24
plmjUZdc0FSs+C0+rv3iGGmlRQBYwR8uLHT6J4GggP44wyPl9ihyTU3oEKTxEyeL
jU1eEBFd1Ej4OVbVGPnjVU+VeRoeiKggsPH2lCkzU36exYbV08YeiUG9B6MRvKVJ
EeWBLf1pe+YgwJiOEXRYcQdAjdt1KtrMcPp20uDisFZJ87YKiS7LF4Lz/+yW1OGj
yL6p5ztG+kBhpq/PsPmQ/guXV9Le9UiF/BaOsUcmNvMMYasP+NJsnr2Rmh8wiEd7
36yXhpjbeChu9FJGE018TEHhLfCGz9ZmuEGxBWieiulM/MY4/KCAchf1lD4zwjjL
PiIbwwmN/TL6Mw+DTW2rZzEdssqAy3zbI9bvU6CUOsASpl2hZH7OjJcnFzIrHf5r
mACahBZSzgt+1aR4gY6cOfMn/NYhfyW04o4b49B4z2I0ST4n+g2a6LeKlnSfFepR
iVD3CHZb1cRkEm0pifZNtsE3+q9ekgVLCtDEmyvhGL93Mw37Gb6kfVRwmAWu8yyx
kw/gVXUPHPZq2Kie6FJpuj9uZ9mHYzAWrx+ThQ3PoaS+cbDI5q7ejm0Z2UARKjMQ
+6qv94yO+gfyOKenHyvB3tv3Ry6i9s7O4vSfnDn6BFQxSDVWY3W2+tKzwK7soXOa
75JXMokB6HNxuzwZt+v7aSRPqmLjleOyCtgJhRQcF8n4cPKjMzEhnpEn90xeXjeA
JR08yJd5I5JpMYRPNeWe0nYrDhtDZZrWanDfla5eKb6J+ndoaKcb5QX8wta7TNN2
rFt/5qFxUm4jqHKjW5dLkUyfmvwiduOdyV9TAp5DuEGBThRCpwiF8NqPkRfhe+HQ
389NuKl3JJWrrQ5bu0KxihHSNwgorh+KZGConUrKBgCrjHjO3+RohUsrx2DbiSsT
W/BEdkfOT2X2QpHNjoVH1nL48Po6YGIZR0p1RmTMkoSLHXDfajT+WoLqKQggtfia
RdT/CRW3y4uvGEf9hPt6YQUwDuhFyqYBNLf0cGdBdBf7ZiUEa5dJbjLOAWlNnPuL
mW9NgJfh9Q4U5PBx5ZjIVNFjqy2X2l1Li4bPJ7T585ny6Ag+LLrUW2TlfLgNWR45
fvIuix2MH5FJrOToCTMt1LP+o6yVLAVtqdO3qfT3RARjPEhiQVmB6yJZZfttvOIK
XRgK690D42tPrwhm5LbC+qDqnD5CXBoMns6I6eqCo1uXN/GvlYnwE5T6J9Da85r0
kmdcSW7oGEDvcezVlaWr5L5+j+aKdfjQgKJC+muxkunLdEsvCUaAN2o/MjlWfmTI
7xMz+Q/IekFRMoqXkNU4DhpAy3z4i1nuJhP6juDL+AYdwGeZmS+dqxVxOQ5a1GpI
m9GTJng3PkJTXmUe8pm4FK6Amr55OxJKMpmt2ABGMIHbu4ZRu21qL/m35yfdNsYk
lzMHfeeMuUkMeAhUHMfBjiBefhwfEYEp6wimOTXAzdrpZg1gWx9zG6VIPq1A4Qob
64K0lqQkxCfsOj+ZtM8WQLNYDFg4EftwdV0lp3Ttr6aBTHdNpci7KcPBN1yZzRWC
GRJijsWZq8JQswp56B/lTwTorvJRYIhusG6xBKZgTxxqcaYCOU4OuvgX1MX3+19A
+xSHfNh/0YEebjMEok6hNyURwx5Pf3NbEOwJ8IEgbNNW+6ojyFxl7VfIs1DTZ47G
5cSSQsY2aKbRVpLWlFFXuzr/I47JG0BJQ2V/0HlA3qOn5kZ5ZT5odTglPJGV/0Tj
gStebQxoRvaeaAw5oNgk9WhGJOU5Rca23Yx2kBPHSNNLt0aIvGF8ckW2b37AqYte
80h2wr2SFny1lj5NolOOuHKEPxz9ShkV/j5phqXm8TE3oYhTmVJw+GYQjIDqLyME
XcBrViStjlEDL7sHV3kjQlyaNF+3n4lza/3rQLWZJ/zGdu61E1QcWMSJogzBlZUs
G50CdjdiM9qEHFKlhfw02HlAVwfuQz5xeyodealtW/9zJWNTND/gDAXEdYuKf61Z
QVNrNxTRuQ2ltyUdfCusN1/QhiydHFeMC0EevUchwryQtY2+8jVD6NPjirUsFnSc
+ryDfVc8ail0fiN5qKPp4f0b3uDJ54v1I0QnnF1H2wLo4JZlFMktVDmursM2QS2O
gZBRuAn1RYnwDcHfPySmqw5BWUofMqCq34UfvEMiXJn4JY1EzwNJbEIoLO6fFdLm
cMR26Zx9vo4JjOD8u2m0MNzzTZ5ioV0RCSEoebMmtI7WkIEZ/NsSUr5b87iO1IqY
6dLLBhfFndSzc2qads7wC5vHhy7XOZ9PVJNHeI1YeGwlxci0QEN1Vx9CqioFuHGh
ZvOZRKKSqHtgFkRrW8hqdc5Ij5kxoc7awtouVY77E2M2Ng2DBUYZUj6WGDeW0szt
OcXy3xHu6+L1eMb9KKMlKZXfM0eyqz7zoogdIELGEODERSl4mq97nOVcm5Y8O6hm
VknFYeElSxC832TABwcOeuc7ZCRxNvx/SL9FoJT6D++OQI7eyttUo7i4YdVk4jmZ
oPH5V95PnpuxH1DfPFomAPDPjgiXQTchNFa7ZxKSFa9JSMdhWyfaXGqcSxh1pNla
Pq+m+554iRW/13Pg+O5AyAkvdkjA766akbaWLjShDrm41gqJqmdpGrpF7LqSRnNf
nFQ85jGd3g/flLZezxQ555WGuyEWNfWWz+8yiNzYlRXDOs6gOCCNeTppUTP+8nv/
Hqqouellcd/Mn1KmnbI1Wjqlt9x8Dk2IQPfJG3TaEyLvvfcDf1RPug4Efl40Mr3T
EeNhONo8TM0w+6PJmQkidYSWC6WKsRMk3aFuyxvleoiDmaq6nxwl8lTqs3bekrDJ
psostycxj/ahk4u9CkOw8TDdzLe7zzAyai+q0MEEzTmx3Dpv8pvs2+HMzyraECB0
Px/w0Zf83UYQiOL+1P08NrsoQlbcubdqZy2FEMSJ1AVqnUUW+nOxumfuyEi4Nlhy
aWLZ9BheqQCDLfMReqF+TFXbDR1nx9FlRQCOvXnuzQlkMfhvTC4v2tMJF2VokYEs
/Ue1IKk96QApQSkC9Dma+hboDgH8ZiTlmezEMS8mUlky99fPFMEW2BFknMZGcVlg
VMC5Gb3hWRWCMKjG8jNsBS+Bj0iBiMC3Gs/YsrMjV0ctHI8CkXe+8c/31BFUP85K
T40hGmCvN0G+d1vnEGHqNB2cigHyX0YtCfdoCZJHGrAHEZ7yPmlNGWKNWsH4kMwF
3cgBq6BQtn1Q5e+gkcqtCNwToeK3FjbRyMhmghcWTFxG0eOCdf3ZxOFtAjaBhNwg
6lCNVA0hMUOwVZ08+JNETKKCBYGBqGAdKbWBo2wA0Gu1SL8v/ss30UioXfVxh8hy
l47Lu/cCW0K6spUV24BAVNUI9zTago/ui7lSRt9mIR7eUYvnlt7KHYLzaZVHusd6
IwFj9cGYR5LdRAA2z97YX+J6rzNqqj3Wl1iHEV+ePYVk14529gSKN2ltnir9ZUfu
P4Yd2Zhcf7EnM5z3sZ7sbsy6CMwQCKncsQUevX5KZAbIBg4rKEmHHQoSgOUUHR9d
+30Jj2xhibfm2eMmlZmQMVZjeQ7/wF7+cl8Emf6Fw3lfeASVClX7f8+F7PF0cdg5
6I5XiXoplmDKL45eZcvZQtoKFk62OMZd/Itxu0ysNm/SuNNj5RHXH0MugwOFxtn+
CxSgefPdgXe7phGa0FXMKZertH5HicZfIOfTO2JUpaV3htAMdYlcHjjsphnVGmke
kcubmRR+qo82Ad4fZSVfl+rdT5+NYZnz9+V87g8JqACDihQydTAQosf3AmPlJdj/
Kjabd7oCgkPLrQbjjNNBabHhJdkkX6+YMzq8Y1lSNpGeDQ1Q/DTROyTl6bAMU43t
lw4GGEhuXlBjO78i87SJN4tfGZztkAUavy+7tt0q0JeuLIg19pfN5Hw9zBNkCI8h
1cV8XTeuXdWRk3bAFatd/LDB5uW9ASam5sXXPdg78tCT9H6ciHOWj/tPuVkkSCm6
7G4EM0jXwdIVwnMoOWw/+cqzgpFTCQFFFFkvA+ZsJ/zSqjdM/MO/gm3gArK9IiVX
9DLnfLzgXflQnNXTKMpPaqYoLL/X/msc88gp0gNdOntCynmP4nkDZGGlT5n2ipf8
BcXLcP6FA5rcRUIZtYEo/JDC9XiB3YuktP+iY+QyBwfsv4oksE/2ktpHjPzANVTA
KuNvJqyC0ed6kMi3dGKqhSW6WIXrn9hm7TjAjRlfmv6p78MojOa29ltWOxuZbv1f
rUnCkw/IDZ6Vct/bT8RkTq3hzZIm4wD1BXA2CFYR7sIZIa1Ww5uYU6TmFcy90O/f
SCMg+nOzCIA4FFuggGGfGgUR178rv/CD6JG+0eRT1cCE4il5Aibhwc/evOcO24dT
SjDd++G1Z/aYOilQOeTFtUTnEEePRUU7/fe3bY2djClqAxz5YFw7qnoxxCLcJ5uw
S3nXCxkxfTH07l+Y0fJB8onufHRv2Sm1Vr5dKf0pJy9EG1u7CpI6pLM0YsWmoTof
poY1GNRVwpT3024I6x5a7Rp83z5FNK3GEJmFljg2NE4xvI38l+6LFbYU8QrX+xDa
WyAFNL7JePi2zXP6IuFYehNtcLiYO2n2+F+BDJtKvGHwyzVdW8XSxy2A+Ngd+u6n
idjUGrTqLESwNf/ResWcd3jf9oLxb6pW805O6R1mUcDVI3+PWQtEFIfw8gudTpBv
aG1ZFOhHMc37+jxiWxTmFamO8qw2BqfoA3Htv4PZg28AmjwRQZuWou+LUTWBdSi4
MBsPJgBdGtIKkxinvkyWpc+nWj2E0HTJIhz0NSj9Pq4Yl5jjf+JEjfRCd91HKT8x
Ov1rahQH7IZ3hLSwgA/HFOQowD+3DmanYAZDg+N6eKZCKspN3IgWRLyrKSKKaUQy
w2r+5ohxRRpviKiRwpVygA/D+Fg9ef9xzNrwpePWKhmbpMKCcbhERcAhTf4XpwXd
2QZJI9KIBQZk92CZsmXYyIDl7n79f29In9LEGoEmFg1dNTBs0HLgb7y1PwjazP0W
K7j9PF7tnGvZxPKreh0hZT355urQcTpMkwuJkXYk/oitHmeJxfGUH2pUVimMfd/O
fJ2HOJMO0+ZREWYKoIR8uBP8bgLQ0LrZTkKQsocBhOW/hAbw2ASLmpvk2vzKDeam
ysev9bMEBUaepHm8epeH30VhDJbjkr6WU3s7qWt9mEkxrvY+NJrsFFGhNSEovphi
rCX3ayQlPI+rvEcvBr2KUw4GzUNQmk322LvpmhWbIxZeTb6+M8a245o+M7y/ffb0
8buRU5Y0jWR9Zc8nJGK0+9qUdj+yZoUWitFUEQbo8v19chETkVnhZy8HJGz7fsep
IY0LXJ8ssC8cuSsSlN2Xl99+ZLEM1egOswGavpnbwPfisS41EFNzIQeaopX7s0uy
jJ5drmKVWJcPV2zHf8ZfP35zG1D/pjSIQTRwnwoLhMx24xkAxrpP+8iKJQ3bjvfZ
5F/hJdE2xAaInMZ/V0oPlm9AdWZDB6Ej4PjH0BSLWxAt+W7alyeRbA/f9hy89w1E
JB5QT0DeQCbaVsecO9Qw8/GPy/DZJNQjvxHD0kqeAMLUVS2VGdoE4yuK3kVUYpCB
FMmMkiP0MbWjnnxFAMgxclyK9KoqDR8bqF5hhV94lDXUA18FA+ti0+WYAEJVjP53
BUy0gpWdJkRUpSH/7cYkaUhmmy8h/585zsoZQRJBXtJv6/mAB8HcNabTPno7eD+Z
OjCrgWNgnfc3LQ0bWP3IXV08jnVBekoiGEUQK0//giDdzFSz0ZHnQy8B2w44EQdC
2tI0Ke1eZBtUTy65yKKkgJ5eIglDuIbgri9DUfD4EV/OPmsoeel4y3YsKBvUGE/t
fgkroMvxocJJ3vw92F1iO4HVjNDKTrwfOVAbejAZyD746iihfnV2fVfh5BA8nEBc
GAhwqe47h1hlVlB6leBSxZzTaYMFeWTrPP5oK/IM6UMwNrAiOqwcasGiCPJb2s6R
cL4U4Fru14S3pRkWNySmLkfmMOXAnulAECiy5bqx/duIPTYanRS2U9tWoyuRzQc9
uq0A2b0HbyuERbONHDRUP3gqi+LTVSC/Lv4cAhIbYgrYlYW9darEzA99OFAZqr98
PhVlgn8enAYCu6kZCbTckmvH67GR+VuK/E94JyYFCnwNLItn5N+deApb9hfSjt3c
+OIFqpUR0Avh+L1ZGOJo+l5EswTC/fLyPd1QpkO0G5f5GY8pQN9y+TtC2xvuRWYM
4io5T/HQR8YCFnqWnfeAvFG/z7LaMVxK9C/q4/j4ZDAI6+cz+3P/CMpmZFuTjpHz
T7uLp+g3rQvS9KnQcxwq5ZYDdwd7hkKo0pqufLH6MMOXLS2a8UdCJGCvTOLJuU84
7Bjp8DPVBbz88TreHuIP3CqC5Likn9N0a+R3lKkIboSzDe1X4xvrSoqaejVwuTvR
vy8O47lxlMej3xcJnKSwI/7ucqLejUawL+zHLqHCJB0tQrYpC26JzEfNyfRyQpSM
wv8SPFVO4WwraGBNBv66NPrGiVqz8dkJt3+IjoL7fBAhCjnDuuARO1E7x/WyQDol
qzkK7qZpmWIXuHa1sPORNTgNc/BZ8okH0lzUvInLMxzsTIP9tlnc2Bp1UJ5MhJTP
s/0eLA9rlkVgF12j9ZgZ4G0ruxZESciNpd/CGx/Fe/oNcwmE6S+i5Jpy1tb/1b0w
BZLIyphNAq32ymoWL9bjP9tmqEsU4nfZ6NoQdcXQEMpspf3VZ9CJqLr1IMPtoVtb
hwNPRq3kfdaAtAvIR6s3pmX4Yq0yJmz0/+6KlVIKLA/FwT0ccdctjthz8bNoivuP
54wceOFQkxlaX/yZm7FtxypTuXRolTZ3doQKdsW7wXqfDUrd8sRDcNiObl2j6CyI
3eBxJVQ9hGcnMiQl3TfiEaj05Ohdm9/aJj1SaHWmen0eaCB6as9v8ZvDjPgzgL1I
r9f91xXE1yB/e+f/oFjvu8M815UXi7CVsjW4/PLJfeWSobt3AHPiOAUywup9iMZc
VI6SXUDX0Ues9JJhXCH3xocD5/XdsbMO+g7cb6J55TJod8xEv6hgumHZa2WodZa5
bepBXaNRYUMdzBsGuXvZNxfGVTKuHvMoAu1p/Ollo/lPbtOWtUuwi4n9Vwrw+nwq
qv/qrlUN+OLQC0Q/agdFKIQYc97qvgNAPtHToh/5txby3IgonZz9KOJHJlrW9C88
hBf66wuL4H3ak1NLCN+qfY7KHwsBW4ufPPhq/euEWeDTtP9w7VoOgaUkP14G4jLQ
rIoBKi/+8yeXKb4M7LGsRKvSLxG2bfaYKvJYnXE6r5hNNc2ROCI+4/6SNpuN79m8
7dTrZxUyQ1uVCsz5Z6EjqTHiMOyIiXoQnt0XeV7iXOrP7O6nten4AS2oydlgmYxG
9dbS3lYrRjpyPgaLYsHHw4K+l5kOvK1z3TZKknlHkVgm5iaG2NrEtfP5jH4u/1Ay
vmCQyUHnuN/Oo2Xpn/ErmvhZsspDnUU6jv3SqW6JBe15hutalYjkfpeitiSOi5xg
dUR9wzHW1DDVj1q5w5eN1JYag7CM7pH1Jie3kLWwSczuzQToDD2WlVV2ouy4PR7W
/Gq9eFFCWrGW+LF4nFlwhX1nWMe6ZS/IT5TnYc0tYCc9bEQ38V93uMhZXhlEQrBw
g25TycksMCw7+cWzInvOCvpcIJtEe3Fqnyk8EuQR5g4W39aT4OKqhQ1XfWaxKqZy
gF2J9SdViVLqaU+vY658KZqAw3qwnd7iExZlfK09ZmcqoUaw6zDnq9/8Y9Bo7NRh
5vEl91ukq6Wi2e5BOUU9DPtIqLF2Bc2PuyDahDMhO9/7/pm9XBKnbxKwcMbfW0Vf
d0QnFbvAtJ3Ayn0oZ8Dwdy6hInb0pkJFZplWcl9wEM2b8RIhLDL1zNUdCAK3VoH7
NPA8F9OgMb+HbjZSdZihPD3u76nYmL/r9+6LeLeaKbOtLHQDwJf0FgcceStp3iaa
9VRVZhLUNze4BXO2PgBmA2oGMH7CgriJbT7lim4rC3AyXyEet8Z8KQQDNinlkpxe
86pSeV5KQ4qL0a0cbNt5Houc9vHwbAJF8k/r/clQS579l2Ki9jV7LQNvWBDzhO9W
skBhTuDjNoh1xXWjqqeFeHV3PRcsROzvjdSgzrIFlf5iWDkIPFtSFqJwXNzzoH9/
3dk28+I/n8b7eWFmOnoiTh1M2WO1of1X6h/9crGwZtmG0A2YWvCfo2xxtwHFYyrj
4ucpnNx+cYUqclqop+HAd9VB/fKlkek6om2am6EjLE6Lmmaj2AJpOes6Z+N7tMLm
Qo//ErGhDPmYPc/c1QSNeNetydK8LL3/EpQPkSMQpBs3PvlMY54dBRQFyBCpqiub
ZKmqbwoIlfNUACuokJo3vA5U25Is9LvAjEMrb9bOhpto57lu8cddEwEraMg+65Cg
KIBN4/9rVndaOPxGeeX0PYFC0iCzV9Bl2j+rfTLNWNLqfR9de+m80fEdD3Ib2lau
qQ3jlLEv5cqEuXXfnaHR9riRMc43JfsA68ZVqGFDM2WpgyGMHvndx/FRIzHX1QMn
Ps6IbtEWKh8F/qnonzE2cnzAS0mr1I3mKSQNojwoY9mZhgII6EpE/yF72gTD9EsR
yhjBCwXlksZMxJ5euFiQTvGijwRgFNCcb4BFyt1nBDBNyJdHFQGht8drqqeRxbYb
nwGiIoD4Ay3kqME2HWGyZiKsY5yPMXTizchztt3/NwJAStI5sV4S78E+4v0RycaA
Z5IWAdFHJAHcytvjSXViY8ISQ4RIvzfe+jwkMrjSBwxthBD1ARhZQekriySgFTjZ
1gdNVWxiVkOXhbrqWiZenh38JZWNXivzMNj4zi/LWYXjhGykb0G7YaW1ts1JiHwk
/7BagKiPq2/kJ4TZNzfZYqbZslz7b+K7Zf9498rKsKEtEaXd1Z8S57LzFDypC51Y
Kyhg4JCgi7goYvdBhZrscv8Pj2knEIi4uL9HI22CZIga4uRxwtzyjGpIuDPlKUkf
mIipoqFlQ9UuN1Us0jBD6ThtxjxyaRGfSZheg1k7JVadbideY0cr25mitKpp2LvI
kQ8fY+ApOGVFX9l/pa95yu5NKpfKQxDlD09tgylNe2AuCPo/X8aKpi7J/vuCKQt0
spGSqGbCIIHq8cudRWh8vTf34LzKXIgQc0Vbr0hgZaIpjRkVrjtZx6M9amlwgVWk
NdJU+bHlXzdpBkrZ4MBtmayg366v61pHZvZ3UPwiipb1c+pR6UV91rx1fXBcmJ1h
J0Yjiz3H6ECAA2lqKdOoYwKMj0ONAFGc4lWUIzbeeK56W1pZTtqpXEapfFqnF0/3
Z/zXTBlxcm3RrbErf1mc8CyE9MOiEU/diY178CnoUeen5bOl3APs68Ygiu+abr+J
H7xFdL2jUtWCelqGx+MYs0c09CdOwDyhgW2MESY7RxTqu2IxQPRECnoXdGW66006
/iaO8TRnlbrhK3ecUlndfAAhMIWR0TsSuJilb9GJ9Tir3bq8wvFvjtwr3VYnhFFH
9DT60PW3EbUa5mQumHZLWJyU/gPaoqoFqX5PCKHO+V/GcobgBBTlDpBcJMz1TUlB
J20TMgwa33hGXEDL7JoWmjJnAzy45Kus+JXqCp9zOmcVmsdISg9l3cb6C5Pqj/hN
NZVB8S59DDkMIJM4Ah9xBqce+gB99ZTRLyQa+aGW7B+yMCy8dXUfAuuGYj7CUdZn
I9EIXrJRxq0pCG5gjZm5B2r0FkzQvrUB1McWtdIQTFnh9TxGgA6Tpl3sJmfpR4Cn
Mj82maptb6n0UAvOT6k3oyz4tphUtKUNhQIapVTPiIo4BwYmNvXtjYSChY4v9UkY
qADVIjNA63vv/+mgKTr2MwAGV12bDdcOMkLJeME6yiWBIRlMhVAIs+pjbEfJPaGx
JaJaaYCzWIEi3S6PCc1Q6DOCe5dwRw4oatbxTb+e1vTgpLaYeJOhmjxPTsDW8qpC
R2+RfVpmw+sTy8d2UB70v4UspwMHbZRkaYlkJ7m8/w8AtCGMJqUol8hQ5enOZHkK
9z6pJTg8k4S7UYoJyvLdX6SmorpM1Sf2HhFS4WtBto9CZK4wBgqueM4XgRk3bTB9
X0+3SBZ6Ktl/Vq2jMiazFexDDGk25bZrz9cUNLeA/h5mo0vAMO3l9N+S+6FktPUc
vwssywTQheytIbbZ/D6N99XGUKKc/2KC+fudCy5l0U3ox3qScvT7/vAoINz401AT
eDA7+/VEJlr5MI97EEpyJYhy3qV79ZIpgjgXNakxZ4+9T+zFs7BY3lgt6kBut+ss
9Mxfo97bS2e+rN+QLvJveYD0Q86kZdDrJOmx1yofLaFWf3HCdgn57s4y8h8S4k2H
uml2Mciq0sPaSgRGpgAi3DQrGwAy6vDziJveI7r5LDpWsGFZmhi+ETPWS+wBho8x
HsEls4KRTY/mUhvdvsh/z3SZrTDAM9PaVvp+6CrbK+6vyDKij8Oacu3AGO50yN5d
g/ZFBwaRtktYcn7L9JmuGmsBYLx2x2ZbIvdJLaaM9EsRK7/CX0W2acqYsYmndBHA
ILpYmwNLSz5GRmp/zYvff6QnAPeV8Ulb4S1BW3bzoxBuuk3YPq7WMsdBWkcpjyFG
BMRvJz+HWUnLHp5ndFk+gcDQjFdfGKA5XIBiBlftOI7fK0ij7aLyhGovVw10CBaG
4RXo9zJnZsnqxSChe7sf9mKQTPUyXaAF/L7YImNt4P9yMcBPOd8T+1Tg/wnAA3gB
uiSXaexlRHif8Lja5jOh7dLhLXPXUphCgEZmPjhlO67A7GyVuHrZRhMC/7DK3hKL
9ccFD7Gkqjci8p+T1sCjmoKgNKTDjacZt9o5vF+5H7/eam5OWruyfFCJTI4fdnQ1
7KHwGOJbw8W4CEZCH2FW+Cfd2nYS1vbSC6h8ogNRI1CEMHDvkeDD8NhrCplxrHER
hIx79iEn8Id8kyyOEfjo/33reKGaaf25Oofh7QdKrRX3wg3h4nU0YjFjhKya/RhM
GHeweVk0OY5lzlwIFfejmWVDxXRpr3mSTgiAqWztn93lzoCjhsf+B85wXz+Rym1X
9FZMI1b9ILx9g2Ed8QRm8kleOMvryXM789+Q+mc979kXC8XMhFbVtMneDvCspo3L
MNgse64q55BbXvTo8XS1P3os7RCIgJSWAkJJel1r02ZHpCvx7TkkuI8rO42hPoLP
u/3kzSWayWesgQ7+A6Cu8Vkb385X6xY31faI2TnFj1jSGqlQPLd3jm87po1Ymffx
ayymZ/CuO9gUqpGWg73ZYFfu7//T6IxcKo70AwJd5rKGe0RvVwv5hpU8uU9G2NZQ
ACFiR5FI/KOYQJJBz1PVPAKTaHCwxD2y4+kc1WGeHkYm8h595hGlNsNGjuBVGkDW
7x6LOjQDWlsEh2g6jqBHHJ52m9xUZaDJvHnBFQy8ZE816YyaMpB++nvU4WTN5/l4
9PjWspb0FK0NfkXuaMGW5ziQiWs5bWGr9fmv7GLotdSU36HPrG1rP0txmPhPY1t3
zDJVSD48Jaw1B8jIRvRvynURTMjZq4uxfCTsCp2zWP9Bl1sy4prK1E4reIMx9Tqi
a5jp79y/jxrZqcvWPl7QPkdwZ5zMSmU2rotRn+fjU1W+A2CkEIX8a94P6wRrw6JC
bE/wxlYihNmztpt0/jUqT1zKy2IXQuvOqtNw6utkChtxrfHAr56v+PUay2/Y28tN
ZYm8aJABeOIlrkAb2KBAOJ0mnEV8NGyJG/rPLB671+iSuHibIAq8m1ilmJEe2xC+
1U5cnKAiMJvt1br8WwjPGN8gQT1cZrBTQrxpIdvcYvWViJMI6yjux/uPubJ7Wu5Z
gcyxoDOff1WI4lLsC33qpkNu4gtoMAqhuNjwMrVWKqMCynXOx92Dm9muXQ6Q38ye
bW9jn20DNX7HRvtma7ycxKBOAQ5uC9bDpbvKwZdBfrTDy2iCROl4hTbX8G8OBknv
pBJyDtVlV8n3JjhHCCLWfRpvzTPDhbMRUC4wEMahfncuAIEDeR2l6514GLSyGmnN
M5ld95Jw5+ElqYBU3r4lePP6qvQqh7nNUMHr0oPaBMB2WiBMcZx0OQpqavn6Linn
fnl5mTZ91rVTKGUzXkIFtQC46ftSpjUnqfwc29d52JpINnL3XVXUayiXVvnV0ROO
u/920YSlntoAAFCcOMqvxaSupolRZaDsmu+80Lz0qBYG7GKes3M/AY3lkGIf1wkp
Va10Jaz2SMR8Bi+XiRo5lYrTMY6Ee7UUV5w96g4hS69cx6UqAwS7c9mdxmTGEckO
KAFiOHHNAhGcmFoiGhbdbytHHx6fhcKYwp7FbE3rDK0d4XD4ZofOeSeiKAtXnfGw
KhcC/MPY7siDBDnrmYju9ATm/b4z+xYmjEyNzWHzAgaj6CmpErPqUlZ3WmQUYExH
hCx8omYVCTbnDgZPFMbkUZlJMkqsK/b7AdX0pG0J84OPwOTxtCj99yhpXxH1asIo
o5mHJgywxf+aLlQeeSK6D0Q8Y0DgAeW0WBUcbVWiD5YviKpS6g8axI/X7J2kOufw
MfGuRIQm+QOou6R87vjj0HikLB2NHaG2OQvXc/UYUaoSZSAOCn2PKAPj3cRAL/dr
2DBbs855W24e1foU43Ipk6RwYfdpJsYqCy6yc+Xp5Z9TbIOzFPI1d0T/oqIErMul
q4nK8luiFZFz5mKjVERiItjgNpQE+8HxZ77C27KU11OT7C0n7UCfXtr2eKlmlYWN
aA34LPGn1/aDhm0uiWP9x5K5+c1elZ7tmr/PVgO3olhQVyWq4KSS9rkR6bCgwjYC
FFjBYBI6jCDu3sKtKCbWosXNaZw9/ft2C96AwdW6oebJDSPSfgjctl+VCh9w3UJF
ZP12ppYWrNpL5XDwQdGKuEPnjqNWKMnkywZLit/8qhUq8bDAgcW9Qj8v/o4xWhlY
OjAfG89d+/KA9Uh6bjYet5V8UgexMNz55+wrczlRcDP71EsWaGZNgVK5UANaySD0
AEQ1+JP0NA4XBt5f57g4jhJnWtD3xhwRYwDifLxGnOyK555x+OhljC18jgv5i+rN
RJ4ffPMowAXqkspp9JhR+V5K/bicycTWmZtVaUsGYbJtKjAZM2DBOAcHA+gahHEB
pqCaoTbOhJhUr7rzTFbdnpifGqromt4FZZggpfOLZTMKxfBrzHN4alMAviWoaldC
XMucdYdQfJ5ZCvhtFjZ8oEXnFsNXoMzAG+emQW0MU6d6VFS1jmyMWvz0fTrm+tGx
rkcjqxH9pe9CwhKmzUBnpPbCly3Kg4pg12IjhYrP7Ll8KvSnlwcLChnrS8TzASRq
qyP+uCsQUJV6SK6w2/9KjkC8GHBjJwYY+UOAJLAVbKuHBiKyndi31wL3KiriZe68
uApbEVdIvviCnS3fBS8wXw+UQp0DvTzJehzINkU7I4R/NkoWjHjf3kC+HcwjCRBf
VczAwrxFAqzZneT/nNKl6JE9xI4MdtYTdVX2X+79Y/osSXwYeAQUao7lOqRXkuhn
Oz5oawHOfYeEgY4jrgWkms6IUBUmWNUwFDzNYupwDfKmeLenmagWkibeUIrYZL5S
ny12dbObDFuZ3wbSHTORQ0/3hOUPPRkgSHhLj47V+1VHFr9OY9xllTvIb+ZftvI8
NxJrc9T5f2hXzaWPovJkpMvX4gYIRaWN+biTL7Mzw5/AEwmnuqx2MdLNKptYB+X1
Zj9gRizRc8+jifYPCcG9ug7tTgo1EzWPXjxr12oeqicy3eSGPe5HMJGcew4X7wmE
/YEKtioCX2DITkG3LGQv+i1ZOM+ypRzS/mJJUXELa+VMtEi5CspkEcYXS9v8LvFo
MPuth4ywHgpesL0LvSXd9/cjloZuxoBdh8vi3n3gFTIqKVSnL5vCBAt5MdlQ1s/g
d6UTZBPgXjdm0TuH9pl7OT8NeB/X15zXIUbrBUNdQ8md0nCdj9xT5W2Fnqwx0rMc
bew3EX6IyNi8bdjwj3m3MHJolq/7sChs6iJB87bGdyy0a+G4CzGusC7wYeO1NBwI
+1L+mBa579IB9w6eXqUHwwqQwj1bB7Qnds/FCCufi0i5+F3KkZfWXakkMb1Q7Yql
t24Gh2ysZ6sq9GkmVzcd6k8SrACmyiwMDRHDclMldja7UGzLE/5UqwsbGbORguah
+cYYc/p+fB9STe9UsfJ8lnTiRiHwqcNhhaHwPKYVjKOq57R2tMWBL9jNihn9piXM
ivqPX1WCdv1NZ7mpaKGd0e2ogH5Kz+8NKdrPJ7L+CJwYSOBvdJ4Pgu72+eFITAa0
8XgMF1+1xkI4i0pc42w4++YEx370oYB7qKPkckrGSUsZw3n/KnnNTCJvqCM48zzz
YNooLMd/M5+fjVow3/GXsGD87EXCdSV1fFw+W5K8ul7KP64aVrg5EHAJmo5QvJKc
0pq4g5qa7B5fFs2OWErZcwTj5ZSjVzjRRivCSA0D8WnpHIHdVFZvAJPCcrccb0GQ
HWWDA3vnsfjGTH+J1rx0DF/tNemI
=lycZ
-----END PGP MESSAGE-----
